; Created using https://markroland.github.io/sand-table-pattern-maker/
;
; 5/22/2023 19:9:33
;
; Machine Specifications:
;
; Units: mm
;
; Min X: 0
; Max X: 472
; Min Y: 0
; Max Y: 380
; Motor Speed (mm/min): 4000
;
; Pattern Specifications:
;
; Name: Circle
;
; Parameters:
; - radius: [object Object]
; - angle: [object Object]
; - reverse: [object Object]
;
; URL: https://markroland.github.io/sand-table-pattern-maker/?pattern=fibonaccilollipops
;
; Pattern Distance (mm): 64,685.9
; Pattern Draw Time (minutes): 16.1


; Custom G-code to execute before the start of the sketch

G0 X392.00 Y190.00
G0 X392.66 Y190.66
G0 X392.00 Y191.88
G0 X389.99 Y192.00
G0 X388.22 Y190.00
G0 X388.66 Y186.66
G0 X392.00 Y184.33
G0 X396.67 Y185.32
G0 X399.55 Y190.00
G0 X398.01 Y196.01
G0 X392.00 Y199.44
G0 X384.65 Y197.34
G0 X380.66 Y190.00
G0 X383.31 Y181.31
G0 X392.00 Y176.77
G0 X402.01 Y179.98
G0 X407.11 Y190.00
G0 X403.35 Y201.35
G0 X392.00 Y207.00
G0 X379.31 Y202.68
G0 X373.11 Y190.00
G0 X377.97 Y175.97
G0 X391.99 Y169.22
G0 X407.35 Y174.64
G0 X414.66 Y189.99
G0 X408.69 Y206.69
G0 X392.00 Y214.55
G0 X373.96 Y208.03
G0 X365.55 Y190.00
G0 X372.63 Y170.63
G0 X391.99 Y161.66
G0 X412.70 Y169.29
G0 X422.22 Y189.99
G0 X414.03 Y212.03
G0 X392.00 Y222.11
G0 X368.62 Y213.37
G0 X358.00 Y190.00
G0 X236.00 Y190.00
G0 X123.24 Y293.28
G0 X122.30 Y293.24
G0 X121.97 Y291.90
G0 X123.37 Y290.46
G0 X126.02 Y290.74
G0 X127.95 Y293.49
G0 X127.06 Y297.45
G0 X122.95 Y299.87
G0 X117.69 Y298.37
G0 X114.78 Y292.91
G0 X116.88 Y286.34
G0 X123.70 Y282.94
G0 X131.57 Y285.65
G0 X135.47 Y293.82
G0 X132.14 Y303.00
G0 X122.63 Y307.39
G0 X112.14 Y303.46
G0 X107.26 Y292.58
G0 X111.80 Y280.79
G0 X124.03 Y275.42
G0 X137.12 Y280.57
G0 X142.99 Y294.15
G0 X137.23 Y308.55
G0 X122.30 Y314.91
G0 X106.59 Y308.54
G0 X99.73 Y292.26
G0 X106.71 Y275.24
G0 X124.36 Y267.89
G0 X142.68 Y275.48
G0 X150.51 Y294.48
G0 X142.32 Y314.11
G0 X121.97 Y322.44
G0 X101.03 Y313.63
G0 X92.21 Y291.93
G0 X101.62 Y269.69
G0 X124.68 Y260.37
G0 X148.23 Y270.39
G0 X236.00 Y190.00
G0 X249.10 Y40.69
G0 X249.82 Y40.08
G0 X250.97 Y40.85
G0 X250.91 Y42.84
G0 X248.77 Y44.42
G0 X245.50 Y43.70
G0 X243.49 Y40.19
G0 X244.88 Y35.65
G0 X249.75 Y33.21
G0 X255.57 Y35.26
G0 X258.44 Y41.51
G0 X255.73 Y48.59
G0 X248.11 Y51.90
G0 X239.75 Y48.52
G0 X236.01 Y39.54
G0 X240.06 Y29.90
G0 X250.41 Y25.73
G0 X261.32 Y30.44
G0 X265.92 Y42.16
G0 X260.55 Y54.34
G0 X247.46 Y59.38
G0 X234.00 Y53.35
G0 X228.54 Y38.88
G0 X235.23 Y24.15
G0 X251.07 Y18.26
G0 X267.07 Y25.62
G0 X273.40 Y42.82
G0 X265.38 Y60.09
G0 X246.80 Y66.85
G0 X228.25 Y58.17
G0 X221.06 Y38.23
G0 X230.41 Y18.40
G0 X251.72 Y10.78
G0 X272.82 Y20.79
G0 X280.87 Y43.47
G0 X270.20 Y65.84
G0 X246.15 Y74.33
G0 X236.00 Y190.00
G0 X325.38 Y306.59
G0 X325.26 Y307.51
G0 X323.90 Y307.72
G0 X322.60 Y306.22
G0 X323.11 Y303.62
G0 X326.00 Y301.95
G0 X329.84 Y303.17
G0 X331.87 Y307.44
G0 X329.94 Y312.52
G0 X324.28 Y314.93
G0 X317.96 Y312.28
G0 X315.19 Y305.24
G0 X318.56 Y297.68
G0 X326.98 Y294.54
G0 X335.77 Y298.62
G0 X339.29 Y308.42
G0 X334.49 Y318.46
G0 X323.30 Y322.35
G0 X312.03 Y316.83
G0 X307.77 Y304.26
G0 X314.01 Y291.75
G0 X327.95 Y287.12
G0 X341.71 Y294.07
G0 X346.70 Y309.40
G0 X339.04 Y324.40
G0 X322.32 Y329.76
G0 X306.09 Y321.38
G0 X300.36 Y303.28
G0 X309.46 Y285.81
G0 X328.93 Y279.71
G0 X347.64 Y289.52
G0 X354.12 Y310.38
G0 X343.59 Y330.33
G0 X321.34 Y337.18
G0 X300.16 Y325.93
G0 X292.94 Y302.30
G0 X304.90 Y279.87
G0 X236.00 Y190.00
G0 X94.19 Y164.91
G0 X93.66 Y164.15
G0 X94.51 Y163.08
G0 X96.48 Y163.31
G0 X97.86 Y165.56
G0 X96.86 Y168.73
G0 X93.22 Y170.42
G0 X88.84 Y168.65
G0 X86.85 Y163.61
G0 X89.38 Y158.04
G0 X95.81 Y155.74
G0 X102.59 Y159.04
G0 X105.20 Y166.86
G0 X101.13 Y174.84
G0 X91.92 Y177.76
G0 X82.74 Y172.92
G0 X79.51 Y162.31
G0 X85.11 Y151.93
G0 X97.11 Y148.40
G0 X108.70 Y154.76
G0 X112.54 Y168.16
G0 X105.41 Y180.95
G0 X90.62 Y185.10
G0 X76.63 Y177.20
G0 X72.17 Y161.02
G0 X80.84 Y145.82
G0 X98.41 Y141.05
G0 X114.81 Y150.49
G0 X119.88 Y169.46
G0 X109.68 Y187.06
G0 X89.32 Y192.44
G0 X70.52 Y181.47
G0 X64.83 Y159.72
G0 X76.57 Y139.71
G0 X99.71 Y133.71
G0 X120.92 Y146.22
G0 X127.22 Y170.75
G0 X236.00 Y190.00
G0 X355.09 Y114.23
G0 X356.00 Y114.43
G0 X356.09 Y115.80
G0 X354.49 Y116.95
G0 X351.96 Y116.23
G0 X350.56 Y113.23
G0 X352.10 Y109.53
G0 X356.51 Y107.89
G0 X361.36 Y110.25
G0 X363.25 Y116.05
G0 X360.08 Y122.07
G0 X352.88 Y124.21
G0 X345.69 Y120.21
G0 X343.31 Y111.61
G0 X348.12 Y103.26
G0 X358.12 Y100.64
G0 X367.63 Y106.26
G0 X370.51 Y117.66
G0 X364.07 Y128.34
G0 X351.26 Y131.46
G0 X339.42 Y124.20
G0 X336.06 Y110.00
G0 X344.13 Y96.99
G0 X359.73 Y93.38
G0 X373.90 Y102.27
G0 X377.76 Y119.27
G0 X368.05 Y134.61
G0 X349.65 Y138.71
G0 X333.15 Y128.19
G0 X328.81 Y108.39
G0 X340.14 Y90.73
G0 X361.35 Y86.13
G0 X380.17 Y98.28
G0 X385.01 Y120.89
G0 X372.04 Y140.88
G0 X348.04 Y145.96
G0 X326.89 Y132.18
G0 X236.00 Y190.00
G0 X200.08 Y323.61
G0 X199.27 Y324.07
G0 X198.29 Y323.13
G0 X198.69 Y321.21
G0 X201.04 Y320.04
G0 X204.09 Y321.30
G0 X205.44 Y325.05
G0 X203.31 Y329.22
G0 X198.15 Y330.76
G0 X192.86 Y327.77
G0 X191.14 Y321.21
G0 X194.99 Y314.79
G0 X202.96 Y312.89
G0 X210.50 Y317.60
G0 X212.59 Y326.97
G0 X207.01 Y335.64
G0 X196.23 Y337.91
G0 X186.44 Y331.47
G0 X183.99 Y319.29
G0 X191.30 Y308.37
G0 X204.88 Y305.74
G0 X216.92 Y313.91
G0 X219.74 Y328.90
G0 X210.70 Y342.05
G0 X194.31 Y345.06
G0 X180.03 Y335.16
G0 X176.84 Y317.36
G0 X187.60 Y301.96
G0 X206.80 Y298.58
G0 X223.33 Y310.21
G0 X226.89 Y330.82
G0 X214.40 Y348.47
G0 X192.39 Y352.21
G0 X173.61 Y338.86
G0 X169.69 Y315.44
G0 X183.90 Y295.54
G0 X208.73 Y291.43
G0 X236.00 Y190.00
G0 X173.49 Y69.64
G0 X173.77 Y68.76
G0 X175.12 Y68.79
G0 X176.13 Y70.47
G0 X175.19 Y72.91
G0 X172.10 Y74.04
G0 X168.58 Y72.19
G0 X167.33 Y67.69
G0 X170.09 Y63.09
G0 X175.99 Y61.72
G0 X181.67 Y65.39
G0 X183.16 Y72.70
G0 X178.59 Y79.46
G0 X169.87 Y81.07
G0 X162.03 Y75.59
G0 X160.30 Y65.47
G0 X166.68 Y56.54
G0 X178.22 Y54.69
G0 X188.22 Y61.99
G0 X190.20 Y74.93
G0 X181.99 Y86.01
G0 X167.64 Y88.11
G0 X155.48 Y78.99
G0 X153.26 Y63.24
G0 X163.28 Y49.99
G0 X180.44 Y47.65
G0 X194.77 Y58.59
G0 X197.23 Y77.15
G0 X185.39 Y92.56
G0 X165.42 Y95.14
G0 X148.93 Y82.39
G0 X146.22 Y61.02
G0 X159.88 Y43.45
G0 X182.67 Y40.62
G0 X201.32 Y55.18
G0 X204.27 Y79.38
G0 X188.79 Y99.11
G0 X236.00 Y190.00
G0 X360.86 Y235.60
G0 X361.25 Y236.43
G0 X360.23 Y237.32
G0 X358.36 Y236.76
G0 X357.41 Y234.34
G0 X358.93 Y231.43
G0 X362.76 Y230.42
G0 X366.70 Y232.88
G0 X367.77 Y238.12
G0 X364.35 Y243.10
G0 X357.71 Y244.23
G0 X351.69 Y239.86
G0 X350.50 Y231.81
G0 X355.82 Y224.76
G0 X365.28 Y223.51
G0 X373.37 Y229.78
G0 X374.68 Y240.64
G0 X367.45 Y249.77
G0 X355.19 Y251.14
G0 X345.03 Y242.96
G0 X343.59 Y229.29
G0 X352.72 Y218.09
G0 X367.80 Y216.60
G0 X380.03 Y226.68
G0 X381.59 Y243.16
G0 X370.55 Y256.43
G0 X352.66 Y258.05
G0 X338.36 Y246.06
G0 X336.69 Y226.77
G0 X349.62 Y211.42
G0 X370.32 Y209.69
G0 X386.70 Y223.58
G0 X388.49 Y245.69
G0 X373.65 Y263.10
G0 X350.14 Y264.95
G0 X331.69 Y249.16
G0 X329.78 Y224.24
G0 X236.00 Y190.00
G0 X115.55 Y239.71
G0 X114.70 Y239.36
G0 X114.85 Y238.02
G0 X116.61 Y237.17
G0 X118.94 Y238.31
G0 X119.78 Y241.47
G0 X117.65 Y244.79
G0 X113.09 Y245.63
G0 X108.78 Y242.51
G0 X107.94 Y236.55
G0 X112.06 Y231.24
G0 X119.42 Y230.41
G0 X125.71 Y235.52
G0 X126.55 Y244.28
G0 X120.44 Y251.57
G0 X110.28 Y252.40
G0 X102.00 Y245.31
G0 X101.17 Y233.74
G0 X109.26 Y224.47
G0 X122.23 Y223.64
G0 X132.49 Y232.72
G0 X133.31 Y247.10
G0 X123.24 Y258.34
G0 X107.46 Y259.17
G0 X95.23 Y248.10
G0 X94.40 Y230.92
G0 X106.46 Y217.70
G0 X125.04 Y216.87
G0 X139.26 Y229.93
G0 X140.08 Y249.91
G0 X126.04 Y265.12
G0 X104.65 Y265.94
G0 X88.45 Y250.90
G0 X87.64 Y228.11
G0 X103.67 Y210.92
G0 X127.86 Y210.11
G0 X146.03 Y227.13
G0 X236.00 Y190.00
G0 X290.13 Y74.31
G0 X290.99 Y74.00
G0 X291.78 Y75.09
G0 X291.06 Y76.89
G0 X288.58 Y77.62
G0 X285.84 Y75.87
G0 X285.17 Y71.99
G0 X287.95 Y68.30
G0 X293.22 Y67.70
G0 X297.85 Y71.51
G0 X298.40 Y78.18
G0 X293.55 Y83.75
G0 X285.49 Y84.24
G0 X278.97 Y78.36
G0 X278.55 Y68.90
G0 X285.46 Y61.44
G0 X296.32 Y61.08
G0 X304.72 Y69.02
G0 X305.01 Y81.28
G0 X296.04 Y90.62
G0 X282.39 Y90.85
G0 X272.11 Y80.85
G0 X271.94 Y65.80
G0 X282.97 Y54.57
G0 X299.42 Y54.47
G0 X311.59 Y66.54
G0 X311.63 Y84.37
G0 X298.53 Y97.49
G0 X279.30 Y97.46
G0 X265.24 Y83.33
G0 X265.32 Y62.70
G0 X280.49 Y47.71
G0 X302.51 Y47.85
G0 X318.45 Y64.05
G0 X318.24 Y87.47
G0 X301.02 Y104.35
G0 X276.20 Y104.08
G0 X236.00 Y190.00
G0 X273.46 Y309.45
G0 X273.04 Y310.26
G0 X271.73 Y309.99
G0 X271.04 Y308.19
G0 X272.37 Y305.98
G0 X275.57 Y305.42
G0 X278.67 Y307.82
G0 X279.11 Y312.40
G0 X275.64 Y316.39
G0 X269.67 Y316.71
G0 X264.78 Y312.17
G0 X264.59 Y304.82
G0 X270.20 Y299.03
G0 X278.94 Y298.97
G0 X285.62 Y305.64
G0 X285.56 Y315.77
G0 X277.82 Y323.34
G0 X266.30 Y323.16
G0 X257.84 Y314.35
G0 X258.14 Y301.45
G0 X268.02 Y292.09
G0 X282.31 Y292.52
G0 X292.56 Y303.46
G0 X292.01 Y319.14
G0 X280.00 Y330.28
G0 X262.93 Y329.61
G0 X250.89 Y316.53
G0 X251.69 Y298.07
G0 X265.84 Y285.14
G0 X285.68 Y286.07
G0 X299.51 Y301.28
G0 X298.46 Y322.51
G0 X282.18 Y337.23
G0 X259.56 Y336.06
G0 X243.95 Y318.71
G0 X245.24 Y294.70
G0 X263.66 Y278.20
G0 X236.00 Y190.00
G0 X129.82 Y128.47
G0 X129.59 Y127.59
G0 X130.73 Y126.90
G0 X132.45 Y127.77
G0 X132.96 Y130.28
G0 X130.99 Y132.85
G0 X127.09 Y133.17
G0 X123.69 Y130.10
G0 X123.55 Y124.83
G0 X127.72 Y120.58
G0 X134.37 Y120.62
G0 X139.46 Y125.90
G0 X139.23 Y133.92
G0 X132.85 Y139.85
G0 X123.46 Y139.45
G0 X116.68 Y131.96
G0 X117.27 Y121.19
G0 X125.86 Y113.57
G0 X138.00 Y114.35
G0 X146.47 Y124.03
G0 X145.51 Y137.56
G0 X134.72 Y146.86
G0 X119.82 Y145.72
G0 X109.67 Y133.83
G0 X111.00 Y117.56
G0 X123.99 Y106.56
G0 X141.64 Y108.07
G0 X153.48 Y122.17
G0 X151.79 Y141.19
G0 X136.59 Y153.87
G0 X116.18 Y152.00
G0 X102.66 Y135.70
G0 X104.72 Y113.92
G0 X122.13 Y99.55
G0 X145.28 Y101.80
G0 X160.49 Y120.30
G0 X158.06 Y144.83
G0 X236.00 Y190.00
G0 X353.47 Y164.17
G0 X354.23 Y164.65
G0 X353.86 Y165.93
G0 X352.01 Y166.45
G0 X349.94 Y164.94
G0 X349.67 Y161.73
G0 X352.31 Y158.87
G0 X356.88 Y158.84
G0 X360.53 Y162.62
G0 X360.32 Y168.55
G0 X355.41 Y172.99
G0 X348.12 Y172.54
G0 X342.88 Y166.50
G0 X343.58 Y157.84
G0 X350.76 Y151.81
G0 X360.78 Y152.75
G0 X367.59 Y161.06
G0 X366.41 Y172.44
G0 X356.97 Y180.05
G0 X344.22 Y178.63
G0 X335.83 Y168.05
G0 X337.49 Y153.95
G0 X349.21 Y144.76
G0 X364.67 Y146.66
G0 X374.65 Y159.51
G0 X372.50 Y176.34
G0 X358.52 Y187.11
G0 X340.33 Y184.72
G0 X328.77 Y169.60
G0 X331.40 Y150.05
G0 X347.65 Y137.70
G0 X368.56 Y140.57
G0 X381.71 Y157.96
G0 X378.59 Y180.23
G0 X360.07 Y194.17
G0 X336.44 Y190.81
G0 X321.71 Y171.15
G0 X236.00 Y190.00
G0 X168.19 Y286.45
G0 X167.30 Y286.60
G0 X166.71 Y285.41
G0 X167.72 Y283.79
G0 X170.26 Y283.50
G0 X172.62 Y285.67
G0 X172.60 Y289.55
G0 X169.27 Y292.65
G0 X164.04 Y292.34
G0 X160.20 Y287.84
G0 X160.82 Y281.27
G0 X166.48 Y276.69
G0 X174.40 Y277.61
G0 X179.72 Y284.44
G0 X178.50 Y293.70
G0 X170.51 Y299.75
G0 X159.90 Y298.23
G0 X153.11 Y289.08
G0 X154.93 Y277.13
G0 X165.25 Y269.59
G0 X178.54 Y271.72
G0 X186.81 Y283.20
G0 X184.39 Y297.84
G0 X171.74 Y306.85
G0 X155.76 Y304.12
G0 X146.01 Y290.31
G0 X149.04 Y272.98
G0 X164.01 Y262.50
G0 X182.68 Y265.82
G0 X193.91 Y281.96
G0 X190.28 Y301.98
G0 X172.98 Y313.94
G0 X151.62 Y310.01
G0 X138.92 Y291.55
G0 X143.14 Y268.84
G0 X162.77 Y255.40
G0 X186.83 Y259.93
G0 X236.00 Y190.00
G0 X221.14 Y75.39
G0 X221.69 Y74.67
G0 X222.92 Y75.16
G0 X223.28 Y77.03
G0 X221.60 Y78.94
G0 X218.41 Y78.94
G0 X215.81 Y76.08
G0 X216.17 Y71.55
G0 X220.22 Y68.27
G0 X226.07 Y68.99
G0 X230.04 Y74.23
G0 X228.96 Y81.41
G0 X222.53 Y86.06
G0 X214.02 Y84.62
G0 X208.69 Y77.00
G0 X210.48 Y67.17
G0 X219.30 Y61.15
G0 X230.45 Y63.30
G0 X237.16 Y73.31
G0 X234.65 Y85.79
G0 X223.45 Y93.18
G0 X209.64 Y90.31
G0 X201.57 Y77.92
G0 X204.80 Y62.79
G0 X218.38 Y54.03
G0 X234.83 Y57.62
G0 X244.28 Y72.39
G0 X240.33 Y90.17
G0 X224.37 Y100.30
G0 X205.26 Y95.99
G0 X194.45 Y78.84
G0 X199.11 Y58.41
G0 X217.45 Y46.91
G0 X239.21 Y51.93
G0 X251.39 Y71.47
G0 X246.02 Y94.55
G0 X225.29 Y107.42
G0 X236.00 Y190.00
G0 X322.61 Y263.00
G0 X322.69 Y263.89
G0 X321.46 Y264.36
G0 X319.94 Y263.23
G0 X319.88 Y260.69
G0 X322.23 Y258.54
G0 X326.07 Y258.90
G0 X328.85 Y262.47
G0 X328.08 Y267.61
G0 X323.30 Y271.01
G0 X316.85 Y269.83
G0 X312.82 Y263.83
G0 X314.41 Y256.08
G0 X321.63 Y251.42
G0 X330.68 Y253.43
G0 X335.98 Y261.86
G0 X333.55 Y272.22
G0 X323.91 Y278.14
G0 X312.24 Y275.30
G0 X305.69 Y264.44
G0 X308.94 Y251.47
G0 X321.02 Y244.29
G0 X335.29 Y247.96
G0 X343.10 Y261.25
G0 X339.02 Y276.82
G0 X324.51 Y285.27
G0 X307.63 Y280.77
G0 X298.56 Y265.05
G0 X303.47 Y246.87
G0 X320.41 Y237.17
G0 X339.90 Y242.49
G0 X350.23 Y260.64
G0 X344.49 Y281.43
G0 X325.12 Y292.39
G0 X303.03 Y286.24
G0 X291.44 Y265.66
G0 X298.00 Y242.26
G0 X236.00 Y190.00
G0 X125.05 Y194.58
G0 X124.40 Y193.98
G0 X124.98 Y192.80
G0 X126.86 Y192.62
G0 X128.61 Y194.44
G0 X128.33 Y197.60
G0 X125.27 Y199.92
G0 X120.83 Y199.17
G0 X117.93 Y194.88
G0 X119.15 Y189.15
G0 X124.69 Y185.68
G0 X131.69 Y187.37
G0 X135.73 Y194.14
G0 X133.57 Y202.43
G0 X125.57 Y207.04
G0 X116.00 Y204.41
G0 X110.81 Y195.17
G0 X113.91 Y184.33
G0 X124.39 Y178.56
G0 X136.52 Y182.13
G0 X142.86 Y193.85
G0 X138.82 Y207.25
G0 X125.86 Y214.16
G0 X111.18 Y209.66
G0 X103.69 Y195.47
G0 X108.67 Y179.50
G0 X124.10 Y171.44
G0 X141.34 Y176.89
G0 X149.98 Y193.55
G0 X144.06 Y212.08
G0 X126.16 Y221.29
G0 X106.35 Y214.90
G0 X96.57 Y195.76
G0 X103.42 Y174.67
G0 X123.80 Y164.32
G0 X146.17 Y171.64
G0 X157.10 Y193.26
G0 X236.00 Y190.00
G0 X313.14 Y113.22
G0 X314.03 Y113.23
G0 X314.39 Y114.48
G0 X313.14 Y115.89
G0 X310.63 Y115.73
G0 X308.70 Y113.21
G0 X309.39 Y109.45
G0 X313.16 Y107.01
G0 X318.18 Y108.21
G0 X321.13 Y113.24
G0 X319.40 Y119.52
G0 X313.12 Y122.99
G0 X305.59 Y120.74
G0 X301.60 Y113.20
G0 X304.38 Y104.41
G0 X313.17 Y99.91
G0 X323.21 Y103.20
G0 X328.23 Y113.26
G0 X324.41 Y124.55
G0 X313.10 Y130.09
G0 X300.56 Y125.75
G0 X294.50 Y113.18
G0 X299.37 Y99.38
G0 X313.19 Y92.81
G0 X328.24 Y98.20
G0 X335.33 Y113.28
G0 X329.42 Y129.58
G0 X313.08 Y137.19
G0 X295.52 Y130.76
G0 X287.40 Y113.16
G0 X294.36 Y94.35
G0 X313.21 Y85.70
G0 X333.28 Y93.19
G0 X342.44 Y113.29
G0 X334.43 Y134.62
G0 X313.07 Y144.29
G0 X290.49 Y135.77
G0 X236.00 Y190.00
G0 X231.07 Y296.56
G0 X230.41 Y297.16
G0 X229.30 Y296.48
G0 X229.28 Y294.60
G0 X231.23 Y293.03
G0 X234.34 Y293.58
G0 X236.37 Y296.81
G0 X235.24 Y301.14
G0 X230.74 Y303.63
G0 X225.18 Y301.93
G0 X222.23 Y296.15
G0 X224.51 Y289.37
G0 X231.56 Y285.96
G0 X239.57 Y288.82
G0 X243.44 Y297.14
G0 X240.01 Y306.37
G0 X230.41 Y310.70
G0 X219.95 Y306.69
G0 X215.16 Y295.83
G0 X219.74 Y284.14
G0 X231.88 Y278.89
G0 X244.79 Y284.05
G0 X250.51 Y297.46
G0 X244.77 Y311.60
G0 X230.09 Y317.77
G0 X214.72 Y311.46
G0 X208.09 Y295.50
G0 X214.98 Y278.91
G0 X232.21 Y271.82
G0 X250.02 Y279.28
G0 X257.58 Y297.79
G0 X249.54 Y316.83
G0 X229.76 Y324.84
G0 X209.50 Y316.23
G0 X201.02 Y295.17
G0 X210.21 Y273.68
G0 X232.54 Y264.75
G0 X236.00 Y190.00
G0 X169.00 Y109.71
G0 X169.08 Y108.83
G0 X170.35 Y108.58
G0 X171.63 Y109.95
G0 X171.25 Y112.41
G0 X168.60 Y114.10
G0 X164.94 Y113.10
G0 X162.85 Y109.15
G0 X164.48 Y104.29
G0 X169.71 Y101.81
G0 X175.76 Y104.06
G0 X178.65 Y110.58
G0 X175.77 Y117.83
G0 X167.97 Y121.12
G0 X159.52 Y117.61
G0 X155.83 Y108.52
G0 X159.96 Y98.88
G0 X170.34 Y94.78
G0 X181.18 Y99.54
G0 X185.67 Y111.21
G0 X180.29 Y123.24
G0 X167.33 Y128.14
G0 X154.11 Y122.13
G0 X148.81 Y107.89
G0 X155.44 Y93.47
G0 X170.98 Y87.76
G0 X186.59 Y95.03
G0 X192.70 Y111.85
G0 X184.81 Y128.66
G0 X166.70 Y135.16
G0 X148.69 Y126.65
G0 X141.78 Y107.25
G0 X150.93 Y88.05
G0 X171.61 Y80.74
G0 X192.00 Y90.51
G0 X199.72 Y112.48
G0 X189.33 Y134.07
G0 X236.00 Y190.00
G0 X337.58 Y203.66
G0 X338.11 Y204.36
G0 X337.34 Y205.40
G0 X335.48 Y205.26
G0 X334.10 Y203.19
G0 X334.92 Y200.17
G0 X338.28 Y198.44
G0 X342.47 Y199.93
G0 X344.54 Y204.60
G0 X342.37 Y209.95
G0 X336.41 Y212.37
G0 X329.90 Y209.52
G0 X327.13 Y202.26
G0 X330.65 Y194.59
G0 X339.22 Y191.48
G0 X348.05 Y195.67
G0 X351.51 Y205.54
G0 X346.63 Y215.53
G0 X335.47 Y219.33
G0 X324.31 Y213.78
G0 X320.17 Y201.32
G0 X326.39 Y189.00
G0 X340.16 Y184.51
G0 X353.64 Y191.41
G0 X358.47 Y206.47
G0 X350.90 Y221.12
G0 X334.53 Y226.29
G0 X318.73 Y218.04
G0 X313.21 Y200.38
G0 X322.13 Y183.41
G0 X341.09 Y177.55
G0 X359.23 Y187.15
G0 X365.43 Y207.41
G0 X355.16 Y226.71
G0 X333.60 Y233.26
G0 X313.14 Y222.31
G0 X306.24 Y199.45
G0 X236.00 Y190.00
G0 X153.52 Y247.38
G0 X152.66 Y247.22
G0 X152.52 Y245.94
G0 X153.99 Y244.79
G0 X156.40 Y245.38
G0 X157.83 Y248.15
G0 X156.52 Y251.69
G0 X152.44 Y253.41
G0 X147.78 Y251.37
G0 X145.77 Y245.99
G0 X148.53 Y240.19
G0 X155.22 Y237.90
G0 X162.14 Y241.38
G0 X164.72 Y249.39
G0 X160.52 Y257.43
G0 X151.21 Y260.30
G0 X142.03 Y255.37
G0 X138.88 Y244.75
G0 X144.53 Y234.45
G0 X156.46 Y231.01
G0 X167.89 Y237.38
G0 X171.61 Y250.62
G0 X164.52 Y263.18
G0 X149.97 Y267.19
G0 X136.28 Y259.37
G0 X131.99 Y243.51
G0 X140.53 Y228.70
G0 X157.70 Y224.12
G0 X173.64 Y233.38
G0 X178.50 Y251.86
G0 X168.52 Y268.93
G0 X148.73 Y274.08
G0 X130.54 Y263.37
G0 X125.10 Y242.28
G0 X136.53 Y222.95
G0 X158.93 Y217.23
G0 X179.38 Y229.38
G0 X236.00 Y190.00
G0 X257.61 Y93.92
G0 X258.35 Y93.45
G0 X259.31 Y94.30
G0 X259.01 Y96.13
G0 X256.84 Y97.32
G0 X253.93 Y96.25
G0 X252.51 Y92.77
G0 X254.35 Y88.76
G0 X259.14 Y87.11
G0 X264.24 Y89.72
G0 X266.12 Y95.83
G0 X262.74 Y102.02
G0 X255.31 Y104.12
G0 X248.03 Y99.98
G0 X245.70 Y91.24
G0 X250.62 Y82.86
G0 X260.67 Y80.31
G0 X270.14 Y85.99
G0 X272.92 Y97.36
G0 X266.47 Y107.92
G0 X253.78 Y110.93
G0 X242.14 Y103.71
G0 X238.89 Y89.71
G0 X246.89 Y76.97
G0 X262.20 Y73.50
G0 X276.03 Y82.26
G0 X279.73 Y98.89
G0 X270.20 Y113.81
G0 X252.25 Y117.73
G0 X236.24 Y107.44
G0 X232.09 Y88.17
G0 X243.16 Y71.07
G0 X263.73 Y66.69
G0 X281.93 Y78.53
G0 X286.53 Y100.42
G0 X273.93 Y119.71
G0 X250.72 Y124.54
G0 X236.00 Y190.00
G0 X283.99 Y273.75
G0 X283.76 Y274.59
G0 X282.48 Y274.61
G0 X281.47 Y273.07
G0 X282.26 Y270.73
G0 X285.13 Y269.56
G0 X288.51 Y271.16
G0 X289.86 Y275.34
G0 X287.44 Y279.78
G0 X281.94 Y281.30
G0 X276.45 Y278.07
G0 X274.77 Y271.25
G0 X278.80 Y264.70
G0 X286.95 Y262.85
G0 X294.54 Y267.70
G0 X296.56 Y277.16
G0 X290.90 Y285.81
G0 X280.12 Y288.00
G0 X270.42 Y281.52
G0 X268.06 Y269.43
G0 X275.35 Y258.67
G0 X288.77 Y256.14
G0 X300.57 Y264.25
G0 X303.27 Y278.98
G0 X294.35 Y291.84
G0 X278.30 Y294.71
G0 X264.39 Y284.98
G0 X261.35 Y267.60
G0 X271.89 Y252.64
G0 X290.59 Y249.43
G0 X306.60 Y260.79
G0 X309.98 Y280.80
G0 X297.81 Y297.87
G0 X276.48 Y301.42
G0 X258.36 Y288.44
G0 X254.64 Y265.78
G0 X268.44 Y246.61
G0 X236.00 Y190.00
G0 X145.85 Y161.24
G0 X145.46 Y160.47
G0 X146.38 Y159.59
G0 X148.16 Y160.05
G0 X149.15 Y162.29
G0 X147.84 Y165.08
G0 X144.27 Y166.19
G0 X140.47 Y164.02
G0 X139.25 Y159.13
G0 X142.28 Y154.31
G0 X148.48 Y152.99
G0 X154.31 Y156.87
G0 X155.75 Y164.39
G0 X151.01 Y171.24
G0 X142.17 Y172.78
G0 X134.31 Y167.19
G0 X132.66 Y157.03
G0 X139.10 Y148.16
G0 X150.59 Y146.39
G0 X160.47 Y153.69
G0 X162.35 Y166.50
G0 X154.19 Y177.39
G0 X140.06 Y179.38
G0 X128.16 Y170.37
G0 X126.06 Y154.92
G0 X135.92 Y142.01
G0 X152.69 Y139.80
G0 X166.62 Y150.52
G0 X168.94 Y168.60
G0 X157.37 Y183.54
G0 X137.96 Y185.98
G0 X122.01 Y173.55
G0 X119.46 Y152.82
G0 X132.75 Y135.85
G0 X154.80 Y133.20
G0 X172.77 Y147.34
G0 X175.54 Y170.71
G0 X236.00 Y190.00
G0 X320.19 Y151.10
G0 X321.00 Y151.39
G0 X320.91 Y152.66
G0 X319.29 Y153.52
G0 X317.06 Y152.54
G0 X316.14 Y149.61
G0 X318.02 Y146.40
G0 X322.27 Y145.43
G0 X326.45 Y148.20
G0 X327.47 Y153.78
G0 X323.81 Y158.93
G0 X316.91 Y160.00
G0 X310.79 Y155.44
G0 X309.67 Y147.22
G0 X315.12 Y140.13
G0 X324.66 Y138.95
G0 X332.72 Y145.31
G0 X333.95 Y156.16
G0 X326.70 Y165.19
G0 X314.53 Y166.47
G0 X304.53 Y158.33
G0 X303.19 Y144.84
G0 X312.23 Y133.87
G0 X327.04 Y132.48
G0 X338.98 Y142.41
G0 X340.42 Y158.54
G0 X329.59 Y171.45
G0 X312.15 Y172.95
G0 X298.27 Y161.22
G0 X296.72 Y142.46
G0 X309.34 Y127.61
G0 X329.42 Y126.00
G0 X345.24 Y139.52
G0 X346.90 Y160.92
G0 X332.49 Y177.72
G0 X309.76 Y179.43
G0 X292.00 Y164.12
G0 X236.00 Y190.00
G0 X200.90 Y273.86
G0 X200.10 Y274.18
G0 X199.31 Y273.19
G0 X199.92 Y271.47
G0 X202.23 Y270.69
G0 X204.87 Y272.23
G0 X205.65 Y275.85
G0 X203.18 Y279.42
G0 X198.24 Y280.20
G0 X193.74 Y276.79
G0 X192.97 Y270.54
G0 X197.31 Y265.11
G0 X204.88 Y264.34
G0 X211.24 Y269.62
G0 X212.00 Y278.50
G0 X205.79 Y285.78
G0 X195.59 Y286.54
G0 X187.38 Y279.40
G0 X186.63 Y267.88
G0 X194.71 Y258.75
G0 X207.53 Y258.00
G0 X217.60 Y267.01
G0 X218.34 Y281.15
G0 X208.40 Y292.14
G0 X192.94 Y292.88
G0 X181.02 Y282.00
G0 X180.29 Y265.23
G0 X192.10 Y252.39
G0 X210.19 Y251.66
G0 X223.96 Y264.40
G0 X224.68 Y283.81
G0 X211.00 Y298.50
G0 X190.28 Y299.22
G0 X174.66 Y284.61
G0 X173.95 Y262.58
G0 X189.49 Y246.03
G0 X212.84 Y245.32
G0 X236.00 Y190.00
G0 X205.84 Y106.15
G0 X206.20 Y105.37
G0 X207.45 Y105.57
G0 X208.16 Y107.24
G0 X207.00 Y109.37
G0 X204.01 Y110.02
G0 X201.00 Y107.88
G0 X200.41 Y103.59
G0 X203.52 Y99.70
G0 X209.12 Y99.17
G0 X213.89 Y103.25
G0 X214.36 Y110.16
G0 X209.31 Y115.81
G0 X201.09 Y116.21
G0 X194.56 Y110.20
G0 X194.22 Y100.67
G0 X201.20 Y93.25
G0 X212.04 Y92.98
G0 X220.34 Y100.93
G0 X220.55 Y113.08
G0 X211.63 Y122.26
G0 X198.18 Y122.41
G0 X188.11 Y112.52
G0 X188.02 Y97.76
G0 X198.88 Y86.81
G0 X214.96 Y86.78
G0 X226.78 Y98.61
G0 X226.75 Y115.99
G0 X213.95 Y128.70
G0 X195.26 Y128.61
G0 X181.67 Y114.84
G0 X181.82 Y94.84
G0 X196.56 Y80.36
G0 X217.87 Y80.58
G0 X233.23 Y96.29
G0 X232.95 Y118.91
G0 X216.27 Y135.15
G0 X236.00 Y190.00
G0 X313.31 Y230.63
G0 X313.56 Y231.44
G0 X312.52 Y232.14
G0 X310.87 Y231.39
G0 X310.29 Y229.04
G0 X312.04 Y226.56
G0 X315.69 Y226.10
G0 X319.01 Y228.86
G0 X319.35 Y233.80
G0 X315.59 Y237.96
G0 X309.34 Y238.18
G0 X304.35 Y233.42
G0 X304.25 Y225.87
G0 X310.02 Y220.04
G0 X318.87 Y220.06
G0 X325.53 Y226.83
G0 X325.39 Y236.98
G0 X317.62 Y244.48
G0 X306.17 Y244.22
G0 X297.83 Y235.44
G0 X298.21 Y222.69
G0 X307.99 Y213.52
G0 X322.04 Y214.02
G0 X332.05 Y224.80
G0 X331.43 Y240.15
G0 X319.64 Y250.99
G0 X302.99 Y250.26
G0 X291.32 Y237.47
G0 X292.17 Y219.52
G0 X305.97 Y207.01
G0 X325.22 Y207.98
G0 X338.56 Y222.78
G0 X337.47 Y243.33
G0 X321.67 Y257.51
G0 X299.82 Y256.30
G0 X284.80 Y239.50
G0 X286.13 Y216.34
G0 X236.00 Y190.00
G0 X153.21 Y211.82
G0 X152.47 Y211.39
G0 X152.77 Y210.17
G0 X154.49 Y209.61
G0 X156.50 Y210.95
G0 X156.88 Y213.96
G0 X154.51 Y216.75
G0 X150.21 Y216.96
G0 X146.63 Y213.55
G0 X146.60 Y207.97
G0 X151.04 Y203.60
G0 X157.92 Y203.74
G0 X163.07 Y209.22
G0 X162.75 Y217.38
G0 X156.24 Y223.32
G0 X146.79 Y222.83
G0 X140.06 Y215.28
G0 X140.73 Y204.54
G0 X149.31 Y197.03
G0 X161.34 Y197.87
G0 X169.64 Y207.48
G0 X168.63 Y220.80
G0 X157.97 Y229.90
G0 X143.37 Y228.71
G0 X133.49 Y217.02
G0 X134.85 Y201.12
G0 X147.58 Y190.45
G0 X164.76 Y191.99
G0 X176.22 Y205.75
G0 X174.50 Y224.23
G0 X159.71 Y236.47
G0 X139.94 Y234.58
G0 X126.91 Y218.75
G0 X128.98 Y197.70
G0 X145.84 Y183.88
G0 X168.19 Y186.12
G0 X182.79 Y204.02
G0 X236.00 Y190.00
G0 X281.38 Y119.41
G0 X282.21 Y119.23
G0 X282.81 Y120.32
G0 X281.92 Y121.89
G0 X279.55 Y122.26
G0 X277.24 Y120.31
G0 X277.11 Y116.66
G0 X280.12 Y113.62
G0 X285.05 Y113.71
G0 X288.83 Y117.79
G0 X288.50 Y123.99
G0 X283.36 Y128.51
G0 X275.89 Y127.95
G0 X270.63 Y121.75
G0 X271.41 Y113.00
G0 X278.68 Y107.00
G0 X288.71 Y108.01
G0 X295.45 Y116.35
G0 X294.20 Y127.65
G0 X284.80 Y135.13
G0 X272.22 Y133.65
G0 X264.01 Y123.18
G0 X265.71 Y109.33
G0 X277.25 Y100.38
G0 X292.37 Y102.32
G0 X302.07 Y114.91
G0 X299.90 Y131.31
G0 X286.24 Y141.75
G0 X268.56 Y139.35
G0 X257.39 Y124.62
G0 X260.02 Y105.67
G0 X275.81 Y93.76
G0 X296.04 Y96.62
G0 X308.69 Y113.48
G0 X305.60 Y134.98
G0 X287.67 Y148.37
G0 X264.90 Y145.05
G0 X236.00 Y190.00
G0 X249.93 Y271.06
G0 X249.44 Y271.75
G0 X248.26 Y271.35
G0 X247.86 Y269.60
G0 X249.36 Y267.74
G0 X252.36 Y267.62
G0 X254.92 Y270.21
G0 X254.75 Y274.47
G0 X251.07 Y277.72
G0 X245.55 Y277.26
G0 X241.61 Y272.49
G0 X242.35 Y265.71
G0 X248.21 Y261.09
G0 X256.26 Y262.11
G0 X261.57 Y269.06
G0 X260.26 Y278.37
G0 X252.21 Y284.37
G0 X241.65 Y282.78
G0 X234.96 Y273.64
G0 X236.84 Y261.81
G0 X247.07 Y254.44
G0 X260.15 Y256.60
G0 X268.22 Y267.92
G0 X265.77 Y282.26
G0 X253.36 Y291.02
G0 X237.76 Y288.29
G0 X228.31 Y274.78
G0 X231.33 Y257.92
G0 X245.93 Y247.79
G0 X264.05 Y251.09
G0 X274.87 Y266.78
G0 X271.28 Y286.16
G0 X254.50 Y297.67
G0 X233.86 Y293.80
G0 X221.66 Y275.92
G0 X225.82 Y254.02
G0 X244.78 Y241.13
G0 X236.00 Y190.00
G0 X172.25 Y140.63
G0 X172.14 Y139.79
G0 X173.28 Y139.30
G0 X174.75 Y140.31
G0 X174.91 Y142.68
G0 X172.78 Y144.79
G0 X169.16 Y144.61
G0 X166.41 Y141.37
G0 X166.93 Y136.51
G0 X171.29 Y133.12
G0 X177.39 Y133.98
G0 X181.42 Y139.46
G0 X180.22 Y146.80
G0 X173.63 Y151.46
G0 X165.04 Y149.93
G0 X159.74 Y142.22
G0 X161.62 Y132.39
G0 X170.45 Y126.45
G0 X181.51 Y128.67
G0 X188.09 Y138.61
G0 X185.54 Y150.92
G0 X174.47 Y158.13
G0 X160.93 Y155.24
G0 X153.07 Y143.06
G0 X156.30 Y128.28
G0 X169.60 Y119.78
G0 X185.63 Y123.35
G0 X194.76 Y137.76
G0 X190.85 Y155.03
G0 X175.32 Y164.80
G0 X156.81 Y160.56
G0 X146.40 Y143.91
G0 X150.99 Y124.16
G0 X168.75 Y113.11
G0 X189.74 Y118.03
G0 X201.43 Y136.92
G0 X196.17 Y159.15
G0 X236.00 Y190.00
G0 X314.76 Y183.47
G0 X315.40 Y184.01
G0 X314.90 Y185.14
G0 X313.13 Y185.39
G0 X311.42 Y183.75
G0 X311.56 Y180.76
G0 X314.34 Y178.46
G0 X318.55 Y179.00
G0 X321.43 Y182.92
G0 X320.51 Y188.34
G0 X315.45 Y191.81
G0 X308.81 Y190.50
G0 X304.74 Y184.30
G0 X306.45 Y176.44
G0 X313.79 Y171.79
G0 X322.87 Y173.89
G0 X328.11 Y182.36
G0 X325.62 Y192.67
G0 X316.00 Y198.49
G0 X304.48 Y195.61
G0 X298.07 Y184.85
G0 X301.34 Y172.11
G0 X313.24 Y165.11
G0 X327.20 Y168.78
G0 X334.78 Y181.81
G0 X330.73 Y197.00
G0 X316.55 Y205.16
G0 X300.15 Y200.72
G0 X291.39 Y185.41
G0 X296.23 Y167.78
G0 X312.68 Y158.44
G0 X331.53 Y163.66
G0 X341.46 Y181.26
G0 X335.84 Y201.33
G0 X317.11 Y211.84
G0 X295.82 Y205.83
G0 X284.72 Y185.96
G0 X236.00 Y190.00
G0 X183.39 Y246.86
G0 X182.56 Y246.89
G0 X182.16 Y245.73
G0 X183.29 Y244.36
G0 X185.65 Y244.41
G0 X187.56 Y246.70
G0 X187.06 Y250.26
G0 X183.62 Y252.70
G0 X178.86 Y251.76
G0 X175.89 Y247.15
G0 X177.27 Y241.20
G0 X183.03 Y237.69
G0 X190.19 Y239.51
G0 X194.22 Y246.44
G0 X191.96 Y254.79
G0 X183.88 Y259.36
G0 X174.33 Y256.66
G0 X169.22 Y247.41
G0 X172.37 Y236.67
G0 X182.77 Y231.03
G0 X194.72 Y234.62
G0 X200.89 Y246.18
G0 X196.86 Y259.32
G0 X184.13 Y266.03
G0 X169.79 Y261.56
G0 X162.55 Y247.67
G0 X167.47 Y232.13
G0 X182.51 Y224.36
G0 X199.25 Y229.72
G0 X207.56 Y245.92
G0 X201.76 Y263.85
G0 X184.39 Y272.70
G0 X165.26 Y266.45
G0 X155.88 Y247.93
G0 X162.57 Y227.60
G0 X182.25 Y217.69
G0 X203.78 Y224.82
G0 X236.00 Y190.00
G0 X236.37 Y114.06
G0 X236.96 Y113.48
G0 X238.03 Y114.07
G0 X238.12 Y115.83
G0 X236.35 Y117.39
G0 X233.41 Y116.99
G0 X231.38 Y114.04
G0 X232.27 Y109.93
G0 X236.40 Y107.42
G0 X241.68 Y108.80
G0 X244.67 Y114.10
G0 X242.80 Y120.56
G0 X236.32 Y124.03
G0 X228.69 Y121.66
G0 X224.73 Y114.01
G0 X227.59 Y105.21
G0 X236.43 Y100.77
G0 X246.40 Y104.12
G0 X251.32 Y114.14
G0 X247.47 Y125.28
G0 X236.28 Y130.68
G0 X223.97 Y126.34
G0 X218.08 Y113.97
G0 X222.92 Y100.48
G0 X236.46 Y94.12
G0 X251.13 Y99.45
G0 X257.97 Y114.17
G0 X252.15 Y130.00
G0 X236.25 Y137.33
G0 X219.24 Y131.02
G0 X211.44 Y113.94
G0 X218.24 Y95.76
G0 X236.50 Y87.47
G0 X255.85 Y94.77
G0 X264.62 Y114.20
G0 X256.83 Y134.73
G0 X236.22 Y143.98
G0 X236.00 Y190.00
G0 X286.00 Y245.12
G0 X285.96 Y245.95
G0 X284.78 Y246.23
G0 X283.52 Y245.00
G0 X283.78 Y242.67
G0 X286.20 Y240.99
G0 X289.68 Y241.78
G0 X291.79 Y245.40
G0 X290.45 Y250.03
G0 X285.64 Y252.56
G0 X279.87 Y250.68
G0 X276.91 Y244.68
G0 X279.33 Y237.76
G0 X286.53 Y234.37
G0 X294.59 Y237.34
G0 X298.41 Y245.73
G0 X294.90 Y254.93
G0 X285.32 Y259.18
G0 X274.97 Y255.13
G0 X270.29 Y244.36
G0 X274.88 Y232.86
G0 X286.85 Y227.76
G0 X299.49 Y232.89
G0 X305.02 Y246.05
G0 X299.35 Y259.84
G0 X285.00 Y265.79
G0 X270.06 Y259.58
G0 X263.68 Y244.03
G0 X270.43 Y227.95
G0 X287.17 Y221.14
G0 X304.40 Y228.44
G0 X311.63 Y246.37
G0 X303.80 Y264.74
G0 X284.67 Y272.41
G0 X265.16 Y264.03
G0 X257.06 Y243.71
G0 X265.98 Y223.05
G0 X236.00 Y190.00
G0 X163.35 Y183.26
G0 X162.82 Y182.63
G0 X163.50 Y181.62
G0 X165.25 Y181.68
G0 X166.63 Y183.57
G0 X165.98 Y186.43
G0 X162.89 Y188.19
G0 X158.91 Y186.95
G0 X156.78 Y182.65
G0 X158.61 Y177.55
G0 X164.11 Y175.05
G0 X170.33 Y177.47
G0 X173.20 Y184.18
G0 X170.20 Y191.51
G0 X162.28 Y194.76
G0 X153.83 Y191.16
G0 X150.21 Y182.04
G0 X154.39 Y172.48
G0 X164.72 Y168.48
G0 X175.40 Y173.25
G0 X179.77 Y184.78
G0 X174.41 Y196.59
G0 X161.68 Y201.33
G0 X148.76 Y195.38
G0 X143.64 Y181.44
G0 X150.18 Y167.40
G0 X165.33 Y161.91
G0 X180.48 Y169.04
G0 X186.34 Y185.39
G0 X178.63 Y201.66
G0 X161.07 Y207.90
G0 X143.68 Y199.59
G0 X137.07 Y180.83
G0 X145.97 Y162.33
G0 X165.94 Y155.34
G0 X185.56 Y164.82
G0 X192.91 Y186.00
G0 X236.00 Y190.00
G0 X292.96 Y146.76
G0 X293.77 Y146.87
G0 X293.95 Y148.07
G0 X292.62 Y149.20
G0 X290.34 Y148.75
G0 X288.89 Y146.20
G0 X289.98 Y142.84
G0 X293.74 Y141.06
G0 X298.19 Y142.79
G0 X300.28 Y147.77
G0 X297.92 Y153.31
G0 X291.73 Y155.71
G0 X285.11 Y152.72
G0 X282.38 Y145.31
G0 X286.01 Y137.60
G0 X294.63 Y134.55
G0 X303.43 Y138.82
G0 X306.79 Y148.66
G0 X301.90 Y158.54
G0 X290.84 Y162.23
G0 X279.87 Y156.69
G0 X275.87 Y144.42
G0 X282.03 Y132.37
G0 X295.52 Y128.04
G0 X308.66 Y134.84
G0 X313.31 Y149.55
G0 X305.87 Y163.78
G0 X289.95 Y168.74
G0 X274.64 Y160.67
G0 X269.36 Y143.53
G0 X278.06 Y127.13
G0 X296.42 Y121.53
G0 X313.90 Y130.87
G0 X319.82 Y150.44
G0 X309.84 Y169.01
G0 X289.05 Y175.25
G0 X269.40 Y164.64
G0 X236.00 Y190.00
G0 X223.45 Y258.96
G0 X222.78 Y259.42
G0 X221.84 Y258.67
G0 X222.05 Y256.94
G0 X224.03 Y255.74
G0 X226.81 Y256.63
G0 X228.28 Y259.84
G0 X226.71 Y263.67
G0 X222.28 Y265.40
G0 X217.39 Y263.15
G0 X215.40 Y257.49
G0 X218.33 Y251.56
G0 X225.21 Y249.30
G0 X232.20 Y252.90
G0 X234.72 Y261.01
G0 X230.44 Y269.05
G0 X221.11 Y271.84
G0 X212.01 Y266.88
G0 X208.96 Y256.32
G0 X214.60 Y246.17
G0 X226.38 Y242.86
G0 X237.58 Y249.18
G0 X241.16 Y262.18
G0 X234.16 Y274.43
G0 X219.93 Y278.28
G0 X206.63 Y270.60
G0 X202.52 Y255.15
G0 X210.87 Y240.79
G0 X227.55 Y236.41
G0 X242.96 Y245.45
G0 X247.60 Y263.35
G0 X237.89 Y279.82
G0 X218.76 Y284.72
G0 X201.24 Y274.33
G0 X196.07 Y253.98
G0 X207.15 Y235.41
G0 X228.72 Y229.97
G0 X236.00 Y190.00
G0 X199.40 Y131.84
G0 X199.58 Y131.05
G0 X200.78 Y130.98
G0 X201.79 Y132.39
G0 X201.14 Y134.60
G0 X198.50 Y135.82
G0 X195.26 Y134.45
G0 X193.84 Y130.58
G0 X195.93 Y126.32
G0 X201.03 Y124.69
G0 X206.30 Y127.50
G0 X208.14 Y133.83
G0 X204.61 Y140.12
G0 X197.05 Y142.18
G0 X189.74 Y137.92
G0 X187.48 Y129.13
G0 X192.45 Y120.80
G0 X202.48 Y118.33
G0 X211.82 Y124.03
G0 X214.50 Y135.28
G0 X208.08 Y145.64
G0 X195.60 Y148.54
G0 X184.22 Y141.40
G0 X181.12 Y127.68
G0 X188.98 Y115.28
G0 X203.92 Y111.97
G0 X217.34 Y120.56
G0 X220.86 Y136.73
G0 X211.56 Y151.16
G0 X194.16 Y154.89
G0 X178.70 Y144.87
G0 X174.76 Y126.24
G0 X185.51 Y109.77
G0 X205.37 Y105.61
G0 X222.86 Y117.08
G0 X227.22 Y138.17
G0 X215.03 Y156.68
G0 X236.00 Y190.00
G0 X300.95 Y207.80
G0 X301.35 Y208.50
G0 X300.52 Y209.36
G0 X298.83 Y209.00
G0 X297.81 Y206.94
G0 X298.94 Y204.27
G0 X302.23 Y203.10
G0 X305.89 Y204.98
G0 X307.21 Y209.51
G0 X304.56 Y214.15
G0 X298.80 Y215.63
G0 X293.19 Y212.22
G0 X291.55 Y205.22
G0 X295.72 Y198.62
G0 X303.95 Y196.83
G0 X311.53 Y201.77
G0 X313.48 Y211.23
G0 X307.78 Y219.79
G0 X297.08 Y221.89
G0 X287.54 Y215.43
G0 X285.28 Y203.50
G0 X292.50 Y192.98
G0 X305.67 Y190.57
G0 X317.17 Y198.55
G0 X319.74 Y212.95
G0 X311.00 Y225.43
G0 X295.37 Y228.16
G0 X281.90 Y218.65
G0 X279.02 Y201.79
G0 X289.29 Y187.33
G0 X307.39 Y184.30
G0 X322.82 Y195.33
G0 X326.01 Y214.66
G0 X314.21 Y231.08
G0 X293.65 Y234.42
G0 X276.25 Y221.87
G0 X272.75 Y200.07
G0 X236.00 Y190.00
G0 X177.26 Y220.13
G0 X176.49 Y219.89
G0 X176.53 Y218.70
G0 X178.01 Y217.82
G0 X180.14 Y218.66
G0 X181.11 Y221.37
G0 X179.48 Y224.45
G0 X175.53 Y225.52
G0 X171.51 Y223.09
G0 X170.33 Y217.91
G0 X173.57 Y212.94
G0 X179.99 Y211.66
G0 X185.90 Y215.70
G0 X187.27 Y223.36
G0 X182.43 Y230.21
G0 X173.55 Y231.69
G0 X165.75 Y226.04
G0 X164.17 Y215.92
G0 X170.62 Y207.18
G0 X181.97 Y205.50
G0 X191.66 Y212.75
G0 X193.43 Y225.34
G0 X185.39 Y235.97
G0 X171.57 Y237.85
G0 X159.99 Y229.00
G0 X158.01 Y213.94
G0 X167.66 Y201.42
G0 X183.95 Y199.34
G0 X197.41 Y209.79
G0 X199.59 Y227.32
G0 X188.34 Y241.72
G0 X169.58 Y244.01
G0 X154.24 Y231.95
G0 X151.85 Y211.96
G0 X164.71 Y195.67
G0 X185.93 Y193.18
G0 X203.17 Y206.84
G0 X236.00 Y190.00
G0 X258.49 Y129.32
G0 X259.22 Y128.99
G0 X260.00 Y129.88
G0 X259.50 Y131.52
G0 X257.37 Y132.35
G0 X254.83 Y131.00
G0 X253.96 Y127.64
G0 X256.13 Y124.20
G0 X260.73 Y123.28
G0 X265.08 Y126.30
G0 X266.04 Y132.13
G0 X262.19 Y137.38
G0 X255.13 Y138.39
G0 X248.97 Y133.69
G0 X247.91 Y125.40
G0 X253.45 Y118.34
G0 X262.97 Y117.24
G0 X270.94 Y123.61
G0 X272.09 Y134.37
G0 X264.87 Y143.24
G0 X252.89 Y144.43
G0 X243.11 Y136.38
G0 X241.87 Y123.16
G0 X250.76 Y112.48
G0 X265.21 Y111.19
G0 X276.79 Y120.92
G0 X278.13 Y136.61
G0 X267.56 Y149.10
G0 X250.65 Y150.48
G0 X237.25 Y139.07
G0 X235.82 Y120.92
G0 X248.07 Y106.62
G0 X267.45 Y105.15
G0 X282.65 Y118.23
G0 X284.17 Y138.85
G0 X270.25 Y154.95
G0 X248.40 Y156.52
G0 X236.00 Y190.00
G0 X259.91 Y248.74
G0 X259.60 Y249.48
G0 X258.42 Y249.34
G0 X257.69 Y247.80
G0 X258.70 Y245.77
G0 X261.47 Y245.04
G0 X264.37 Y246.92
G0 X265.09 Y250.92
G0 X262.33 Y254.69
G0 X257.10 Y255.40
G0 X252.48 Y251.76
G0 X251.77 Y245.31
G0 X256.28 Y239.82
G0 X263.96 Y239.12
G0 X270.32 Y244.50
G0 X271.00 Y253.41
G0 X264.75 Y260.63
G0 X254.61 Y261.31
G0 X246.53 Y254.19
G0 X245.86 Y242.82
G0 X253.86 Y233.87
G0 X266.45 Y233.21
G0 X276.26 Y242.08
G0 X276.92 Y255.91
G0 X267.17 Y266.58
G0 X252.12 Y267.23
G0 X240.58 Y256.61
G0 X239.94 Y240.32
G0 X251.44 Y227.93
G0 X268.95 Y227.29
G0 X282.21 Y239.66
G0 X282.84 Y258.40
G0 X269.59 Y272.53
G0 X249.62 Y273.15
G0 X234.64 Y259.03
G0 X234.02 Y237.83
G0 X249.02 Y221.98
G0 X236.00 Y190.00
G0 X179.82 Y163.37
G0 X179.55 Y162.62
G0 X180.50 Y161.93
G0 X182.07 Y162.56
G0 X182.71 Y164.74
G0 X181.16 Y167.14
G0 X177.76 Y167.70
G0 X174.55 Y165.25
G0 X174.04 Y160.63
G0 X177.40 Y156.59
G0 X183.24 Y156.15
G0 X188.10 Y160.41
G0 X188.48 Y167.48
G0 X183.31 Y173.16
G0 X175.02 Y173.48
G0 X168.52 Y167.40
G0 X168.26 Y157.89
G0 X175.25 Y150.57
G0 X185.98 Y150.37
G0 X194.12 Y158.26
G0 X194.26 Y170.22
G0 X185.46 Y179.18
G0 X172.28 Y179.26
G0 X162.50 Y169.55
G0 X162.48 Y155.15
G0 X173.10 Y144.55
G0 X188.72 Y144.59
G0 X200.14 Y156.11
G0 X200.04 Y172.96
G0 X187.61 Y185.20
G0 X169.54 Y185.04
G0 X156.48 Y171.70
G0 X156.70 Y152.42
G0 X170.95 Y138.52
G0 X191.46 Y138.81
G0 X206.17 Y153.96
G0 X205.82 Y175.70
G0 X236.00 Y190.00
G0 X294.23 Y172.04
G0 X294.93 Y172.41
G0 X294.70 Y173.56
G0 X293.11 Y174.15
G0 X291.18 Y172.98
G0 X290.71 Y170.18
G0 X292.82 Y167.48
G0 X296.83 Y167.11
G0 X300.32 Y170.16
G0 X300.56 Y175.39
G0 X296.57 Y179.65
G0 X290.13 Y179.78
G0 X285.10 Y174.86
G0 X285.08 Y167.20
G0 X290.94 Y161.39
G0 X299.81 Y161.48
G0 X306.40 Y168.29
G0 X306.20 Y178.37
G0 X298.45 Y185.74
G0 X287.16 Y185.42
G0 X279.01 Y176.73
G0 X279.45 Y164.23
G0 X289.07 Y155.30
G0 X302.79 Y155.85
G0 X312.49 Y166.41
G0 X311.83 Y181.35
G0 X300.33 Y191.83
G0 X284.18 Y191.05
G0 X272.92 Y178.61
G0 X273.81 Y161.25
G0 X287.19 Y149.21
G0 X305.77 Y150.22
G0 X318.58 Y164.53
G0 X317.46 Y184.32
G0 X302.20 Y197.91
G0 X281.20 Y196.68
G0 X266.83 Y180.49
G0 X236.00 Y190.00
G0 X205.79 Y241.53
G0 X205.03 Y241.73
G0 X204.42 Y240.73
G0 X205.19 Y239.23
G0 X207.40 Y238.79
G0 X209.63 Y240.53
G0 X209.90 Y243.93
G0 X207.20 Y246.90
G0 X202.59 Y247.00
G0 X198.89 Y243.33
G0 X198.95 Y237.52
G0 X203.59 Y233.09
G0 X210.61 Y233.32
G0 X215.77 Y238.92
G0 X215.37 Y247.14
G0 X208.80 Y253.04
G0 X199.38 Y252.48
G0 X192.75 Y244.93
G0 X193.48 Y234.31
G0 X201.99 Y226.95
G0 X213.81 Y227.84
G0 X221.91 Y237.32
G0 X220.85 Y250.35
G0 X210.40 Y259.18
G0 X196.17 Y257.95
G0 X186.61 Y246.54
G0 X188.00 Y231.10
G0 X200.39 Y220.81
G0 X217.02 Y222.37
G0 X228.05 Y235.72
G0 X226.32 Y253.56
G0 X212.00 Y265.32
G0 X192.96 Y263.42
G0 X180.47 Y248.14
G0 X182.53 Y227.89
G0 X198.78 Y214.67
G0 X220.23 Y216.89
G0 X236.00 Y190.00
G0 X223.70 Y132.75
G0 X224.13 Y132.09
G0 X225.25 Y132.42
G0 X225.69 Y134.04
G0 X224.37 Y135.84
G0 X221.56 Y136.07
G0 X219.07 Y133.75
G0 X219.06 Y129.75
G0 X222.38 Y126.57
G0 X227.56 Y126.78
G0 X231.43 Y131.09
G0 X231.00 Y137.47
G0 X225.69 Y142.02
G0 X218.13 Y141.38
G0 X212.89 Y135.07
G0 X213.75 Y126.32
G0 X221.05 Y120.39
G0 X230.99 Y121.47
G0 X237.61 Y129.77
G0 X236.31 Y140.90
G0 X227.02 Y148.20
G0 X214.70 Y146.68
G0 X206.71 Y136.40
G0 X208.44 Y122.89
G0 X219.72 Y114.21
G0 X234.42 Y116.17
G0 X243.78 Y128.44
G0 X241.61 Y144.33
G0 X228.35 Y154.38
G0 X211.27 Y151.99
G0 X200.53 Y137.73
G0 X203.14 Y119.46
G0 X218.40 Y108.04
G0 X237.86 Y110.86
G0 X249.96 Y127.11
G0 X246.92 Y147.76
G0 X229.67 Y160.56
G0 X236.00 Y190.00
G0 X282.78 Y223.23
G0 X282.91 Y224.01
G0 X281.87 Y224.51
G0 X280.45 Y223.62
G0 X280.22 Y221.41
G0 X282.12 Y219.35
G0 X285.52 Y219.38
G0 X288.21 Y222.31
G0 X287.91 Y226.88
G0 X283.96 Y230.21
G0 X278.22 Y229.64
G0 X274.25 Y224.67
G0 X275.08 Y217.76
G0 X281.07 Y213.14
G0 X289.16 Y214.25
G0 X294.42 Y221.26
G0 X293.04 Y230.52
G0 X285.01 Y236.42
G0 X274.58 Y234.78
G0 X268.04 Y225.73
G0 X269.95 Y214.12
G0 X280.02 Y206.94
G0 X292.81 Y209.12
G0 X300.62 Y220.21
G0 X298.18 Y234.17
G0 X286.07 Y242.62
G0 X270.93 Y239.91
G0 X261.84 Y226.78
G0 X264.82 Y210.47
G0 X278.97 Y200.73
G0 X296.45 Y203.99
G0 X306.83 Y219.16
G0 X303.31 Y237.81
G0 X287.12 Y248.83
G0 X267.29 Y245.04
G0 X255.63 Y227.83
G0 X259.69 Y206.83
G0 X236.00 Y190.00
G0 X180.17 Y196.95
G0 X179.56 Y196.47
G0 X179.98 Y195.40
G0 X181.62 Y195.10
G0 X183.28 Y196.56
G0 X183.27 Y199.36
G0 X180.76 Y201.62
G0 X176.80 Y201.28
G0 X173.95 Y197.73
G0 X174.61 Y192.62
G0 X179.20 Y189.18
G0 X185.47 Y190.15
G0 X189.51 Y195.79
G0 X188.21 Y203.21
G0 X181.53 Y207.84
G0 X172.95 Y206.23
G0 X167.73 Y198.50
G0 X169.66 Y188.77
G0 X178.43 Y182.95
G0 X189.32 Y185.20
G0 X195.73 Y195.01
G0 X193.16 Y207.06
G0 X182.31 Y214.06
G0 X169.10 Y211.18
G0 X161.51 Y199.28
G0 X164.71 Y184.92
G0 X177.65 Y176.73
G0 X193.17 Y180.25
G0 X201.95 Y194.24
G0 X198.11 Y210.91
G0 X183.08 Y220.28
G0 X165.25 Y216.12
G0 X155.29 Y200.05
G0 X159.77 Y181.07
G0 X176.88 Y170.51
G0 X197.02 Y175.31
G0 X208.17 Y193.46
G0 X236.00 Y190.00
G0 X271.73 Y148.01
G0 X272.51 Y147.94
G0 X272.92 Y149.02
G0 X271.92 Y150.34
G0 X269.71 Y150.38
G0 X267.84 Y148.32
G0 X268.17 Y144.97
G0 X271.30 Y142.56
G0 X275.78 Y143.25
G0 X278.74 Y147.44
G0 X277.68 Y153.07
G0 X272.42 Y156.56
G0 X265.66 Y155.14
G0 X261.62 Y148.82
G0 X263.41 Y140.92
G0 X270.80 Y136.34
G0 X279.83 Y138.50
G0 X284.96 Y146.94
G0 X282.43 Y157.11
G0 X272.92 Y162.79
G0 X261.62 Y159.89
G0 X255.40 Y149.32
G0 X258.66 Y136.88
G0 X270.30 Y130.11
G0 X283.88 Y133.74
G0 X291.18 Y146.44
G0 X287.19 Y161.16
G0 X273.42 Y169.01
G0 X257.57 Y164.65
G0 X249.17 Y149.82
G0 X253.90 Y132.83
G0 X269.80 Y123.89
G0 X287.92 Y128.99
G0 X297.41 Y145.94
G0 X291.94 Y165.21
G0 X273.92 Y175.24
G0 X253.52 Y169.40
G0 X236.00 Y190.00
G0 X237.96 Y244.01
G0 X237.44 Y244.58
G0 X236.41 Y244.06
G0 X236.26 Y242.42
G0 X237.85 Y240.90
G0 X240.61 Y241.16
G0 X242.63 Y243.84
G0 X241.95 Y247.71
G0 X238.19 Y250.22
G0 X233.20 Y249.13
G0 X230.20 Y244.29
G0 X231.70 Y238.18
G0 X237.62 Y234.68
G0 X244.85 Y236.60
G0 X248.84 Y243.61
G0 X246.50 Y251.95
G0 X238.42 Y256.44
G0 X228.97 Y253.68
G0 X223.98 Y244.52
G0 X227.15 Y233.95
G0 X237.40 Y228.47
G0 X249.08 Y232.05
G0 X255.06 Y243.38
G0 X251.06 Y256.18
G0 X238.64 Y262.65
G0 X224.73 Y258.24
G0 X217.77 Y244.74
G0 X222.59 Y229.72
G0 X237.17 Y222.25
G0 X253.31 Y227.50
G0 X261.27 Y243.16
G0 X255.61 Y260.41
G0 X238.87 Y268.87
G0 X220.50 Y262.79
G0 X211.55 Y244.97
G0 X218.04 Y225.48
G0 X236.94 Y216.04
G0 X236.00 Y190.00
G0 X198.81 Y152.26
G0 X198.82 Y151.49
G0 X199.91 Y151.17
G0 X201.13 Y152.28
G0 X200.98 Y154.47
G0 X198.78 Y156.13
G0 X195.50 Y155.52
G0 X193.39 Y152.22
G0 X194.46 Y147.85
G0 X198.86 Y145.29
G0 X204.32 Y146.83
G0 X207.33 Y152.32
G0 X205.33 Y158.88
G0 X198.74 Y162.33
G0 X191.09 Y159.87
G0 X187.20 Y152.18
G0 X190.12 Y143.44
G0 X198.91 Y139.10
G0 X208.74 Y142.48
G0 X213.52 Y152.37
G0 X209.68 Y163.29
G0 X198.69 Y168.52
G0 X186.68 Y164.22
G0 X181.00 Y152.13
G0 X185.77 Y139.03
G0 X198.95 Y132.91
G0 X213.15 Y138.13
G0 X219.71 Y152.41
G0 X214.03 Y167.70
G0 X198.65 Y174.71
G0 X182.27 Y168.56
G0 X174.81 Y152.09
G0 X181.42 Y134.62
G0 X199.00 Y126.71
G0 X217.56 Y133.79
G0 X225.91 Y152.46
G0 X218.37 Y172.11
G0 X236.00 Y190.00
G0 X287.86 Y192.65
G0 X288.37 Y193.22
G0 X287.78 Y194.19
G0 X286.14 Y194.20
G0 X284.77 Y192.49
G0 X285.27 Y189.78
G0 X288.09 Y188.03
G0 X291.86 Y189.03
G0 X294.02 Y192.96
G0 X292.51 Y197.80
G0 X287.46 Y200.35
G0 X281.56 Y198.33
G0 X278.61 Y192.17
G0 X281.14 Y185.21
G0 X288.41 Y181.87
G0 X296.44 Y184.90
G0 X300.18 Y193.28
G0 X296.64 Y202.38
G0 X287.15 Y206.51
G0 X276.98 Y202.46
G0 X272.45 Y191.86
G0 X277.01 Y180.63
G0 X288.72 Y175.71
G0 X301.02 Y180.76
G0 X306.34 Y193.59
G0 X300.77 Y206.96
G0 X286.83 Y212.67
G0 X272.40 Y206.60
G0 X266.29 Y191.54
G0 X272.87 Y176.05
G0 X289.04 Y169.55
G0 X305.60 Y176.63
G0 X312.50 Y193.91
G0 X304.90 Y211.53
G0 X286.52 Y218.83
G0 X267.82 Y210.73
G0 X260.13 Y191.23
G0 X236.00 Y190.00
G0 X196.76 Y222.42
G0 X195.99 Y222.34
G0 X195.78 Y221.23
G0 X196.97 Y220.12
G0 X199.12 Y220.46
G0 X200.58 Y222.78
G0 X199.69 Y225.97
G0 X196.25 Y227.77
G0 X192.02 Y226.33
G0 X189.88 Y221.76
G0 X191.87 Y216.50
G0 X197.56 Y214.01
G0 X203.86 Y216.55
G0 X206.69 Y223.36
G0 X203.60 Y230.70
G0 X195.67 Y233.88
G0 X187.28 Y230.24
G0 X183.76 Y221.18
G0 X187.95 Y211.76
G0 X198.14 Y207.89
G0 X208.60 Y212.63
G0 X212.81 Y223.94
G0 X207.52 Y235.44
G0 X195.08 Y240.00
G0 X182.55 Y234.15
G0 X177.65 Y220.60
G0 X184.04 Y207.02
G0 X198.72 Y201.78
G0 X213.33 Y208.72
G0 X218.93 Y224.52
G0 X211.43 Y240.17
G0 X194.50 Y246.11
G0 X177.81 Y238.07
G0 X171.53 Y220.02
G0 X180.13 Y202.29
G0 X199.30 Y195.66
G0 X218.07 Y204.81
G0 X236.00 Y190.00
G0 X242.89 Y140.58
G0 X243.50 Y140.12
G0 X244.40 Y140.79
G0 X244.27 Y142.41
G0 X242.47 Y143.61
G0 X239.84 Y142.89
G0 X238.34 Y139.95
G0 X239.66 Y136.31
G0 X243.73 Y134.52
G0 X248.38 Y136.43
G0 X250.46 Y141.64
G0 X247.96 Y147.30
G0 X241.62 Y149.67
G0 X234.96 Y146.57
G0 X232.29 Y139.10
G0 X235.98 Y131.43
G0 X244.58 Y128.46
G0 X253.26 Y132.75
G0 X256.52 Y142.48
G0 X251.65 Y152.18
G0 X240.78 Y155.73
G0 X230.07 Y150.26
G0 X226.23 Y138.26
G0 X232.29 Y126.55
G0 X245.43 Y122.40
G0 X258.15 Y129.06
G0 X262.58 Y143.33
G0 X255.33 Y157.06
G0 X239.93 Y161.79
G0 X225.19 Y153.95
G0 X220.17 Y137.41
G0 X228.60 Y121.66
G0 X246.27 Y116.34
G0 X263.03 Y125.37
G0 X268.64 Y144.17
G0 X259.02 Y161.94
G0 X239.08 Y167.85
G0 X236.00 Y190.00
G0 X263.73 Y230.27
G0 X263.59 Y231.02
G0 X262.47 Y231.14
G0 X261.48 Y229.86
G0 X262.00 Y227.76
G0 X264.42 Y226.53
G0 X267.49 Y227.68
G0 X268.97 Y231.24
G0 X267.18 Y235.29
G0 X262.49 Y237.01
G0 X257.46 Y234.59
G0 X255.49 Y228.75
G0 X258.55 Y222.75
G0 X265.53 Y220.54
G0 X272.51 Y224.23
G0 X274.96 Y232.35
G0 X270.64 Y240.31
G0 X261.38 Y243.01
G0 X252.44 Y238.05
G0 X249.50 Y227.65
G0 X255.09 Y217.73
G0 X266.63 Y214.55
G0 X277.53 Y220.77
G0 X280.96 Y233.45
G0 X274.10 Y245.33
G0 X260.28 Y249.00
G0 X247.42 Y241.50
G0 X243.51 Y226.54
G0 X251.64 Y212.71
G0 X267.74 Y208.55
G0 X282.55 Y217.32
G0 X286.95 Y234.56
G0 X277.55 Y250.35
G0 X259.17 Y254.99
G0 X242.40 Y244.96
G0 X237.52 Y225.44
G0 X248.18 Y207.69
G0 X236.00 Y190.00
G0 X189.28 Y179.25
G0 X188.88 Y178.60
G0 X189.62 Y177.77
G0 X191.21 Y178.04
G0 X192.24 Y179.93
G0 X191.29 Y182.46
G0 X188.26 Y183.68
G0 X184.78 Y182.06
G0 X183.37 Y177.89
G0 X185.66 Y173.46
G0 X190.98 Y171.85
G0 X196.35 Y174.82
G0 X198.15 Y181.29
G0 X194.51 Y187.60
G0 X186.90 Y189.59
G0 X179.64 Y185.28
G0 X177.45 Y176.52
G0 X182.44 Y168.32
G0 X192.34 Y165.94
G0 X201.50 Y171.60
G0 X204.06 Y182.65
G0 X197.73 Y192.75
G0 X185.54 Y195.51
G0 X174.49 Y188.50
G0 X171.54 Y175.16
G0 X179.22 Y163.17
G0 X193.70 Y160.03
G0 X206.64 Y168.38
G0 X209.98 Y184.01
G0 X200.95 Y197.89
G0 X184.18 Y201.42
G0 X169.35 Y191.72
G0 X165.63 Y173.80
G0 X176.00 Y158.03
G0 X195.06 Y154.12
G0 X211.78 Y165.16
G0 X215.89 Y185.37
G0 X236.00 Y190.00
G0 X276.88 Y166.83
G0 X277.60 Y167.03
G0 X277.62 Y168.15
G0 X276.27 Y169.02
G0 X274.25 Y168.32
G0 X273.24 Y165.83
G0 X274.64 Y162.89
G0 X278.29 Y161.74
G0 X282.13 Y163.85
G0 X283.43 Y168.65
G0 X280.60 Y173.40
G0 X274.66 Y174.84
G0 X268.99 Y171.30
G0 X267.41 Y164.22
G0 X271.66 Y157.63
G0 X279.90 Y155.91
G0 X287.39 Y160.88
G0 X289.25 Y170.26
G0 X283.58 Y178.66
G0 X273.05 Y180.66
G0 X263.73 Y174.28
G0 X261.59 Y162.60
G0 X268.69 Y152.38
G0 X281.51 Y150.09
G0 X292.65 Y157.90
G0 X295.07 Y171.87
G0 X286.56 Y183.92
G0 X271.44 Y186.49
G0 X258.48 Y177.26
G0 X255.77 Y160.99
G0 X265.71 Y147.12
G0 X283.12 Y144.27
G0 X297.90 Y154.92
G0 X300.90 Y173.48
G0 X289.53 Y189.18
G0 X269.83 Y192.31
G0 X253.22 Y180.24
G0 X236.00 Y190.00
G0 X221.78 Y233.80
G0 X221.11 Y234.15
G0 X220.35 Y233.34
G0 X220.76 Y231.79
G0 X222.71 Y230.94
G0 X225.13 Y232.09
G0 X226.08 Y235.20
G0 X224.18 Y238.49
G0 X219.93 Y239.53
G0 X215.75 Y236.88
G0 X214.63 Y231.48
G0 X218.02 Y226.43
G0 X224.57 Y225.22
G0 X230.49 Y229.36
G0 X231.80 Y237.05
G0 X226.91 Y243.85
G0 X218.07 Y245.25
G0 X210.39 Y239.61
G0 X208.91 Y229.63
G0 X215.29 Y221.07
G0 X226.42 Y219.49
G0 X235.85 Y226.63
G0 X237.52 Y238.91
G0 X229.64 Y249.21
G0 X216.21 Y250.97
G0 X205.03 Y242.35
G0 X203.18 Y227.77
G0 X212.56 Y215.71
G0 X228.28 Y213.77
G0 X241.21 Y223.89
G0 X243.25 Y240.77
G0 X232.38 Y254.57
G0 X214.36 Y256.70
G0 X199.67 Y245.08
G0 X197.46 Y225.91
G0 X209.82 Y210.35
G0 X230.14 Y208.05
G0 X236.00 Y190.00
G0 X217.26 Y148.92
G0 X217.52 Y148.22
G0 X218.62 Y148.30
G0 X219.37 Y149.71
G0 X218.50 Y151.65
G0 X215.95 Y152.43
G0 X213.17 Y150.79
G0 X212.35 Y147.09
G0 X214.77 Y143.47
G0 X219.62 Y142.61
G0 X224.08 Y145.81
G0 X224.98 Y151.80
G0 X220.99 Y157.10
G0 X213.85 Y158.04
G0 X207.72 Y153.27
G0 X206.74 Y144.99
G0 X212.29 Y138.02
G0 X221.72 Y136.99
G0 X229.53 Y143.33
G0 X230.59 Y153.90
G0 X223.48 Y162.55
G0 X211.76 Y163.66
G0 X202.27 Y155.76
G0 X201.12 Y142.89
G0 X209.80 Y132.57
G0 X223.81 Y131.38
G0 X234.98 Y140.84
G0 X236.20 Y156.00
G0 X225.96 Y168.00
G0 X209.66 Y169.27
G0 X196.82 Y158.25
G0 X195.51 Y140.80
G0 X207.31 Y127.12
G0 X225.91 Y125.77
G0 X240.43 Y138.35
G0 X241.82 Y158.09
G0 X228.45 Y173.45
G0 X236.00 Y190.00
G0 X276.73 Y207.28
G0 X277.01 Y207.97
G0 X276.15 Y208.65
G0 X274.66 Y208.12
G0 X273.98 Y206.11
G0 X275.33 Y203.82
G0 X278.48 Y203.16
G0 X281.57 Y205.32
G0 X282.22 Y209.61
G0 X279.25 Y213.50
G0 X273.82 Y214.14
G0 X269.12 Y210.35
G0 X268.49 Y203.78
G0 X273.10 Y198.29
G0 X280.81 Y197.66
G0 X287.10 Y203.08
G0 X287.72 Y211.94
G0 X281.48 Y219.03
G0 X271.49 Y219.64
G0 X263.59 Y212.59
G0 X263.00 Y201.45
G0 X270.86 Y192.76
G0 X283.14 Y192.17
G0 X292.63 Y200.85
G0 X293.21 Y214.27
G0 X283.72 Y224.56
G0 X269.16 Y225.13
G0 X258.06 Y214.82
G0 X257.51 Y199.12
G0 X268.62 Y187.22
G0 X285.47 Y186.68
G0 X298.17 Y198.61
G0 X298.70 Y216.60
G0 X285.95 Y230.10
G0 X266.83 Y230.62
G0 X252.53 Y217.06
G0 X252.01 Y196.79
G0 X236.00 Y190.00
G0 X195.11 Y204.48
G0 X194.44 Y204.16
G0 X194.61 Y203.08
G0 X196.07 Y202.46
G0 X197.91 Y203.48
G0 X198.46 Y206.07
G0 X196.60 Y208.68
G0 X192.87 Y209.17
G0 X189.51 Y206.46
G0 X189.08 Y201.60
G0 X192.63 Y197.48
G0 X198.63 Y197.10
G0 X203.51 Y201.50
G0 X203.82 Y208.63
G0 X198.58 Y214.28
G0 X190.31 Y214.53
G0 X183.91 Y208.44
G0 X183.71 Y199.04
G0 X190.65 Y191.87
G0 X201.18 Y191.74
G0 X209.11 Y199.52
G0 X209.19 Y211.19
G0 X200.56 Y219.88
G0 X187.76 Y219.89
G0 X178.31 Y210.43
G0 X178.35 Y196.48
G0 X188.66 Y186.27
G0 X203.74 Y186.38
G0 X214.71 Y197.53
G0 X214.55 Y213.75
G0 X202.55 Y225.48
G0 X185.20 Y225.26
G0 X172.71 Y212.41
G0 X172.99 Y193.93
G0 X186.68 Y180.67
G0 X206.30 Y181.01
G0 X220.31 Y195.55
G0 X236.00 Y190.00
G0 X255.96 Y152.46
G0 X256.66 Y152.24
G0 X257.26 Y153.15
G0 X256.61 Y154.58
G0 X254.57 Y155.07
G0 X252.42 Y153.54
G0 X252.04 Y150.37
G0 X254.44 Y147.51
G0 X258.74 Y147.23
G0 X262.32 Y150.51
G0 X262.49 Y155.93
G0 X258.34 Y160.24
G0 X251.79 Y160.29
G0 X246.76 Y155.27
G0 X246.82 Y147.60
G0 X252.72 Y141.85
G0 X261.51 Y142.01
G0 X267.98 Y148.78
G0 X267.71 Y158.71
G0 X260.06 Y165.90
G0 X249.01 Y165.52
G0 X241.11 Y157.00
G0 X241.59 Y144.82
G0 X250.99 Y136.19
G0 X264.29 Y136.79
G0 X273.64 Y147.05
G0 X272.93 Y161.49
G0 X261.79 Y171.55
G0 X246.23 Y170.74
G0 X235.45 Y158.73
G0 X236.37 Y142.04
G0 X249.26 Y130.53
G0 X267.07 Y131.56
G0 X279.30 Y145.32
G0 X278.16 Y164.26
G0 X263.52 Y177.21
G0 X243.46 Y175.96
G0 X236.00 Y190.00
G0 X246.42 Y230.34
G0 X246.05 Y230.98
G0 X244.99 Y230.71
G0 X244.52 Y229.22
G0 X245.68 Y227.49
G0 X248.29 Y227.17
G0 X250.70 Y229.24
G0 X250.86 Y232.96
G0 X247.89 Y236.05
G0 X243.06 Y236.05
G0 X239.29 Y232.19
G0 X239.44 Y226.23
G0 X244.21 Y221.79
G0 X251.28 Y222.10
G0 X256.40 Y227.76
G0 X255.94 Y235.95
G0 X249.37 Y241.75
G0 X240.06 Y241.13
G0 X233.59 Y233.66
G0 X234.37 Y223.24
G0 X242.74 Y216.08
G0 X254.27 Y217.02
G0 X262.11 Y226.29
G0 X261.01 Y238.94
G0 X250.84 Y247.45
G0 X237.07 Y246.20
G0 X227.88 Y235.13
G0 X229.29 Y220.25
G0 X241.26 Y210.38
G0 X257.26 Y211.95
G0 X267.81 Y224.82
G0 X266.09 Y241.93
G0 X252.32 Y253.16
G0 X234.08 Y251.28
G0 X222.18 Y236.61
G0 X224.22 Y217.26
G0 X239.79 Y204.68
G0 X236.00 Y190.00
G0 X201.74 Y167.74
G0 X201.59 Y167.02
G0 X202.54 Y166.51
G0 X203.90 Y167.28
G0 X204.20 Y169.33
G0 X202.51 Y171.32
G0 X199.35 Y171.42
G0 X196.72 Y168.80
G0 X196.83 Y164.54
G0 X200.38 Y161.28
G0 X205.74 Y161.59
G0 X209.63 Y166.06
G0 X209.12 Y172.53
G0 X203.72 Y177.06
G0 X196.15 Y176.34
G0 X190.99 Y170.02
G0 X191.91 Y161.34
G0 X199.16 Y155.54
G0 X208.94 Y156.67
G0 X215.37 Y164.84
G0 X214.04 Y175.73
G0 X204.94 Y182.80
G0 X192.95 Y181.26
G0 X185.25 Y171.24
G0 X186.99 Y158.15
G0 X197.94 Y149.80
G0 X212.13 Y151.75
G0 X221.11 Y163.63
G0 X218.96 Y178.92
G0 X206.16 Y188.54
G0 X189.76 Y186.18
G0 X179.51 Y172.45
G0 X182.07 Y154.95
G0 X196.72 Y144.07
G0 X215.33 Y146.83
G0 X226.85 Y162.41
G0 X223.88 Y182.12
G0 X236.00 Y190.00
G0 X275.49 Y183.41
G0 X276.08 Y183.83
G0 X275.73 Y184.85
G0 X274.22 Y185.19
G0 X272.61 Y183.89
G0 X272.52 Y181.28
G0 X274.77 Y179.09
G0 X278.46 Y179.25
G0 X281.25 Y182.44
G0 X280.84 Y187.22
G0 X276.69 Y190.61
G0 X270.82 Y189.94
G0 X266.85 Y184.85
G0 X267.76 Y177.89
G0 X273.81 Y173.32
G0 X281.85 Y174.49
G0 X287.01 Y181.48
G0 X285.59 Y190.62
G0 X277.65 Y196.37
G0 X267.43 Y194.69
G0 X261.09 Y185.81
G0 X263.01 Y174.50
G0 X272.85 Y167.56
G0 X285.25 Y169.74
G0 X292.77 Y180.52
G0 X290.34 Y194.01
G0 X278.61 Y202.13
G0 X264.03 Y199.45
G0 X255.33 Y186.77
G0 X258.26 Y171.10
G0 X271.88 Y161.80
G0 X288.64 Y164.99
G0 X298.53 Y179.56
G0 X295.10 Y197.41
G0 X279.57 Y207.89
G0 X260.64 Y204.20
G0 X249.56 Y187.73
G0 X236.00 Y190.00
G0 X211.81 Y220.91
G0 X211.09 Y220.99
G0 X210.67 Y220.01
G0 X211.55 Y218.74
G0 X213.60 Y218.62
G0 X215.42 Y220.47
G0 X215.25 Y223.59
G0 X212.43 Y225.96
G0 X208.23 Y225.49
G0 X205.32 Y221.70
G0 X206.09 Y216.43
G0 X210.84 Y212.97
G0 X217.19 Y214.04
G0 X221.19 Y219.76
G0 X219.83 Y227.18
G0 X213.14 Y231.73
G0 X204.65 Y230.07
G0 X199.55 Y222.40
G0 X201.51 Y212.84
G0 X210.14 Y207.20
G0 X220.77 Y209.46
G0 X226.97 Y219.06
G0 X224.41 Y230.76
G0 X213.84 Y237.50
G0 X201.06 Y234.65
G0 X193.77 Y223.11
G0 X196.93 Y209.26
G0 X209.43 Y201.42
G0 X224.35 Y204.88
G0 X232.74 Y218.35
G0 X228.99 Y234.34
G0 X214.55 Y243.27
G0 X197.48 Y239.23
G0 X188.00 Y223.81
G0 X192.35 Y205.68
G0 X208.73 Y195.65
G0 X227.94 Y200.30
G0 X236.00 Y190.00
G0 X233.01 Y151.64
G0 X233.48 Y151.09
G0 X234.45 Y151.53
G0 X234.66 Y153.05
G0 X233.23 Y154.53
G0 X230.65 Y154.39
G0 X228.68 Y151.98
G0 X229.16 Y148.35
G0 X232.56 Y145.87
G0 X237.24 Y146.69
G0 X240.22 Y151.08
G0 X239.06 Y156.82
G0 X233.68 Y160.30
G0 X226.89 Y158.79
G0 X222.90 Y152.43
G0 X224.76 Y144.59
G0 X232.11 Y140.10
G0 X241.00 Y142.29
G0 X245.99 Y150.63
G0 X243.46 Y160.58
G0 X234.13 Y166.07
G0 X223.13 Y163.19
G0 X217.13 Y152.88
G0 X220.36 Y140.82
G0 X231.66 Y134.32
G0 X244.77 Y137.89
G0 X251.77 Y150.18
G0 X247.86 Y164.34
G0 X234.58 Y171.85
G0 X219.36 Y167.59
G0 X211.36 Y153.33
G0 X215.96 Y137.06
G0 X231.21 Y128.55
G0 X248.53 Y133.49
G0 X257.54 Y149.73
G0 X252.26 Y168.11
G0 X235.03 Y177.62
G0 X236.00 Y190.00
G0 X263.55 Y215.74
G0 X263.57 Y216.46
G0 X262.57 Y216.79
G0 X261.39 Y215.81
G0 X261.44 Y213.77
G0 X263.43 Y212.14
G0 X266.50 Y212.58
G0 X268.59 Y215.56
G0 X267.76 Y219.67
G0 X263.77 Y222.22
G0 X258.63 Y221.00
G0 X255.63 Y216.01
G0 X257.23 Y209.83
G0 X263.23 Y206.37
G0 X270.44 Y208.36
G0 X274.35 Y215.37
G0 X271.97 Y223.61
G0 X263.97 Y227.98
G0 X254.69 Y225.21
G0 X249.87 Y216.20
G0 X253.02 Y205.90
G0 X263.03 Y200.61
G0 X274.37 Y204.15
G0 X280.11 Y215.17
G0 X276.19 Y227.54
G0 X264.16 Y233.74
G0 X250.76 Y229.43
G0 X244.10 Y216.40
G0 X248.81 Y201.96
G0 X262.84 Y194.85
G0 X278.31 Y199.94
G0 X285.88 Y214.98
G0 X280.40 Y231.48
G0 X264.36 Y239.50
G0 X246.82 Y233.64
G0 X238.34 Y216.59
G0 X244.59 Y198.03
G0 X236.00 Y190.00
G0 X199.04 Y189.63
G0 X198.53 Y189.12
G0 X199.05 Y188.20
G0 X200.57 Y188.13
G0 X201.91 Y189.66
G0 X201.55 Y192.20
G0 X198.99 Y193.94
G0 X195.45 Y193.15
G0 X193.30 Y189.58
G0 X194.51 Y185.02
G0 X199.11 Y182.46
G0 X204.67 Y184.11
G0 X207.65 Y189.72
G0 X205.57 Y196.29
G0 X198.94 Y199.68
G0 X191.35 Y197.17
G0 X187.56 Y189.52
G0 X190.50 Y180.93
G0 X199.16 Y176.72
G0 X208.77 Y180.09
G0 X213.38 Y189.77
G0 X209.59 Y200.39
G0 X198.88 Y205.42
G0 X187.25 Y201.19
G0 X181.82 Y189.47
G0 X186.48 Y176.83
G0 X199.22 Y170.98
G0 X212.87 Y176.07
G0 X219.12 Y189.83
G0 X213.60 Y204.49
G0 X198.83 Y211.16
G0 X183.16 Y205.21
G0 X176.08 Y189.41
G0 X182.46 Y172.73
G0 X199.27 Y165.24
G0 X216.96 Y172.05
G0 X224.86 Y189.89
G0 X236.00 Y190.00
G0 X262.95 Y165.78
G0 X263.66 Y165.82
G0 X263.90 Y166.85
G0 X262.83 Y167.92
G0 X260.82 Y167.69
G0 X259.38 Y165.59
G0 X260.08 Y162.60
G0 X263.21 Y160.79
G0 X267.20 Y161.97
G0 X269.37 Y166.13
G0 X267.72 Y171.10
G0 X262.53 Y173.63
G0 X256.57 Y171.51
G0 X253.67 Y165.29
G0 X256.26 Y158.35
G0 X263.52 Y155.09
G0 X271.45 Y158.15
G0 X275.07 Y166.43
G0 X271.54 Y175.35
G0 X262.22 Y179.34
G0 X252.32 Y175.33
G0 X247.97 Y164.98
G0 X252.44 Y154.09
G0 X263.83 Y149.38
G0 X275.70 Y154.33
G0 X280.78 Y166.74
G0 X275.36 Y179.60
G0 X261.91 Y185.04
G0 X248.07 Y179.15
G0 X242.26 Y164.68
G0 X248.63 Y149.84
G0 X264.13 Y143.67
G0 X279.95 Y150.51
G0 X286.48 Y167.05
G0 X279.18 Y183.85
G0 X261.61 Y190.75
G0 X243.82 Y182.97
G0 X236.00 Y190.00
G0 X232.55 Y225.34
G0 X232.00 Y225.79
G0 X231.13 Y225.20
G0 X231.19 Y223.69
G0 X232.82 Y222.51
G0 X235.29 Y223.08
G0 X236.79 Y225.75
G0 X235.71 Y229.18
G0 X231.99 Y231.00
G0 X227.60 Y229.40
G0 X225.47 Y224.65
G0 X227.58 Y219.30
G0 X233.37 Y216.85
G0 X239.69 Y219.47
G0 X242.45 Y226.31
G0 X239.32 Y233.58
G0 X231.44 Y236.66
G0 X223.21 Y233.02
G0 X219.81 Y224.10
G0 X223.96 Y214.90
G0 X233.93 Y211.18
G0 X244.08 Y215.85
G0 X248.12 Y226.86
G0 X242.93 Y237.97
G0 X230.89 Y242.33
G0 X218.81 Y236.63
G0 X214.14 Y223.54
G0 X220.35 Y210.51
G0 X234.48 Y205.52
G0 X248.48 Y212.24
G0 X253.78 Y227.41
G0 X246.55 Y242.37
G0 X230.33 Y247.99
G0 X214.42 Y240.24
G0 X208.48 Y222.99
G0 X216.74 Y206.11
G0 X235.03 Y199.86
G0 X236.00 Y190.00
G0 X215.09 Y162.17
G0 X215.19 Y161.46
G0 X216.22 Y161.32
G0 X217.19 Y162.46
G0 X216.79 Y164.43
G0 X214.59 Y165.67
G0 X211.69 Y164.72
G0 X210.18 Y161.47
G0 X211.68 Y157.64
G0 X215.98 Y155.86
G0 X220.75 Y157.91
G0 X222.80 Y163.26
G0 X220.19 Y168.96
G0 X213.79 Y171.28
G0 X207.16 Y168.12
G0 X204.57 Y160.67
G0 X208.28 Y153.11
G0 X216.78 Y150.25
G0 X225.28 Y154.51
G0 X228.41 Y164.06
G0 X223.59 Y173.49
G0 X213.00 Y176.89
G0 X202.63 Y171.52
G0 X198.96 Y159.88
G0 X204.88 Y148.58
G0 X217.58 Y144.64
G0 X229.80 Y151.11
G0 X234.01 Y164.85
G0 X226.99 Y178.01
G0 X212.20 Y182.49
G0 X198.11 Y174.92
G0 X193.36 Y159.08
G0 X201.48 Y144.05
G0 X218.37 Y139.03
G0 X234.33 Y147.71
G0 X239.62 Y165.65
G0 X230.40 Y182.54
G0 X236.00 Y190.00
G0 X269.53 Y196.27
G0 X269.93 Y196.85
G0 X269.27 Y197.65
G0 X267.79 Y197.46
G0 X266.76 Y195.75
G0 X267.54 Y193.36
G0 X270.31 Y192.11
G0 X273.60 Y193.48
G0 X275.08 Y197.30
G0 X273.12 Y201.50
G0 X268.24 Y203.19
G0 X263.14 Y200.65
G0 X261.22 Y194.71
G0 X264.35 Y188.71
G0 X271.35 Y186.57
G0 X278.26 Y190.29
G0 X280.62 Y198.34
G0 X276.30 Y206.15
G0 X267.20 Y208.74
G0 X258.48 Y203.83
G0 X255.68 Y193.67
G0 X261.17 Y184.05
G0 X272.38 Y181.02
G0 X282.91 Y187.10
G0 X286.16 Y199.37
G0 X279.49 Y210.80
G0 X266.16 Y214.28
G0 X253.83 Y207.02
G0 X250.13 Y192.64
G0 X257.98 Y179.40
G0 X273.42 Y175.48
G0 X287.56 Y183.92
G0 X291.70 Y200.41
G0 X282.68 Y215.46
G0 X265.13 Y219.82
G0 X249.18 Y210.21
G0 X244.59 Y191.60
G0 X236.00 Y190.00
G0 X207.60 Y207.67
G0 X206.92 Y207.51
G0 X206.86 Y206.48
G0 X208.08 Y205.62
G0 X209.99 Y206.19
G0 X211.02 Y208.46
G0 X209.83 Y211.24
G0 X206.49 Y212.45
G0 X202.84 Y210.64
G0 X201.45 Y206.24
G0 X203.89 Y201.71
G0 X209.35 Y200.15
G0 X214.75 Y203.22
G0 X216.49 Y209.74
G0 X212.79 Y216.01
G0 X205.22 Y217.92
G0 X198.07 Y213.60
G0 X195.98 Y204.97
G0 X200.93 Y196.95
G0 X210.62 Y194.68
G0 X219.52 Y200.25
G0 X221.96 Y211.01
G0 X215.76 Y220.77
G0 X203.95 Y223.39
G0 X193.31 Y216.57
G0 X190.52 Y203.69
G0 X197.96 Y192.18
G0 X211.90 Y189.22
G0 X224.28 Y197.29
G0 X227.42 Y212.28
G0 X218.73 Y225.54
G0 X202.67 Y228.86
G0 X188.54 Y219.54
G0 X185.05 Y202.42
G0 X195.00 Y187.41
G0 X213.17 Y183.75
G0 X229.05 Y194.32
G0 X236.00 Y190.00
G0 X244.81 Y158.42
G0 X245.42 Y158.08
G0 X246.16 Y158.80
G0 X245.84 Y160.25
G0 X244.06 Y161.11
G0 X241.77 Y160.14
G0 X240.78 Y157.29
G0 X242.41 Y154.16
G0 X246.32 Y153.04
G0 X250.29 Y155.34
G0 X251.54 Y160.30
G0 X248.59 Y165.12
G0 X242.56 Y166.50
G0 X236.90 Y162.88
G0 X235.39 Y155.79
G0 X239.67 Y149.29
G0 X247.82 Y147.66
G0 X255.16 Y152.59
G0 X256.92 Y161.80
G0 X251.33 Y169.99
G0 X241.06 Y171.88
G0 X232.03 Y165.62
G0 X230.01 Y154.29
G0 X236.93 Y144.42
G0 X249.32 Y142.28
G0 X260.03 Y149.85
G0 X262.31 Y163.31
G0 X254.07 Y174.85
G0 X239.55 Y177.26
G0 X227.16 Y168.37
G0 X224.63 Y152.78
G0 X234.19 Y139.56
G0 X250.83 Y136.89
G0 X264.90 Y147.11
G0 X267.69 Y164.81
G0 X256.81 Y179.72
G0 X238.05 Y182.64
G0 X236.00 Y190.00
G0 X250.53 Y218.65
G0 X250.31 Y219.31
G0 X249.29 Y219.28
G0 X248.54 Y218.01
G0 X249.27 Y216.17
G0 X251.61 Y215.35
G0 X254.25 Y216.77
G0 X255.15 Y220.17
G0 X253.04 Y223.62
G0 X248.58 Y224.60
G0 X244.32 Y221.80
G0 X243.26 Y216.28
G0 X246.75 Y211.21
G0 X253.34 Y210.06
G0 X259.21 Y214.25
G0 X260.44 Y221.90
G0 X255.56 Y228.58
G0 X246.85 Y229.89
G0 X239.36 Y224.31
G0 X237.97 Y214.55
G0 X244.24 Y206.25
G0 X255.07 Y204.77
G0 X264.17 Y211.74
G0 X265.73 Y223.63
G0 X258.07 Y233.54
G0 X245.12 Y235.18
G0 X234.40 Y226.83
G0 X232.68 Y212.82
G0 X241.72 Y201.29
G0 X256.80 Y199.49
G0 X269.13 Y209.22
G0 X271.01 Y225.36
G0 X260.59 Y238.50
G0 X243.39 Y240.46
G0 X229.44 Y229.35
G0 X227.39 Y211.09
G0 X239.20 Y196.33
G0 X236.00 Y190.00
G0 X206.52 Y178.90
G0 X206.23 Y178.27
G0 X207.00 Y177.61
G0 X208.41 Y178.05
G0 X209.11 Y179.88
G0 X207.95 Y182.06
G0 X205.05 Y182.79
G0 X202.10 Y180.90
G0 X201.33 Y176.95
G0 X203.95 Y173.23
G0 X208.96 Y172.42
G0 X213.45 Y175.76
G0 X214.29 Y181.83
G0 X210.23 Y187.10
G0 X203.10 Y187.97
G0 X197.06 Y183.19
G0 X196.15 Y175.00
G0 X201.66 Y168.18
G0 X210.91 Y167.24
G0 X218.50 Y173.47
G0 X219.47 Y183.78
G0 X212.52 Y192.14
G0 X201.15 Y193.16
G0 X192.02 Y185.47
G0 X190.97 Y173.05
G0 X199.37 Y163.14
G0 X212.86 Y162.06
G0 X223.54 Y171.19
G0 X224.66 Y185.73
G0 X214.80 Y197.19
G0 X199.20 Y198.34
G0 X186.97 Y187.76
G0 X185.78 Y171.10
G0 X197.09 Y158.10
G0 X214.81 Y156.87
G0 X228.58 Y168.90
G0 X229.84 Y187.68
G0 X236.00 Y190.00
G0 X264.65 Y178.49
G0 X265.28 Y178.77
G0 X265.16 Y179.77
G0 X263.83 Y180.40
G0 X262.09 Y179.52
G0 X261.48 Y177.14
G0 X263.10 Y174.66
G0 X266.54 Y174.06
G0 X269.76 Y176.44
G0 X270.35 Y180.93
G0 X267.21 Y184.89
G0 X261.67 Y185.47
G0 X256.97 Y181.57
G0 X256.41 Y174.98
G0 X261.05 Y169.54
G0 X268.71 Y168.99
G0 X274.88 Y174.39
G0 X275.42 Y183.10
G0 X269.27 Y190.01
G0 X259.50 Y190.53
G0 X251.86 Y183.63
G0 X251.34 Y172.81
G0 X259.00 Y164.43
G0 X270.87 Y163.92
G0 X279.99 Y172.33
G0 X280.49 Y185.26
G0 X271.32 Y195.12
G0 X257.34 Y195.60
G0 X246.74 Y185.68
G0 X246.27 Y170.65
G0 X256.94 Y159.31
G0 X273.04 Y158.85
G0 X285.11 Y170.28
G0 X285.56 Y187.43
G0 X273.37 Y200.24
G0 X255.17 Y200.67
G0 X241.62 Y187.74
G0 X236.00 Y190.00
G0 X222.90 Y217.28
G0 X222.26 Y217.50
G0 X221.67 Y216.68
G0 X222.22 Y215.34
G0 X224.09 Y214.80
G0 X226.14 Y216.14
G0 X226.61 Y219.06
G0 X224.49 Y221.81
G0 X220.53 Y222.22
G0 X217.08 Y219.32
G0 X216.72 Y214.31
G0 X220.40 Y210.16
G0 X226.46 Y209.86
G0 X231.31 Y214.32
G0 X231.56 Y221.43
G0 X226.31 Y226.98
G0 X218.15 Y227.17
G0 X211.90 Y221.14
G0 X211.77 Y211.93
G0 X218.58 Y204.98
G0 X228.84 Y204.91
G0 X236.49 Y212.50
G0 X236.51 Y223.81
G0 X228.13 Y232.16
G0 X215.78 Y232.12
G0 X206.72 Y222.96
G0 X206.82 Y209.56
G0 X216.76 Y199.80
G0 X231.21 Y199.96
G0 X241.67 Y210.68
G0 X241.45 Y226.18
G0 X229.95 Y237.34
G0 X213.41 Y237.07
G0 X201.55 Y224.78
G0 X201.88 Y207.19
G0 X214.94 Y194.63
G0 X233.59 Y195.01
G0 X236.00 Y190.00
G0 X227.39 Y161.61
G0 X227.72 Y161.01
G0 X228.70 Y161.21
G0 X229.20 Y162.57
G0 X228.19 Y164.22
G0 X225.78 Y164.62
G0 X223.47 Y162.80
G0 X223.18 Y159.35
G0 X225.81 Y156.38
G0 X230.29 Y156.19
G0 X233.93 Y159.63
G0 X234.02 Y165.15
G0 X229.77 Y169.45
G0 X223.21 Y169.43
G0 X218.25 Y164.38
G0 X218.36 Y156.78
G0 X224.23 Y151.15
G0 X232.87 Y151.37
G0 X239.16 Y158.04
G0 X238.83 Y167.73
G0 X231.35 Y174.68
G0 X220.63 Y174.25
G0 X213.02 Y165.96
G0 X213.55 Y154.20
G0 X222.64 Y145.92
G0 X235.45 Y146.56
G0 X244.38 Y156.46
G0 X243.65 Y170.30
G0 X232.94 Y179.90
G0 X218.05 Y179.07
G0 X207.79 Y167.55
G0 X208.73 Y151.62
G0 X221.06 Y140.70
G0 X238.02 Y141.74
G0 X249.61 Y154.88
G0 X248.47 Y172.88
G0 X234.52 Y185.13
G0 X236.00 Y190.00
G0 X261.01 Y204.82
G0 X261.18 Y205.48
G0 X260.31 Y205.99
G0 X259.03 Y205.32
G0 X258.67 Y203.43
G0 X260.16 Y201.53
G0 X263.09 Y201.31
G0 X265.62 Y203.64
G0 X265.68 Y207.59
G0 X262.52 Y210.74
G0 X257.54 Y210.66
G0 X253.76 Y206.67
G0 X253.99 Y200.66
G0 X258.82 Y196.26
G0 X265.86 Y196.63
G0 X270.88 Y202.29
G0 X270.36 Y210.36
G0 X263.87 Y216.01
G0 X254.77 Y215.34
G0 X248.50 Y208.02
G0 X249.31 Y197.89
G0 X257.47 Y190.99
G0 X268.63 Y191.96
G0 X276.15 Y200.94
G0 X275.04 Y213.13
G0 X265.22 Y221.28
G0 X252.00 Y220.02
G0 X243.23 Y209.37
G0 X244.64 Y195.12
G0 X256.12 Y185.72
G0 X271.40 Y187.28
G0 X281.42 Y199.60
G0 X279.72 Y215.91
G0 X266.56 Y226.55
G0 X249.23 Y224.70
G0 X237.96 Y210.71
G0 X239.96 Y192.34
G0 X236.00 Y190.00
G0 X208.10 Y195.84
G0 X207.54 Y195.47
G0 X207.83 Y194.52
G0 X209.21 Y194.14
G0 X210.75 Y195.29
G0 X210.93 Y197.69
G0 X208.94 Y199.81
G0 X205.51 Y199.81
G0 X202.81 Y196.95
G0 X203.01 Y192.51
G0 X206.71 Y189.22
G0 X212.17 Y189.61
G0 X216.05 Y194.18
G0 X215.46 Y200.65
G0 X210.05 Y205.11
G0 X202.55 Y204.34
G0 X197.51 Y198.06
G0 X198.48 Y189.55
G0 X205.60 Y183.92
G0 X215.13 Y185.08
G0 X221.34 Y193.07
G0 X220.00 Y203.61
G0 X211.16 Y210.41
G0 X199.59 Y208.87
G0 X192.21 Y199.17
G0 X193.95 Y186.59
G0 X204.49 Y178.63
G0 X218.09 Y180.55
G0 X226.64 Y191.96
G0 X224.53 Y206.57
G0 X212.27 Y215.70
G0 X196.63 Y213.40
G0 X186.92 Y200.28
G0 X189.41 Y183.63
G0 X203.38 Y173.33
G0 X221.05 Y176.02
G0 X231.94 Y190.85
G0 X236.00 Y190.00
G0 X252.28 Y167.30
G0 X252.95 Y167.19
G0 X253.38 Y168.09
G0 X252.61 Y169.29
G0 X250.71 Y169.49
G0 X248.96 Y167.85
G0 X249.00 Y164.95
G0 X251.52 Y162.65
G0 X255.42 Y162.92
G0 X258.26 Y166.32
G0 X257.75 Y171.23
G0 X253.48 Y174.61
G0 X247.57 Y173.86
G0 X243.65 Y168.72
G0 X244.62 Y161.80
G0 X250.65 Y157.33
G0 X258.56 Y158.55
G0 X263.58 Y165.44
G0 X262.13 Y174.37
G0 X254.36 Y179.92
G0 X244.43 Y178.24
G0 X238.33 Y169.59
G0 X240.25 Y158.66
G0 X249.77 Y152.02
G0 X261.71 Y154.17
G0 X268.89 Y164.57
G0 X266.51 Y177.51
G0 X255.23 Y185.24
G0 X241.29 Y182.62
G0 X233.02 Y170.47
G0 X235.87 Y155.52
G0 X248.90 Y146.70
G0 X264.85 Y149.80
G0 X274.21 Y163.70
G0 X270.88 Y180.65
G0 X256.10 Y190.56
G0 X238.15 Y186.99
G0 X236.00 Y190.00
G0 X239.25 Y217.18
G0 X238.83 Y217.71
G0 X237.92 Y217.34
G0 X237.67 Y215.94
G0 X238.93 Y214.52
G0 X241.32 Y214.55
G0 X243.24 Y216.70
G0 X242.94 Y220.08
G0 X239.89 Y222.51
G0 X235.52 Y221.92
G0 X232.59 Y217.98
G0 X233.45 Y212.63
G0 X238.29 Y209.20
G0 X244.63 Y210.33
G0 X248.56 Y216.07
G0 X247.15 Y223.40
G0 X240.52 Y227.83
G0 X232.21 Y226.14
G0 X227.27 Y218.62
G0 X229.24 Y209.31
G0 X237.66 Y203.87
G0 X247.95 Y206.12
G0 X253.89 Y215.43
G0 X251.37 Y226.71
G0 X241.16 Y233.15
G0 X228.89 Y230.35
G0 X221.95 Y219.25
G0 X225.02 Y206.00
G0 X237.02 Y198.55
G0 X251.26 Y201.90
G0 X259.21 Y214.79
G0 X255.58 Y230.02
G0 X241.80 Y238.48
G0 X225.58 Y234.57
G0 X216.62 Y219.89
G0 X220.81 Y202.68
G0 X236.38 Y193.23
G0 X236.00 Y190.00
G0 X215.64 Y172.50
G0 X215.59 Y171.83
G0 X216.51 Y171.49
G0 X217.64 Y172.35
G0 X217.67 Y174.24
G0 X215.89 Y175.82
G0 X213.03 Y175.53
G0 X210.99 Y172.85
G0 X211.60 Y169.02
G0 X215.19 Y166.51
G0 X219.99 Y167.44
G0 X222.96 Y171.95
G0 X221.71 Y177.72
G0 X216.29 Y181.15
G0 X209.55 Y179.58
G0 X205.67 Y173.25
G0 X207.55 Y165.54
G0 X214.79 Y161.19
G0 X223.47 Y163.39
G0 X228.28 Y171.55
G0 X225.76 Y181.20
G0 X216.70 Y186.47
G0 X206.08 Y183.63
G0 X200.34 Y173.65
G0 X203.50 Y162.06
G0 X214.39 Y155.87
G0 X226.95 Y159.35
G0 X233.60 Y171.14
G0 X229.81 Y184.67
G0 X217.10 Y191.79
G0 X202.60 Y187.67
G0 X195.02 Y174.06
G0 X199.46 Y158.59
G0 X213.99 Y150.55
G0 X230.43 Y155.30
G0 X238.92 Y170.74
G0 X233.85 Y188.15
G0 X236.00 Y190.00
G0 X262.29 Y189.16
G0 X262.77 Y189.62
G0 X262.33 Y190.49
G0 X260.93 Y190.62
G0 X259.64 Y189.25
G0 X259.87 Y186.89
G0 X262.16 Y185.18
G0 X265.47 Y185.78
G0 X267.60 Y189.00
G0 X266.65 Y193.25
G0 X262.50 Y195.80
G0 X257.29 Y194.49
G0 X254.33 Y189.42
G0 X256.00 Y183.26
G0 X262.00 Y179.88
G0 X269.10 Y181.90
G0 X272.91 Y188.83
G0 X270.52 Y196.89
G0 X262.67 Y201.11
G0 X253.66 Y198.36
G0 X249.02 Y189.58
G0 X252.13 Y179.62
G0 X261.83 Y174.57
G0 X272.74 Y178.03
G0 X278.21 Y188.66
G0 X274.39 Y200.52
G0 X262.83 Y206.42
G0 X250.02 Y202.23
G0 X243.71 Y189.75
G0 X248.25 Y175.99
G0 X261.66 Y169.26
G0 X276.37 Y174.16
G0 X283.52 Y188.49
G0 X278.26 Y204.16
G0 X263.00 Y211.72
G0 X246.39 Y206.10
G0 X238.40 Y189.92
G0 X236.00 Y190.00
G0 X217.54 Y208.01
G0 X216.88 Y208.00
G0 X216.62 Y207.06
G0 X217.56 Y206.02
G0 X219.43 Y206.16
G0 X220.84 Y208.05
G0 X220.31 Y210.84
G0 X217.48 Y212.63
G0 X213.76 Y211.70
G0 X211.59 Y207.93
G0 X212.93 Y203.28
G0 X217.63 Y200.74
G0 X223.21 Y202.47
G0 X226.13 Y208.11
G0 X224.00 Y214.63
G0 X217.42 Y217.92
G0 X209.97 Y215.39
G0 X206.31 Y207.87
G0 X209.23 Y199.49
G0 X217.69 Y195.45
G0 X227.00 Y198.78
G0 X231.41 Y208.17
G0 X227.69 Y218.41
G0 X217.35 Y223.20
G0 X206.19 Y219.08
G0 X201.02 Y207.80
G0 X205.54 Y195.71
G0 X217.76 Y190.17
G0 X230.78 Y195.08
G0 X236.70 Y208.24
G0 X231.38 Y222.19
G0 X217.29 Y228.49
G0 X202.41 Y222.77
G0 X195.74 Y207.74
G0 X201.85 Y191.93
G0 X217.82 Y184.88
G0 X234.56 Y191.39
G0 X236.00 Y190.00
G0 X237.41 Y164.76
G0 X237.90 Y164.32
G0 X238.72 Y164.83
G0 X238.72 Y166.23
G0 X237.26 Y167.38
G0 X234.96 Y166.95
G0 X233.47 Y164.54
G0 X234.34 Y161.33
G0 X237.70 Y159.51
G0 X241.82 Y160.81
G0 X243.97 Y165.13
G0 X242.23 Y170.15
G0 X236.97 Y172.64
G0 X231.04 Y170.46
G0 X228.22 Y164.24
G0 X230.84 Y157.40
G0 X238.00 Y154.25
G0 X245.74 Y157.31
G0 X249.23 Y165.42
G0 X245.74 Y174.07
G0 X236.67 Y177.89
G0 X227.11 Y173.96
G0 X222.97 Y163.95
G0 X227.33 Y153.48
G0 X238.29 Y149.00
G0 X249.66 Y153.80
G0 X254.48 Y165.71
G0 X249.24 Y178.00
G0 X236.38 Y183.14
G0 X223.19 Y177.47
G0 X217.71 Y163.66
G0 X223.82 Y149.56
G0 X238.59 Y143.75
G0 X253.59 Y150.30
G0 X259.73 Y166.01
G0 X252.75 Y181.92
G0 X236.08 Y188.39
G0 X236.00 Y190.00
G0 X251.68 Y209.17
G0 X251.62 Y209.82
G0 X250.67 Y210.00
G0 X249.73 Y208.98
G0 X250.03 Y207.15
G0 X252.01 Y205.92
G0 X254.72 Y206.69
G0 X256.24 Y209.63
G0 X255.00 Y213.22
G0 X251.10 Y215.03
G0 X246.62 Y213.31
G0 X244.52 Y208.45
G0 X246.71 Y203.09
G0 X252.53 Y200.71
G0 X258.77 Y203.37
G0 X261.45 Y210.15
G0 X258.31 Y217.28
G0 X250.57 Y220.24
G0 X242.57 Y216.63
G0 X239.31 Y207.93
G0 X243.40 Y199.04
G0 X253.05 Y195.50
G0 X262.83 Y200.06
G0 X266.66 Y210.67
G0 X261.63 Y221.33
G0 X250.05 Y225.45
G0 X238.51 Y219.94
G0 X234.10 Y207.41
G0 X240.08 Y194.99
G0 X253.57 Y190.29
G0 X266.88 Y196.74
G0 X271.87 Y211.19
G0 X264.94 Y225.38
G0 X249.53 Y230.66
G0 X234.46 Y223.26
G0 X228.89 Y206.89
G0 X236.77 Y190.94
G0 X236.00 Y190.00
G0 X211.96 Y186.52
G0 X211.57 Y186.00
G0 X212.15 Y185.23
G0 X213.52 Y185.35
G0 X214.54 Y186.89
G0 X213.91 Y189.13
G0 X211.40 Y190.39
G0 X208.31 Y189.25
G0 X206.80 Y185.78
G0 X208.45 Y181.83
G0 X212.89 Y180.08
G0 X217.70 Y182.23
G0 X219.69 Y187.64
G0 X217.03 Y193.30
G0 X210.66 Y195.55
G0 X204.14 Y192.37
G0 X201.65 Y185.03
G0 X205.33 Y177.65
G0 X213.64 Y174.92
G0 X221.87 Y179.11
G0 X224.85 Y188.38
G0 X220.15 Y197.48
G0 X209.91 Y200.70
G0 X199.96 Y195.49
G0 X196.49 Y184.29
G0 X202.21 Y173.48
G0 X214.38 Y169.76
G0 X226.04 Y175.99
G0 X230.01 Y189.13
G0 X223.27 Y201.65
G0 X209.17 Y205.86
G0 X195.79 Y198.61
G0 X191.33 Y183.54
G0 X199.09 Y169.31
G0 X215.13 Y164.61
G0 X230.22 Y172.88
G0 X235.16 Y189.87
G0 X236.00 Y190.00
G0 X255.67 Y176.59
G0 X256.30 Y176.71
G0 X256.40 Y177.66
G0 X255.30 Y178.50
G0 X253.52 Y178.05
G0 X252.48 Y175.99
G0 X253.48 Y173.38
G0 X256.51 Y172.13
G0 X259.95 Y173.67
G0 X261.40 Y177.68
G0 X259.32 Y181.95
G0 X254.34 Y183.60
G0 X249.24 Y180.97
G0 X247.39 Y175.02
G0 X250.56 Y169.09
G0 X257.48 Y167.04
G0 X264.24 Y170.75
G0 X266.49 Y178.64
G0 X262.24 Y186.23
G0 X253.37 Y188.69
G0 X244.95 Y183.89
G0 X242.29 Y174.06
G0 X247.64 Y164.81
G0 X258.44 Y161.95
G0 X268.52 Y167.83
G0 X271.59 Y179.61
G0 X265.15 Y190.52
G0 X252.41 Y193.78
G0 X240.67 Y186.81
G0 X237.20 Y173.09
G0 X244.72 Y160.52
G0 X259.41 Y156.85
G0 X272.81 Y164.91
G0 X276.68 Y180.57
G0 X268.07 Y194.80
G0 X251.44 Y198.88
G0 X236.39 Y189.73
G0 X236.00 Y190.00
G0 X230.65 Y212.71
G0 X230.10 Y213.05
G0 X229.40 Y212.41
G0 X229.63 Y211.06
G0 X231.24 Y210.20
G0 X233.39 Y211.01
G0 X234.42 Y213.59
G0 X233.03 Y216.55
G0 X229.47 Y217.73
G0 X225.72 Y215.76
G0 X224.37 Y211.23
G0 X226.92 Y206.68
G0 X232.42 Y205.17
G0 X237.78 Y208.29
G0 X239.44 Y214.78
G0 X235.74 Y220.93
G0 X228.29 Y222.75
G0 X221.33 Y218.48
G0 X219.35 Y210.05
G0 X224.20 Y202.29
G0 X233.61 Y200.15
G0 X242.17 Y205.58
G0 X244.46 Y215.96
G0 X238.46 Y225.32
G0 X227.11 Y227.78
G0 X216.94 Y221.20
G0 X214.33 Y208.87
G0 X221.49 Y197.90
G0 X234.79 Y195.13
G0 X246.55 Y202.86
G0 X249.49 Y217.14
G0 X241.18 Y229.71
G0 X225.93 Y232.80
G0 X212.56 Y223.91
G0 X209.31 Y207.69
G0 X218.77 Y193.52
G0 X235.97 Y190.11
G0 X236.00 Y190.00
G0 X224.82 Y170.04
G0 X224.99 Y169.42
G0 X225.94 Y169.41
G0 X226.67 Y170.56
G0 X226.07 Y172.28
G0 X223.95 Y173.13
G0 X221.46 Y171.92
G0 X220.49 Y168.82
G0 X222.31 Y165.56
G0 X226.39 Y164.48
G0 X230.42 Y166.90
G0 X231.61 Y171.96
G0 X228.58 Y176.76
G0 X222.55 Y178.07
G0 X216.98 Y174.43
G0 X215.55 Y167.43
G0 X219.80 Y161.08
G0 X227.78 Y159.54
G0 X234.90 Y164.40
G0 X236.55 Y173.35
G0 X231.09 Y181.24
G0 X221.16 Y183.01
G0 X212.50 Y176.94
G0 X210.61 Y166.04
G0 X217.29 Y156.60
G0 X229.17 Y154.60
G0 X239.38 Y161.89
G0 X241.50 Y174.74
G0 X233.60 Y185.72
G0 X219.77 Y187.95
G0 X208.02 Y179.45
G0 X205.67 Y164.64
G0 X214.78 Y152.12
G0 X230.57 Y149.66
G0 X243.86 Y159.38
G0 X246.44 Y176.14
G0 X236.11 Y190.20
G0 X236.00 Y190.00
G0 X257.28 Y197.02
G0 X257.57 Y197.59
G0 X256.88 Y198.23
G0 X255.57 Y197.88
G0 X254.86 Y196.22
G0 X255.85 Y194.17
G0 X258.48 Y193.38
G0 X261.28 Y195.00
G0 X262.14 Y198.62
G0 X259.87 Y202.15
G0 X255.28 Y203.08
G0 X251.01 Y200.18
G0 X250.01 Y194.62
G0 X253.55 Y189.60
G0 X260.09 Y188.53
G0 X265.84 Y192.71
G0 X266.99 Y200.22
G0 X262.17 Y206.71
G0 X253.68 Y207.93
G0 X246.45 Y202.48
G0 X245.15 Y193.02
G0 X251.25 Y185.04
G0 X261.69 Y183.67
G0 X270.40 Y190.41
G0 X271.84 Y201.82
G0 X264.47 Y211.27
G0 X252.08 Y212.79
G0 X241.89 Y204.78
G0 X240.30 Y191.42
G0 X248.95 Y180.48
G0 X263.29 Y178.82
G0 X274.96 Y188.11
G0 X276.69 Y203.42
G0 X266.77 Y215.84
G0 X250.48 Y217.64
G0 X237.32 Y207.08
G0 X235.45 Y189.82
G0 X236.00 Y190.00
G0 X215.96 Y199.02
G0 X215.36 Y198.79
G0 X215.44 Y197.86
G0 X216.63 Y197.23
G0 X218.28 Y197.97
G0 X218.93 Y200.14
G0 X217.52 Y202.49
G0 X214.38 Y203.18
G0 X211.32 Y201.10
G0 X210.61 Y196.99
G0 X213.35 Y193.22
G0 X218.44 Y192.48
G0 X222.91 Y195.89
G0 X223.68 Y201.94
G0 X219.61 Y207.13
G0 X212.58 Y207.93
G0 X206.69 Y203.19
G0 X205.86 Y195.19
G0 X211.26 Y188.59
G0 X220.24 Y187.73
G0 X227.55 Y193.80
G0 X228.44 Y203.75
G0 X221.70 Y211.76
G0 X210.78 Y212.68
G0 X202.05 Y205.28
G0 X201.10 Y193.38
G0 X209.18 Y183.95
G0 X222.04 Y182.97
G0 X232.18 Y191.71
G0 X233.19 Y205.55
G0 X223.79 Y216.40
G0 X208.98 Y217.44
G0 X197.42 Y207.36
G0 X196.35 Y191.58
G0 X207.09 Y179.31
G0 X223.84 Y178.22
G0 X236.82 Y189.62
G0 X236.00 Y190.00
G0 X244.50 Y170.21
G0 X245.09 Y169.97
G0 X245.67 Y170.71
G0 X245.21 Y171.97
G0 X243.50 Y172.53
G0 X241.57 Y171.38
G0 X241.02 Y168.71
G0 X242.86 Y166.10
G0 X246.50 Y165.56
G0 X249.79 Y168.10
G0 X250.31 Y172.71
G0 X247.08 Y176.67
G0 X241.51 Y177.18
G0 X236.87 Y173.25
G0 X236.37 Y166.71
G0 X240.99 Y161.40
G0 X248.50 Y160.91
G0 X254.49 Y166.23
G0 X254.96 Y174.70
G0 X248.95 Y181.37
G0 X239.51 Y181.83
G0 X232.17 Y175.12
G0 X231.72 Y164.71
G0 X239.12 Y156.70
G0 X250.50 Y156.27
G0 X259.19 Y164.35
G0 X259.61 Y176.70
G0 X250.83 Y186.07
G0 X237.51 Y186.47
G0 X227.47 Y177.00
G0 X227.08 Y162.71
G0 X237.25 Y152.00
G0 X252.50 Y151.62
G0 X263.89 Y162.48
G0 X264.25 Y178.70
G0 X252.70 Y190.77
G0 X235.51 Y191.12
G0 X236.00 Y190.00
G0 X242.95 Y209.93
G0 X242.67 Y210.50
G0 X241.76 Y210.34
G0 X241.25 Y209.11
G0 X242.12 Y207.55
G0 X244.31 Y207.10
G0 X246.51 Y208.69
G0 X246.91 Y211.85
G0 X244.60 Y214.68
G0 X240.48 Y215.03
G0 X237.01 Y212.00
G0 X236.71 Y206.92
G0 X240.46 Y202.80
G0 X246.50 Y202.56
G0 X251.26 Y207.03
G0 X251.44 Y214.03
G0 X246.26 Y219.44
G0 X238.30 Y219.56
G0 X232.25 Y213.66
G0 X232.18 Y204.73
G0 X238.80 Y198.05
G0 X248.69 Y198.03
G0 X256.02 Y205.37
G0 X255.98 Y216.22
G0 X247.92 Y224.19
G0 X236.11 Y224.09
G0 X227.50 Y215.32
G0 X227.65 Y202.54
G0 X237.15 Y193.30
G0 X250.88 Y193.50
G0 X260.77 Y203.72
G0 X260.51 Y218.41
G0 X249.58 Y228.94
G0 X233.92 Y228.63
G0 X222.75 Y216.97
G0 X223.12 Y200.35
G0 X235.49 Y188.54
G0 X236.00 Y190.00
G0 X217.77 Y180.19
G0 X217.59 Y179.59
G0 X218.36 Y179.09
G0 X219.57 Y179.65
G0 X219.98 Y181.38
G0 X218.67 Y183.19
G0 X215.99 Y183.50
G0 X213.57 Y181.45
G0 X213.36 Y177.82
G0 X216.15 Y174.79
G0 X220.74 Y174.68
G0 X224.37 Y178.21
G0 X224.39 Y183.75
G0 X220.11 Y187.98
G0 X213.62 Y187.91
G0 X208.78 Y182.89
G0 X208.95 Y175.44
G0 X214.71 Y170.00
G0 X223.11 Y170.27
G0 X229.16 Y176.77
G0 X228.80 Y186.12
G0 X221.55 Y192.78
G0 X211.25 Y192.32
G0 X203.98 Y184.33
G0 X204.54 Y173.07
G0 X213.27 Y165.20
G0 X225.48 Y165.86
G0 X233.96 Y175.33
G0 X233.21 Y188.50
G0 X222.99 Y197.58
G0 X208.87 Y196.73
G0 X199.18 Y185.77
G0 X200.13 Y170.70
G0 X211.83 Y160.40
G0 X227.86 Y161.45
G0 X238.76 Y173.89
G0 X237.62 Y190.87
G0 X236.00 Y190.00
G0 X255.66 Y185.02
G0 X256.19 Y185.34
G0 X255.96 Y186.22
G0 X254.70 Y186.62
G0 X253.24 Y185.63
G0 X252.98 Y183.42
G0 X254.74 Y181.39
G0 X257.89 Y181.27
G0 X260.49 Y183.79
G0 X260.47 Y187.89
G0 X257.19 Y191.05
G0 X252.15 Y190.90
G0 X248.41 Y186.85
G0 X248.70 Y180.87
G0 X253.52 Y176.56
G0 X260.44 Y176.99
G0 X265.32 Y182.57
G0 X264.76 Y190.44
G0 X258.41 Y195.89
G0 X249.60 Y195.18
G0 X243.58 Y188.07
G0 X244.42 Y178.32
G0 X252.30 Y171.73
G0 X262.99 Y172.71
G0 X270.15 Y181.35
G0 X269.04 Y192.99
G0 X259.63 Y200.72
G0 X247.05 Y199.46
G0 X238.75 Y189.30
G0 X240.14 Y175.77
G0 X251.07 Y166.90
G0 X265.54 Y168.43
G0 X274.98 Y180.12
G0 X273.32 Y195.54
G0 X260.86 Y205.55
G0 X244.50 Y203.74
G0 X233.92 Y190.52
G0 X236.00 Y190.00
G0 X225.08 Y206.61
G0 X224.47 Y206.74
G0 X224.04 Y205.93
G0 X224.70 Y204.79
G0 X226.44 Y204.54
G0 X228.11 Y205.98
G0 X228.19 Y208.65
G0 X225.96 Y210.86
G0 X222.36 Y210.76
G0 X219.62 Y207.74
G0 X219.90 Y203.21
G0 X223.70 Y199.94
G0 X229.16 Y200.40
G0 X232.97 Y204.98
G0 X232.33 Y211.38
G0 X226.96 Y215.72
G0 X219.64 Y214.90
G0 X214.76 Y208.75
G0 X215.76 Y200.49
G0 X222.69 Y195.08
G0 X231.88 Y196.25
G0 X237.82 Y203.97
G0 X236.47 Y214.10
G0 X227.97 Y220.57
G0 X216.91 Y219.04
G0 X209.91 Y209.76
G0 X211.61 Y197.77
G0 X221.69 Y190.23
G0 X234.61 Y192.11
G0 X242.68 Y202.97
G0 X240.62 Y216.82
G0 X228.97 Y225.43
G0 X214.19 Y223.19
G0 X205.05 Y210.76
G0 X207.47 Y195.05
G0 X220.68 Y185.37
G0 X237.33 Y187.97
G0 X236.00 Y190.00
G0 X232.88 Y170.76
G0 X233.24 Y170.26
G0 X234.10 Y170.56
G0 X234.38 Y171.84
G0 X233.28 Y173.19
G0 X231.08 Y173.26
G0 X229.23 Y171.35
G0 X229.38 Y168.23
G0 X232.09 Y165.89
G0 X236.13 Y166.26
G0 X238.97 Y169.77
G0 X238.38 Y174.72
G0 X234.06 Y178.06
G0 X228.19 Y177.26
G0 X224.36 Y172.14
G0 X225.38 Y165.35
G0 X231.31 Y161.02
G0 X239.01 Y162.26
G0 X243.84 Y168.98
G0 X242.38 Y177.61
G0 X234.85 Y182.93
G0 X225.31 Y181.26
G0 X219.49 Y172.92
G0 X221.38 Y162.46
G0 X230.52 Y156.15
G0 X241.90 Y158.26
G0 X248.71 Y168.20
G0 X246.38 Y180.50
G0 X235.64 Y187.80
G0 X222.42 Y185.26
G0 X214.62 Y173.71
G0 X217.38 Y159.57
G0 X229.73 Y151.28
G0 X244.79 Y154.26
G0 X253.58 Y167.41
G0 X250.38 Y183.38
G0 X236.43 Y192.67
G0 X236.00 Y190.00
G0 X250.98 Y201.84
G0 X251.06 Y202.45
G0 X250.22 Y202.80
G0 X249.16 Y202.05
G0 X249.06 Y200.32
G0 X250.63 Y198.79
G0 X253.27 Y198.95
G0 X255.25 Y201.34
G0 X254.83 Y204.88
G0 X251.63 Y207.32
G0 X247.18 Y206.65
G0 X244.28 Y202.62
G0 X245.21 Y197.28
G0 X250.06 Y193.92
G0 X256.31 Y195.10
G0 X260.12 Y200.77
G0 X258.68 Y207.92
G0 X252.20 Y212.20
G0 X244.14 Y210.50
G0 X239.41 Y203.20
G0 X241.36 Y194.23
G0 X249.48 Y189.04
G0 X259.35 Y191.25
G0 X265.00 Y200.20
G0 X262.53 Y210.97
G0 X252.77 Y217.07
G0 X241.10 Y214.35
G0 X234.53 Y203.77
G0 X237.51 Y191.19
G0 X248.91 Y184.17
G0 X262.39 Y187.40
G0 X269.87 Y199.63
G0 X266.39 Y214.01
G0 X253.34 Y221.94
G0 X238.05 Y218.20
G0 X229.66 Y204.34
G0 X233.66 Y188.15
G0 X236.00 Y190.00
G0 X217.32 Y191.36
G0 X216.86 Y190.96
G0 X217.23 Y190.14
G0 X218.52 Y189.97
G0 X219.75 Y191.18
G0 X219.63 Y193.35
G0 X217.59 Y195.01
G0 X214.53 Y194.59
G0 X212.45 Y191.71
G0 X213.16 Y187.77
G0 X216.88 Y185.27
G0 X221.71 Y186.28
G0 X224.62 Y190.83
G0 X223.32 Y196.55
G0 X217.94 Y199.88
G0 X211.34 Y198.29
G0 X207.58 Y192.07
G0 X209.47 Y184.58
G0 X216.52 Y180.40
G0 X224.90 Y182.58
G0 X229.49 Y190.47
G0 X227.02 Y199.74
G0 X218.30 Y204.75
G0 X208.14 Y201.98
G0 X202.71 Y192.43
G0 X205.77 Y181.39
G0 X216.16 Y175.53
G0 X228.09 Y178.89
G0 X234.36 Y190.11
G0 X230.71 Y202.93
G0 X218.65 Y209.62
G0 X204.95 Y205.67
G0 X197.84 Y192.78
G0 X202.08 Y178.19
G0 X215.81 Y170.66
G0 X231.28 Y175.20
G0 X239.23 Y189.76
G0 X236.00 Y190.00
G0 X248.59 Y176.64
G0 X249.20 Y176.63
G0 X249.47 Y177.48
G0 X248.64 Y178.46
G0 X246.92 Y178.41
G0 X245.56 Y176.73
G0 X245.94 Y174.14
G0 X248.47 Y172.40
G0 X251.92 Y173.11
G0 X254.05 Y176.48
G0 X253.01 Y180.81
G0 X248.78 Y183.32
G0 X243.59 Y181.94
G0 X240.70 Y176.87
G0 X242.41 Y170.81
G0 X248.32 Y167.54
G0 X255.26 Y169.58
G0 X258.91 Y176.34
G0 X256.54 Y184.14
G0 X248.93 Y188.17
G0 X240.26 Y185.48
G0 X235.85 Y177.02
G0 X238.87 Y167.48
G0 X248.18 Y162.69
G0 X258.59 Y166.05
G0 X263.76 Y176.20
G0 X260.07 Y187.48
G0 X249.07 Y193.03
G0 X236.92 Y189.01
G0 X230.99 Y177.16
G0 X235.34 Y164.15
G0 X248.04 Y157.83
G0 X261.92 Y162.51
G0 X268.62 Y176.06
G0 X263.60 Y190.81
G0 X249.21 Y197.88
G0 X233.59 Y192.54
G0 X236.00 Y190.00
G0 X235.73 Y207.98
G0 X235.30 Y208.40
G0 X234.52 Y207.97
G0 X234.47 Y206.68
G0 X235.77 Y205.57
G0 X237.90 Y205.88
G0 X239.36 Y208.04
G0 X238.68 Y211.02
G0 X235.66 Y212.81
G0 X231.83 Y211.77
G0 X229.69 Y207.90
G0 X231.10 Y203.22
G0 X235.84 Y200.74
G0 X241.36 Y202.51
G0 X244.19 Y208.11
G0 X242.04 Y214.48
G0 X235.59 Y217.65
G0 X228.37 Y215.14
G0 X224.86 Y207.82
G0 X227.74 Y199.75
G0 X235.91 Y195.91
G0 X244.83 Y199.15
G0 X249.02 Y208.18
G0 X245.41 Y217.95
G0 X235.52 Y222.48
G0 X224.90 Y218.50
G0 X220.03 Y207.75
G0 X224.37 Y196.29
G0 X235.98 Y191.07
G0 X248.30 Y195.78
G0 X253.85 Y208.25
G0 X248.78 Y221.42
G0 X235.45 Y227.31
G0 X221.43 Y221.87
G0 X215.20 Y207.68
G0 X221.00 Y192.82
G0 X236.05 Y186.24
G0 X236.00 Y190.00
G0 X224.27 Y176.82
G0 X224.31 Y176.22
G0 X225.17 Y176.02
G0 X226.07 Y176.92
G0 X225.87 Y178.61
G0 X224.10 Y179.82
G0 X221.58 Y179.21
G0 X220.08 Y176.57
G0 X221.08 Y173.23
G0 X224.59 Y171.42
G0 X228.76 Y172.83
G0 X230.87 Y177.20
G0 X229.07 Y182.21
G0 X223.82 Y184.62
G0 X217.99 Y182.41
G0 X215.28 Y176.29
G0 X217.89 Y169.64
G0 X224.87 Y166.62
G0 X232.36 Y169.63
G0 X235.67 Y177.49
G0 X232.26 Y185.80
G0 X223.54 Y189.41
G0 X214.40 Y185.60
G0 X210.48 Y176.01
G0 X214.69 Y166.05
G0 X225.15 Y161.82
G0 X235.95 Y166.44
G0 X240.47 Y177.77
G0 X235.46 Y189.39
G0 X223.26 Y194.21
G0 X210.81 Y188.80
G0 X205.68 Y175.73
G0 X211.50 Y162.45
G0 X225.43 Y157.03
G0 X239.54 Y163.24
G0 X245.27 Y178.05
G0 X238.65 Y192.98
G0 X236.00 Y190.00
G0 X253.19 Y191.76
G0 X253.57 Y192.22
G0 X253.07 Y192.95
G0 X251.80 Y192.89
G0 X250.81 Y191.51
G0 X251.30 Y189.44
G0 X253.56 Y188.19
G0 X256.43 Y189.12
G0 X257.95 Y192.25
G0 X256.59 Y195.93
G0 X252.58 Y197.70
G0 X248.09 Y195.91
G0 X246.06 Y191.03
G0 X248.29 Y185.73
G0 X254.04 Y183.43
G0 X260.14 Y186.10
G0 X262.70 Y192.73
G0 X259.60 Y199.64
G0 X252.09 Y202.46
G0 X244.38 Y198.93
G0 X241.30 Y190.54
G0 X245.27 Y182.02
G0 X254.53 Y178.68
G0 X263.85 Y183.08
G0 X267.46 Y193.22
G0 X262.62 Y203.35
G0 X251.61 Y207.22
G0 X240.68 Y201.95
G0 X236.54 Y190.05
G0 X242.25 Y178.32
G0 X255.02 Y173.92
G0 X267.56 Y180.06
G0 X272.22 Y193.71
G0 X265.64 Y207.05
G0 X251.12 Y211.97
G0 X236.97 Y204.96
G0 X231.79 Y189.56
G0 X236.00 Y190.00
G0 X222.40 Y200.11
G0 X221.81 Y200.02
G0 X221.69 Y199.15
G0 X222.66 Y198.34
G0 X224.31 Y198.69
G0 X225.34 Y200.54
G0 X224.53 Y202.97
G0 X221.79 Y204.22
G0 X218.58 Y202.94
G0 X217.11 Y199.33
G0 X218.85 Y195.34
G0 X223.35 Y193.64
G0 X228.12 Y195.85
G0 X230.05 Y201.23
G0 X227.37 Y206.78
G0 X221.10 Y208.93
G0 X214.77 Y205.78
G0 X212.40 Y198.64
G0 X216.01 Y191.52
G0 X224.04 Y188.93
G0 X231.94 Y193.01
G0 X234.75 Y201.92
G0 X230.20 Y210.60
G0 X220.41 Y213.63
G0 X210.95 Y208.62
G0 X207.70 Y197.94
G0 X213.18 Y187.70
G0 X224.73 Y184.22
G0 X235.76 Y190.17
G0 X239.46 Y202.61
G0 X233.04 Y214.42
G0 X219.72 Y218.34
G0 X207.13 Y211.46
G0 X202.99 Y197.25
G0 X210.34 Y183.89
G0 X225.43 Y179.52
G0 X239.57 Y187.33
G0 X236.00 Y190.00
G0 X239.13 Y173.69
G0 X239.62 Y173.35
G0 X240.29 Y173.91
G0 X240.12 Y175.15
G0 X238.68 Y176.01
G0 X236.68 Y175.34
G0 X235.64 Y173.02
G0 X236.80 Y170.26
G0 X240.02 Y169.04
G0 X243.53 Y170.70
G0 X244.93 Y174.80
G0 X242.78 Y179.07
G0 X237.79 Y180.65
G0 X232.76 Y178.00
G0 X231.00 Y172.12
G0 X234.15 Y166.34
G0 X240.91 Y164.39
G0 X247.45 Y168.04
G0 X249.58 Y175.69
G0 X245.43 Y182.99
G0 X236.90 Y185.30
G0 X228.85 Y180.65
G0 X226.35 Y171.23
G0 X231.50 Y162.43
G0 X241.80 Y159.75
G0 X251.36 Y165.39
G0 X254.23 Y176.58
G0 X248.09 Y186.90
G0 X236.00 Y189.95
G0 X224.93 Y183.31
G0 X221.70 Y170.34
G0 X228.84 Y158.51
G0 X242.70 Y155.10
G0 X255.28 Y162.74
G0 X258.87 Y177.48
G0 X250.74 Y190.82
G0 X235.11 Y194.59
G0 X236.00 Y190.00
G0 X244.53 Y203.86
G0 X244.39 Y204.43
G0 X243.53 Y204.47
G0 X242.81 Y203.45
G0 X243.30 Y201.85
G0 X245.21 Y201.00
G0 X247.54 Y202.01
G0 X248.54 Y204.81
G0 X247.00 Y207.86
G0 X243.31 Y209.01
G0 X239.52 Y206.94
G0 X238.24 Y202.36
G0 X240.83 Y197.85
G0 X246.30 Y196.42
G0 X251.54 Y199.54
G0 X253.11 Y205.90
G0 X249.46 Y211.87
G0 X242.22 Y213.58
G0 X235.51 Y209.41
G0 X233.66 Y201.27
G0 X238.36 Y193.84
G0 X247.39 Y191.84
G0 X255.55 Y197.07
G0 X257.69 Y206.99
G0 X251.93 Y215.88
G0 X241.13 Y218.16
G0 X231.51 Y211.88
G0 X229.08 Y200.18
G0 X235.89 Y189.83
G0 X248.48 Y187.26
G0 X259.56 Y194.60
G0 X262.27 Y208.08
G0 X254.40 Y219.88
G0 X240.04 Y222.74
G0 X227.50 Y214.34
G0 X224.50 Y199.09
G0 X233.43 Y185.83
G0 X236.00 Y190.00
G0 X220.65 Y185.63
G0 X220.36 Y185.12
G0 X220.97 Y184.50
G0 X222.18 Y184.77
G0 X222.90 Y186.27
G0 X222.07 Y188.18
G0 X219.69 Y189.00
G0 X217.07 Y187.62
G0 X216.15 Y184.35
G0 X218.09 Y181.03
G0 X222.25 Y180.00
G0 X226.27 Y182.50
G0 X227.40 Y187.55
G0 X224.35 Y192.27
G0 X218.41 Y193.51
G0 X212.98 Y189.90
G0 X211.64 Y183.07
G0 X215.81 Y176.94
G0 X223.53 Y175.50
G0 X230.36 Y180.22
G0 X231.90 Y188.83
G0 X226.63 Y196.36
G0 X217.13 Y198.01
G0 X208.89 Y192.17
G0 X207.14 Y181.78
G0 X213.53 Y172.85
G0 X224.81 Y171.00
G0 X234.45 Y177.94
G0 X236.40 Y190.11
G0 X228.90 Y200.45
G0 X215.84 Y202.51
G0 X204.80 Y194.45
G0 X202.64 Y180.50
G0 X211.25 Y168.76
G0 X226.09 Y166.50
G0 X238.54 Y175.66
G0 X240.91 Y191.39
G0 X236.00 Y190.00
G0 X249.98 Y182.99
G0 X250.53 Y183.17
G0 X250.50 Y184.03
G0 X249.43 Y184.65
G0 X247.90 Y184.03
G0 X247.22 Y182.07
G0 X248.42 Y179.87
G0 X251.26 Y179.12
G0 X254.14 Y180.91
G0 X254.95 Y184.64
G0 X252.59 Y188.19
G0 X247.96 Y189.06
G0 X243.74 Y186.12
G0 X242.80 Y180.60
G0 X246.33 Y175.71
G0 X252.73 Y174.71
G0 X258.30 Y178.82
G0 X259.37 Y186.11
G0 X254.67 Y192.35
G0 X246.49 Y193.48
G0 X239.57 Y188.20
G0 X238.38 Y179.13
G0 X244.25 Y171.54
G0 X254.20 Y170.29
G0 X262.47 Y176.74
G0 X263.78 Y187.58
G0 X256.75 Y196.52
G0 X245.02 Y197.90
G0 X235.41 Y190.29
G0 X233.97 Y177.67
G0 X242.16 Y167.38
G0 X255.67 Y165.87
G0 X266.63 Y174.65
G0 X268.20 Y189.05
G0 X258.84 Y200.68
G0 X243.55 Y202.32
G0 X231.25 Y192.37
G0 X236.00 Y190.00
G0 X230.53 Y204.32
G0 X230.00 Y204.55
G0 X229.44 Y203.90
G0 X229.82 Y202.73
G0 X231.35 Y202.15
G0 X233.17 Y203.14
G0 X233.77 Y205.56
G0 X232.18 Y208.01
G0 X228.87 Y208.64
G0 X225.77 Y206.44
G0 X225.12 Y202.25
G0 X227.93 Y198.51
G0 X233.00 Y197.83
G0 X237.39 Y201.24
G0 X238.10 Y207.21
G0 X234.07 Y212.24
G0 X227.22 Y212.97
G0 X221.54 Y208.33
G0 X220.79 Y200.60
G0 X226.04 Y194.28
G0 X234.66 Y193.50
G0 X241.62 Y199.35
G0 X242.42 Y208.86
G0 X235.96 Y216.47
G0 X225.57 Y217.29
G0 X217.32 Y210.22
G0 X216.47 Y198.95
G0 X224.15 Y190.05
G0 X236.31 Y189.18
G0 X245.85 Y197.46
G0 X246.75 Y210.51
G0 X237.85 Y220.69
G0 X223.92 Y221.62
G0 X213.09 Y212.12
G0 X212.14 Y197.30
G0 X222.25 Y185.83
G0 X237.96 Y184.85
G0 X236.00 Y190.00
G0 X230.47 Y176.02
G0 X230.69 Y175.49
G0 X231.54 Y175.60
G0 X232.05 Y176.71
G0 X231.31 Y178.16
G0 X229.32 Y178.66
G0 X227.25 Y177.29
G0 X226.77 Y174.42
G0 X228.77 Y171.74
G0 X232.52 Y171.27
G0 X235.82 Y173.90
G0 X236.28 Y178.54
G0 X233.01 Y182.44
G0 X227.49 Y182.89
G0 X222.97 Y178.99
G0 X222.54 Y172.59
G0 X227.08 Y167.46
G0 X234.35 Y167.04
G0 X240.10 Y172.21
G0 X240.50 Y180.37
G0 X234.70 Y186.73
G0 X225.66 Y187.11
G0 X218.69 Y180.68
G0 X218.32 Y170.76
G0 X225.38 Y163.18
G0 X236.18 Y162.82
G0 X244.38 Y170.52
G0 X244.73 Y182.20
G0 X236.40 Y191.01
G0 X223.83 Y191.34
G0 X214.41 Y182.38
G0 X214.09 Y168.93
G0 X223.69 Y158.90
G0 X238.01 Y158.59
G0 X248.66 Y168.82
G0 X248.95 Y184.03
G0 X238.09 Y195.29
G0 X236.00 Y190.00
G0 X249.24 Y196.43
G0 X249.43 Y196.97
G0 X248.74 Y197.46
G0 X247.62 Y196.99
G0 X247.18 Y195.43
G0 X248.31 Y193.73
G0 X250.74 Y193.34
G0 X253.03 Y195.12
G0 X253.36 Y198.43
G0 X250.93 Y201.30
G0 X246.74 Y201.58
G0 X243.29 Y198.49
G0 X243.06 Y193.43
G0 X246.81 Y189.40
G0 X252.75 Y189.22
G0 X257.36 Y193.63
G0 X257.48 Y200.44
G0 X252.42 Y205.63
G0 X244.74 Y205.70
G0 X238.96 Y199.99
G0 X238.95 Y191.43
G0 X245.31 Y185.07
G0 X254.75 Y185.11
G0 X261.69 Y192.13
G0 X261.60 Y202.44
G0 X253.92 Y209.96
G0 X242.74 Y209.82
G0 X234.64 Y201.49
G0 X234.83 Y189.43
G0 X243.82 Y180.74
G0 X256.75 Y180.99
G0 X266.01 Y190.63
G0 X265.72 Y204.44
G0 X255.42 Y214.28
G0 X240.74 Y213.94
G0 X230.31 Y202.98
G0 X230.71 Y187.43
G0 X236.00 Y190.00
G0 X222.16 Y194.11
G0 X221.66 Y193.84
G0 X221.83 Y193.02
G0 X222.97 Y192.61
G0 X224.34 Y193.46
G0 X224.66 Y195.47
G0 X223.13 Y197.39
G0 X220.26 Y197.62
G0 X217.79 Y195.41
G0 X217.65 Y191.68
G0 X220.53 Y188.66
G0 X225.14 Y188.61
G0 X228.70 Y192.17
G0 X228.67 Y197.64
G0 X224.43 Y201.75
G0 X218.09 Y201.62
G0 X213.43 Y196.71
G0 X213.65 Y189.51
G0 X219.23 Y184.29
G0 X227.31 Y184.60
G0 X233.07 Y190.87
G0 X232.67 Y199.80
G0 X225.73 Y206.12
G0 X215.92 Y205.63
G0 X209.06 Y198.01
G0 X209.64 Y187.34
G0 X217.93 Y179.93
G0 X229.47 Y180.60
G0 X237.43 Y189.57
G0 X236.68 Y201.97
G0 X227.03 Y210.48
G0 X213.76 Y209.63
G0 X204.70 Y199.31
G0 X205.64 Y185.17
G0 X216.64 Y175.56
G0 X231.64 Y176.59
G0 X241.80 Y188.27
G0 X236.00 Y190.00
G0 X243.27 Y177.86
G0 X243.82 Y177.72
G0 X244.24 Y178.44
G0 X243.68 Y179.50
G0 X242.11 Y179.80
G0 X240.52 Y178.54
G0 X240.36 Y176.11
G0 X242.31 Y174.01
G0 X245.60 Y173.97
G0 X248.21 Y176.62
G0 X248.13 Y180.77
G0 X244.78 Y183.90
G0 X239.78 Y183.68
G0 X236.13 Y179.64
G0 X236.47 Y173.78
G0 X241.21 Y169.62
G0 X247.93 Y170.09
G0 X252.60 Y175.52
G0 X252.01 Y183.09
G0 X245.88 Y188.29
G0 X237.45 Y187.57
G0 X231.74 Y180.75
G0 X232.59 Y171.45
G0 X240.10 Y165.23
G0 X250.25 Y166.20
G0 X257.00 Y174.42
G0 X255.90 Y185.42
G0 X246.98 Y192.68
G0 X235.12 Y191.45
G0 X227.34 Y181.85
G0 X228.70 Y169.13
G0 X239.00 Y160.83
G0 X252.58 Y162.32
G0 X261.39 Y173.31
G0 X259.78 Y187.75
G0 X248.09 Y197.08
G0 X232.79 Y195.34
G0 X236.00 Y190.00
G0 X238.77 Y203.59
G0 X238.46 Y204.06
G0 X237.67 Y203.81
G0 X237.37 Y202.65
G0 X238.32 Y201.38
G0 X240.33 Y201.24
G0 X242.08 Y202.91
G0 X242.06 Y205.76
G0 X239.68 Y208.00
G0 X235.98 Y207.81
G0 X233.26 Y204.71
G0 X233.61 Y200.17
G0 X237.42 Y196.97
G0 X242.81 Y197.48
G0 X246.50 Y202.01
G0 X245.82 Y208.24
G0 X240.58 Y212.41
G0 X233.50 Y211.57
G0 X228.85 Y205.62
G0 X229.85 Y197.69
G0 X236.52 Y192.55
G0 X245.29 Y193.72
G0 X250.91 Y201.10
G0 X249.58 Y210.72
G0 X241.48 Y216.82
G0 X231.02 Y215.33
G0 X224.43 Y206.52
G0 X226.09 Y195.21
G0 X235.62 Y188.14
G0 X247.77 Y189.96
G0 X255.32 Y200.20
G0 X253.34 Y213.20
G0 X242.39 Y221.24
G0 X228.54 Y219.09
G0 X220.02 Y207.42
G0 X222.33 Y192.73
G0 X234.71 Y183.73
G0 X236.00 Y190.00
G0 X224.99 Y182.01
G0 X224.90 Y181.46
G0 X225.64 Y181.11
G0 X226.65 Y181.75
G0 X226.80 Y183.33
G0 X225.43 Y184.78
G0 X223.02 Y184.73
G0 X221.12 Y182.63
G0 X221.36 Y179.38
G0 X224.19 Y177.04
G0 X228.27 Y177.48
G0 X231.07 Y181.04
G0 X230.43 Y185.96
G0 X226.13 Y189.20
G0 X220.39 Y188.36
G0 X216.69 Y183.33
G0 X217.74 Y176.75
G0 X223.49 Y172.61
G0 X230.90 Y173.86
G0 X235.49 Y180.34
G0 X234.05 Y188.59
G0 X226.84 Y193.62
G0 X217.76 Y191.98
G0 X212.27 Y184.04
G0 X214.11 Y174.13
G0 X222.79 Y168.19
G0 X233.53 Y170.23
G0 X239.91 Y179.63
G0 X237.68 Y191.21
G0 X227.54 Y198.05
G0 X215.13 Y195.61
G0 X207.85 Y184.74
G0 X210.48 Y171.50
G0 X222.08 Y163.77
G0 X236.16 Y166.60
G0 X244.34 Y178.93
G0 X241.30 Y193.84
G0 X236.00 Y190.00
G0 X249.24 Y188.48
G0 X249.67 Y188.82
G0 X249.36 Y189.58
G0 X248.20 Y189.78
G0 X247.02 Y188.73
G0 X247.06 Y186.74
G0 X248.86 Y185.16
G0 X251.66 Y185.42
G0 X253.66 Y187.97
G0 X253.16 Y191.59
G0 X249.87 Y194.01
G0 X245.43 Y193.27
G0 X242.60 Y189.24
G0 X243.57 Y183.98
G0 X248.35 Y180.73
G0 X254.43 Y181.94
G0 X258.08 Y187.46
G0 X256.65 Y194.36
G0 X250.38 Y198.43
G0 X242.66 Y196.76
G0 X238.18 Y189.74
G0 X240.08 Y181.21
G0 X247.84 Y176.31
G0 X257.20 Y178.45
G0 X262.51 Y186.95
G0 X260.13 Y197.13
G0 X250.89 Y202.85
G0 X239.89 Y200.25
G0 X233.75 Y190.25
G0 X236.59 Y178.44
G0 X247.33 Y171.88
G0 X259.97 Y174.96
G0 X266.93 Y186.45
G0 X263.62 Y199.90
G0 X251.39 Y207.28
G0 X237.12 Y203.73
G0 X229.33 Y190.76
G0 X236.00 Y190.00
G0 X227.43 Y199.86
G0 X226.88 Y199.90
G0 X226.59 Y199.13
G0 X227.31 Y198.20
G0 X228.88 Y198.19
G0 X230.19 Y199.67
G0 X229.94 Y202.04
G0 X227.70 Y203.73
G0 X224.53 Y203.20
G0 X222.46 Y200.21
G0 X223.25 Y196.23
G0 X227.00 Y193.79
G0 X231.79 Y194.84
G0 X234.61 Y199.35
G0 X233.28 Y204.94
G0 X228.02 Y208.14
G0 X221.62 Y206.55
G0 X218.04 Y200.52
G0 X219.91 Y193.33
G0 X226.69 Y189.37
G0 X234.69 Y191.50
G0 X239.03 Y199.04
G0 X236.63 Y207.84
G0 X228.33 Y212.56
G0 X218.72 Y209.89
G0 X213.63 Y200.83
G0 X216.56 Y190.43
G0 X226.38 Y184.95
G0 X237.59 Y188.16
G0 X243.44 Y198.73
G0 X239.97 Y210.75
G0 X228.64 Y216.98
G0 X215.82 Y213.24
G0 X209.21 Y201.15
G0 X213.22 Y187.52
G0 X226.07 Y180.54
G0 X240.49 Y184.81
G0 X236.00 Y190.00
G0 X235.65 Y177.19
G0 X236.03 Y176.79
G0 X236.75 Y177.16
G0 X236.85 Y178.33
G0 X235.71 Y179.39
G0 X233.76 Y179.19
G0 X232.35 Y177.28
G0 X232.86 Y174.54
G0 X235.54 Y172.79
G0 X239.06 Y173.60
G0 X241.15 Y177.05
G0 X240.05 Y181.36
G0 X235.83 Y183.80
G0 X230.73 Y182.39
G0 X227.95 Y177.40
G0 X229.66 Y171.51
G0 X235.42 Y168.39
G0 X242.09 Y170.40
G0 X245.56 Y176.93
G0 X243.24 Y184.39
G0 X235.95 Y188.20
G0 X227.70 Y185.58
G0 X223.55 Y177.52
G0 X226.47 Y168.49
G0 X235.30 Y163.99
G0 X245.12 Y167.21
G0 X249.96 Y176.81
G0 X246.44 Y187.42
G0 X236.06 Y192.60
G0 X224.67 Y188.78
G0 X219.15 Y177.64
G0 X223.27 Y165.46
G0 X235.18 Y159.59
G0 X248.15 Y164.01
G0 X254.36 Y176.69
G0 X249.63 Y190.45
G0 X236.18 Y197.00
G0 X236.00 Y190.00
G0 X244.72 Y199.02
G0 X244.71 Y199.57
G0 X243.93 Y199.78
G0 X243.08 Y198.99
G0 X243.20 Y197.45
G0 X244.76 Y196.28
G0 X247.08 Y196.74
G0 X248.55 Y199.09
G0 X247.76 Y202.17
G0 X244.63 Y203.94
G0 X240.78 Y202.82
G0 X238.70 Y198.92
G0 X240.15 Y194.30
G0 X244.84 Y191.91
G0 X250.23 Y193.70
G0 X252.92 Y199.16
G0 X250.80 Y205.32
G0 X244.56 Y208.32
G0 X237.63 Y205.87
G0 X234.32 Y198.84
G0 X237.11 Y191.15
G0 X244.91 Y187.53
G0 X253.37 Y190.65
G0 X257.30 Y199.24
G0 X253.84 Y208.46
G0 X244.48 Y212.70
G0 X234.49 Y208.91
G0 X229.94 Y198.77
G0 X234.07 Y188.00
G0 X244.99 Y183.15
G0 X256.52 Y187.61
G0 X261.68 Y199.31
G0 X256.89 Y211.61
G0 X244.41 Y217.08
G0 X231.34 Y211.95
G0 X225.57 Y198.69
G0 X231.03 Y184.86
G0 X236.00 Y190.00
G0 X223.71 Y189.25
G0 X223.35 Y188.84
G0 X223.78 Y188.16
G0 X224.94 Y188.17
G0 X225.89 Y189.38
G0 X225.52 Y191.28
G0 X223.52 Y192.51
G0 X220.86 Y191.77
G0 X219.37 Y188.98
G0 X220.47 Y185.58
G0 X224.05 Y183.82
G0 X228.20 Y185.28
G0 X230.23 Y189.64
G0 X228.40 Y194.54
G0 X223.25 Y196.85
G0 X217.60 Y194.66
G0 X215.03 Y188.72
G0 X217.58 Y182.32
G0 X224.31 Y179.47
G0 X231.45 Y182.40
G0 X234.58 Y189.91
G0 X231.29 Y197.80
G0 X222.99 Y201.19
G0 X214.34 Y197.54
G0 X210.68 Y188.45
G0 X214.70 Y179.06
G0 X224.57 Y175.13
G0 X234.71 Y179.51
G0 X238.92 Y190.17
G0 X234.17 Y201.06
G0 X222.72 Y205.54
G0 X211.09 Y200.43
G0 X206.34 Y188.19
G0 X211.81 Y175.80
G0 X224.84 Y170.78
G0 X237.97 Y176.63
G0 X243.26 Y190.44
G0 X236.00 Y190.00
G0 X245.37 Y182.40
G0 X245.90 Y182.46
G0 X246.05 Y183.25
G0 X245.20 Y184.02
G0 X243.68 Y183.77
G0 X242.68 Y182.12
G0 X243.32 Y179.88
G0 X245.76 Y178.64
G0 X248.73 Y179.68
G0 X250.21 Y182.91
G0 X248.77 Y186.61
G0 X244.74 Y188.32
G0 X240.32 Y186.49
G0 X238.37 Y181.67
G0 X240.60 Y176.52
G0 X246.21 Y174.34
G0 X252.09 Y176.96
G0 X254.51 Y183.36
G0 X251.49 Y189.97
G0 X244.29 Y192.63
G0 X236.96 Y189.21
G0 X234.07 Y181.22
G0 X237.88 Y173.16
G0 X246.67 Y170.03
G0 X255.45 Y174.23
G0 X258.81 Y183.82
G0 X254.22 Y193.33
G0 X243.84 Y196.93
G0 X233.60 Y191.94
G0 X229.77 Y180.77
G0 X235.15 Y169.79
G0 X247.12 Y165.73
G0 X258.82 Y171.51
G0 X263.12 Y184.27
G0 X256.94 Y196.70
G0 X243.39 Y201.23
G0 X230.23 Y194.66
G0 X236.00 Y190.00
G0 X234.25 Y201.69
G0 X233.82 Y202.01
G0 X233.18 Y201.53
G0 X233.29 Y200.39
G0 X234.57 Y199.56
G0 X236.41 Y200.09
G0 X237.44 Y202.16
G0 X236.49 Y204.71
G0 X233.61 Y205.94
G0 X230.36 Y204.56
G0 X228.93 Y200.89
G0 X230.73 Y196.93
G0 X235.20 Y195.30
G0 X239.87 Y197.53
G0 X241.69 Y202.80
G0 X239.05 Y208.17
G0 X232.98 Y210.20
G0 X226.90 Y207.12
G0 X224.67 Y200.25
G0 X228.17 Y193.47
G0 X235.84 Y191.05
G0 X243.33 Y194.97
G0 X245.95 Y203.43
G0 X241.60 Y211.63
G0 X232.34 Y214.45
G0 X223.44 Y209.68
G0 X220.42 Y199.62
G0 X225.61 Y190.01
G0 X236.47 Y186.79
G0 X246.78 Y192.41
G0 X250.20 Y204.07
G0 X244.16 Y215.09
G0 X231.70 Y218.70
G0 X219.98 Y212.24
G0 X216.16 Y198.98
G0 X223.05 Y186.56
G0 X237.11 Y182.54
G0 X236.00 Y190.00
G0 X229.52 Y180.39
G0 X229.62 Y179.86
G0 X230.40 Y179.79
G0 X231.09 Y180.69
G0 X230.71 Y182.16
G0 X229.01 Y183.01
G0 X226.86 Y182.18
G0 X225.84 Y179.67
G0 X227.13 Y176.84
G0 X230.44 Y175.67
G0 X233.95 Y177.40
G0 X235.29 Y181.51
G0 X233.10 Y185.71
G0 X228.19 Y187.21
G0 X223.31 Y184.57
G0 X221.65 Y178.86
G0 X224.74 Y173.30
G0 X231.25 Y171.47
G0 X237.50 Y175.01
G0 X239.49 Y182.33
G0 X235.49 Y189.25
G0 X227.37 Y191.41
G0 X219.77 Y186.96
G0 X217.45 Y178.04
G0 X222.34 Y169.75
G0 X232.07 Y167.27
G0 X241.04 Y172.62
G0 X243.69 Y183.14
G0 X237.89 Y192.80
G0 X226.56 Y195.61
G0 X216.22 Y189.35
G0 X213.25 Y177.22
G0 X219.95 Y166.20
G0 X232.89 Y163.07
G0 X244.59 Y170.23
G0 X247.88 Y183.96
G0 X240.28 Y196.35
G0 X236.00 Y190.00
G0 X247.04 Y192.65
G0 X247.32 Y193.10
G0 X246.79 Y193.68
G0 X245.68 Y193.48
G0 X244.97 Y192.15
G0 X245.65 Y190.38
G0 X247.78 Y189.55
G0 X250.21 Y190.71
G0 X251.17 Y193.64
G0 X249.54 Y196.73
G0 X245.80 Y197.82
G0 X242.05 Y195.70
G0 X240.84 Y191.16
G0 X243.43 Y186.76
G0 X248.78 Y185.42
G0 X253.84 Y188.49
G0 X255.31 Y194.64
G0 X251.76 Y200.35
G0 X244.80 Y201.95
G0 X238.43 Y197.92
G0 X236.70 Y190.17
G0 X241.21 Y183.13
G0 X249.77 Y181.28
G0 X257.46 Y186.27
G0 X259.44 Y195.63
G0 X253.98 Y203.98
G0 X243.81 Y206.08
G0 X234.80 Y200.14
G0 X232.57 Y189.17
G0 X238.99 Y179.51
G0 X250.76 Y177.15
G0 X261.09 Y184.05
G0 X263.57 Y196.62
G0 X256.20 Y207.61
G0 X242.81 Y210.22
G0 X231.18 Y202.36
G0 X228.44 Y188.18
G0 X236.00 Y190.00
G0 X226.26 Y195.39
G0 X225.75 Y195.24
G0 X225.74 Y194.46
G0 X226.69 Y193.86
G0 X228.10 Y194.36
G0 X228.79 Y196.12
G0 X227.79 Y198.16
G0 X225.24 Y198.94
G0 X222.56 Y197.44
G0 X221.69 Y194.08
G0 X223.70 Y190.77
G0 X227.86 Y189.80
G0 X231.80 Y192.32
G0 X232.86 Y197.28
G0 X229.84 Y201.86
G0 X224.07 Y203.00
G0 X218.86 Y199.48
G0 X217.62 Y192.91
G0 X221.65 Y187.07
G0 X229.03 Y185.74
G0 X235.50 Y190.27
G0 X236.92 Y198.45
G0 X231.89 Y205.56
G0 X222.90 Y207.07
G0 X215.16 Y201.53
G0 X213.56 Y191.74
G0 X219.60 Y183.37
G0 X230.19 Y181.68
G0 X239.20 Y188.22
G0 X240.98 Y199.62
G0 X233.93 Y209.25
G0 X221.74 Y211.13
G0 X211.47 Y203.58
G0 X209.50 Y190.58
G0 X217.55 Y179.67
G0 X231.36 Y177.62
G0 X242.89 Y186.17
G0 X236.00 Y190.00
G0 X239.46 Y179.65
G0 X239.93 Y179.41
G0 X240.46 Y179.98
G0 X240.17 Y181.06
G0 X238.80 Y181.64
G0 X237.11 Y180.82
G0 X236.48 Y178.65
G0 X237.82 Y176.36
G0 X240.80 Y175.67
G0 X243.69 Y177.54
G0 X244.44 Y181.32
G0 X242.04 Y184.82
G0 X237.46 Y185.62
G0 X233.35 Y182.69
G0 X232.49 Y177.31
G0 X235.95 Y172.60
G0 X242.13 Y171.68
G0 X247.46 Y175.67
G0 X248.43 Y182.65
G0 X243.91 Y188.58
G0 X236.13 Y189.61
G0 X229.59 Y184.56
G0 X228.51 Y175.98
G0 X234.08 Y168.84
G0 X243.47 Y167.70
G0 X251.22 Y173.80
G0 X252.41 Y183.99
G0 X245.78 Y192.34
G0 X234.79 Y193.59
G0 X225.83 Y186.44
G0 X224.53 Y174.64
G0 X232.21 Y165.08
G0 X244.80 Y163.72
G0 X254.98 Y171.93
G0 X256.39 Y185.32
G0 X247.66 Y196.10
G0 X233.45 Y197.57
G0 X236.00 Y190.00
G0 X240.34 Y199.77
G0 X240.15 Y200.26
G0 X239.38 Y200.19
G0 X238.88 Y199.21
G0 X239.49 Y197.86
G0 X241.28 Y197.33
G0 X243.20 Y198.50
G0 X243.75 Y201.08
G0 X242.03 Y203.59
G0 X238.65 Y204.15
G0 X235.57 Y201.89
G0 X234.98 Y197.71
G0 X237.79 Y194.05
G0 X242.77 Y193.44
G0 X247.02 Y196.80
G0 X247.65 Y202.58
G0 X243.73 Y207.40
G0 X237.15 Y208.05
G0 X231.75 Y203.58
G0 X231.08 Y196.21
G0 X236.10 Y190.23
G0 X244.27 Y189.54
G0 X250.83 Y195.11
G0 X251.54 Y204.08
G0 X245.43 Y211.22
G0 X235.65 Y211.95
G0 X227.94 Y205.28
G0 X227.18 Y194.71
G0 X234.40 Y186.41
G0 X245.77 Y185.64
G0 X254.65 Y193.41
G0 X255.44 Y205.58
G0 X247.12 Y215.03
G0 X234.15 Y215.85
G0 X224.12 Y206.98
G0 X223.29 Y193.21
G0 X232.71 Y182.60
G0 X236.00 Y190.00
G0 X226.38 Y185.81
G0 X226.19 Y185.32
G0 X226.80 Y184.86
G0 X227.83 Y185.24
G0 X228.29 Y186.64
G0 X227.33 Y188.22
G0 X225.14 Y188.66
G0 X223.00 Y187.13
G0 X222.58 Y184.15
G0 X224.68 Y181.46
G0 X228.46 Y181.05
G0 X231.70 Y183.72
G0 X232.09 Y188.29
G0 X228.85 Y192.08
G0 X223.48 Y192.47
G0 X219.14 Y188.65
G0 X218.77 Y182.49
G0 X223.16 Y177.60
G0 X230.12 Y177.25
G0 X235.56 Y182.20
G0 X235.90 Y189.95
G0 X230.37 Y195.95
G0 X221.82 Y196.27
G0 X215.28 Y190.17
G0 X214.97 Y180.83
G0 X221.64 Y173.73
G0 X231.77 Y173.44
G0 X239.42 Y180.68
G0 X239.70 Y191.61
G0 X231.89 Y199.81
G0 X220.17 Y200.08
G0 X211.41 Y191.69
G0 X211.16 Y179.17
G0 X220.12 Y169.87
G0 X233.43 Y169.63
G0 X243.29 Y179.17
G0 X243.51 Y193.27
G0 X236.00 Y190.00
G0 X245.71 Y186.66
G0 X246.18 Y186.89
G0 X246.05 Y187.63
G0 X245.04 Y188.05
G0 X243.76 Y187.33
G0 X243.40 Y185.53
G0 X244.71 Y183.73
G0 X247.30 Y183.42
G0 X249.62 Y185.32
G0 X249.88 Y188.70
G0 X247.39 Y191.54
G0 X243.22 Y191.75
G0 X239.86 Y188.67
G0 X239.69 Y183.71
G0 X243.37 Y179.83
G0 X249.11 Y179.71
G0 X253.52 Y183.98
G0 X253.59 Y190.51
G0 X248.73 Y195.44
G0 X241.41 Y195.46
G0 X235.96 Y190.01
G0 X235.99 Y181.90
G0 X242.03 Y175.93
G0 X250.92 Y176.00
G0 X257.42 Y182.64
G0 X257.30 Y192.32
G0 X250.07 Y199.34
G0 X239.60 Y199.17
G0 X232.06 Y191.35
G0 X232.28 Y180.09
G0 X240.69 Y172.03
G0 X252.74 Y172.30
G0 X261.32 Y181.30
G0 X261.00 Y194.13
G0 X251.41 Y203.24
G0 X237.79 Y202.87
G0 X228.16 Y192.69
G0 X236.00 Y190.00
G0 X231.18 Y198.84
G0 X230.69 Y198.99
G0 X230.28 Y198.35
G0 X230.74 Y197.37
G0 X232.16 Y197.04
G0 X233.64 Y198.12
G0 X233.88 Y200.31
G0 X232.19 Y202.28
G0 X229.22 Y202.44
G0 X226.75 Y200.15
G0 X226.68 Y196.39
G0 X229.58 Y193.43
G0 X234.12 Y193.44
G0 X237.57 Y196.96
G0 X237.48 Y202.27
G0 X233.35 Y206.22
G0 X227.26 Y206.04
G0 X222.82 Y201.31
G0 X223.08 Y194.43
G0 X228.42 Y189.50
G0 X236.08 Y189.84
G0 X241.50 Y195.80
G0 X241.08 Y204.23
G0 X234.51 Y210.15
G0 X225.30 Y209.65
G0 X218.89 Y202.47
G0 X219.47 Y192.47
G0 X227.26 Y185.57
G0 X238.04 Y186.24
G0 X245.43 Y194.64
G0 X244.68 Y206.19
G0 X235.67 Y214.08
G0 X223.34 Y213.25
G0 X214.96 Y203.63
G0 X215.87 Y190.51
G0 X226.10 Y181.64
G0 X240.00 Y182.64
G0 X236.00 Y190.00
G0 X233.62 Y180.41
