; Created using https://markroland.github.io/sand-table-pattern-maker/
;
; 5/22/2023 19:10:57
;
; Machine Specifications:
;
; Units: mm
;
; Min X: 0
; Max X: 472
; Min Y: 0
; Max Y: 380
; Motor Speed (mm/min): 4000
;
; Pattern Specifications:
;
; Name: Circle
;
; Parameters:
; - radius: [object Object]
; - angle: [object Object]
; - reverse: [object Object]
;
; URL: https://markroland.github.io/sand-table-pattern-maker/?pattern=lindenmayer
;
; Pattern Distance (mm): 47,507.8
; Pattern Draw Time (minutes): 11.8


; Custom G-code to execute before the start of the sketch

G0 X51.85 Y371.24
G0 X54.75 Y371.24
G0 X54.75 Y374.14
G0 X57.65 Y374.14
G0 X60.55 Y374.14
G0 X60.55 Y371.24
G0 X57.65 Y371.24
G0 X57.65 Y368.34
G0 X60.55 Y368.34
G0 X60.55 Y365.44
G0 X57.65 Y365.44
G0 X54.75 Y365.44
G0 X54.75 Y368.34
G0 X51.85 Y368.34
G0 X51.85 Y365.44
G0 X51.85 Y362.54
G0 X54.75 Y362.54
G0 X54.75 Y359.64
G0 X51.85 Y359.64
G0 X51.85 Y356.74
G0 X51.85 Y353.84
G0 X54.75 Y353.84
G0 X54.75 Y356.74
G0 X57.65 Y356.74
G0 X57.65 Y353.84
G0 X60.55 Y353.84
G0 X60.55 Y356.74
G0 X60.55 Y359.64
G0 X57.65 Y359.64
G0 X57.65 Y362.54
G0 X60.55 Y362.54
G0 X63.45 Y362.54
G0 X66.35 Y362.54
G0 X66.35 Y359.64
G0 X63.45 Y359.64
G0 X63.45 Y356.74
G0 X63.45 Y353.84
G0 X66.35 Y353.84
G0 X66.35 Y356.74
G0 X69.25 Y356.74
G0 X69.25 Y353.84
G0 X72.15 Y353.84
G0 X72.15 Y356.74
G0 X72.15 Y359.64
G0 X69.25 Y359.64
G0 X69.25 Y362.54
G0 X72.15 Y362.54
G0 X72.15 Y365.44
G0 X72.15 Y368.34
G0 X69.25 Y368.34
G0 X69.25 Y365.44
G0 X66.35 Y365.44
G0 X63.45 Y365.44
G0 X63.45 Y368.34
G0 X66.35 Y368.34
G0 X66.35 Y371.24
G0 X63.45 Y371.24
G0 X63.45 Y374.14
G0 X66.35 Y374.14
G0 X69.25 Y374.14
G0 X69.25 Y371.24
G0 X72.15 Y371.24
G0 X72.15 Y374.14
G0 X75.05 Y374.14
G0 X77.95 Y374.14
G0 X77.95 Y371.24
G0 X75.05 Y371.24
G0 X75.05 Y368.34
G0 X75.05 Y365.44
G0 X77.95 Y365.44
G0 X77.95 Y368.34
G0 X80.85 Y368.34
G0 X80.85 Y365.44
G0 X83.75 Y365.44
G0 X83.75 Y368.34
G0 X83.75 Y371.24
G0 X80.85 Y371.24
G0 X80.85 Y374.14
G0 X83.75 Y374.14
G0 X86.65 Y374.14
G0 X86.65 Y371.24
G0 X89.55 Y371.24
G0 X89.55 Y374.14
G0 X92.45 Y374.14
G0 X95.35 Y374.14
G0 X95.35 Y371.24
G0 X92.45 Y371.24
G0 X92.45 Y368.34
G0 X95.35 Y368.34
G0 X95.35 Y365.44
G0 X92.45 Y365.44
G0 X89.55 Y365.44
G0 X89.55 Y368.34
G0 X86.65 Y368.34
G0 X86.65 Y365.44
G0 X86.65 Y362.54
G0 X86.65 Y359.64
G0 X89.55 Y359.64
G0 X89.55 Y362.54
G0 X92.45 Y362.54
G0 X95.35 Y362.54
G0 X95.35 Y359.64
G0 X92.45 Y359.64
G0 X92.45 Y356.74
G0 X95.35 Y356.74
G0 X95.35 Y353.84
G0 X92.45 Y353.84
G0 X89.55 Y353.84
G0 X89.55 Y356.74
G0 X86.65 Y356.74
G0 X86.65 Y353.84
G0 X83.75 Y353.84
G0 X80.85 Y353.84
G0 X80.85 Y356.74
G0 X83.75 Y356.74
G0 X83.75 Y359.64
G0 X83.75 Y362.54
G0 X80.85 Y362.54
G0 X80.85 Y359.64
G0 X77.95 Y359.64
G0 X77.95 Y362.54
G0 X75.05 Y362.54
G0 X75.05 Y359.64
G0 X75.05 Y356.74
G0 X77.95 Y356.74
G0 X77.95 Y353.84
G0 X75.05 Y353.84
G0 X75.05 Y350.94
G0 X77.95 Y350.94
G0 X77.95 Y348.04
G0 X75.05 Y348.04
G0 X75.05 Y345.14
G0 X75.05 Y342.24
G0 X77.95 Y342.24
G0 X77.95 Y345.14
G0 X80.85 Y345.14
G0 X80.85 Y342.24
G0 X83.75 Y342.24
G0 X83.75 Y345.14
G0 X83.75 Y348.04
G0 X80.85 Y348.04
G0 X80.85 Y350.94
G0 X83.75 Y350.94
G0 X86.65 Y350.94
G0 X86.65 Y348.04
G0 X89.55 Y348.04
G0 X89.55 Y350.94
G0 X92.45 Y350.94
G0 X95.35 Y350.94
G0 X95.35 Y348.04
G0 X92.45 Y348.04
G0 X92.45 Y345.14
G0 X95.35 Y345.14
G0 X95.35 Y342.24
G0 X92.45 Y342.24
G0 X89.55 Y342.24
G0 X89.55 Y345.14
G0 X86.65 Y345.14
G0 X86.65 Y342.24
G0 X86.65 Y339.34
G0 X86.65 Y336.44
G0 X89.55 Y336.44
G0 X89.55 Y339.34
G0 X92.45 Y339.34
G0 X95.35 Y339.34
G0 X95.35 Y336.44
G0 X92.45 Y336.44
G0 X92.45 Y333.54
G0 X95.35 Y333.54
G0 X95.35 Y330.64
G0 X92.45 Y330.64
G0 X89.55 Y330.64
G0 X89.55 Y333.54
G0 X86.65 Y333.54
G0 X86.65 Y330.64
G0 X83.75 Y330.64
G0 X80.85 Y330.64
G0 X80.85 Y333.54
G0 X83.75 Y333.54
G0 X83.75 Y336.44
G0 X83.75 Y339.34
G0 X80.85 Y339.34
G0 X80.85 Y336.44
G0 X77.95 Y336.44
G0 X77.95 Y339.34
G0 X75.05 Y339.34
G0 X75.05 Y336.44
G0 X75.05 Y333.54
G0 X77.95 Y333.54
G0 X77.95 Y330.64
G0 X75.05 Y330.64
G0 X72.15 Y330.64
G0 X72.15 Y333.54
G0 X69.25 Y333.54
G0 X69.25 Y330.64
G0 X66.35 Y330.64
G0 X63.45 Y330.64
G0 X63.45 Y333.54
G0 X66.35 Y333.54
G0 X66.35 Y336.44
G0 X63.45 Y336.44
G0 X63.45 Y339.34
G0 X66.35 Y339.34
G0 X69.25 Y339.34
G0 X69.25 Y336.44
G0 X72.15 Y336.44
G0 X72.15 Y339.34
G0 X72.15 Y342.24
G0 X69.25 Y342.24
G0 X69.25 Y345.14
G0 X72.15 Y345.14
G0 X72.15 Y348.04
G0 X72.15 Y350.94
G0 X69.25 Y350.94
G0 X69.25 Y348.04
G0 X66.35 Y348.04
G0 X66.35 Y350.94
G0 X63.45 Y350.94
G0 X63.45 Y348.04
G0 X63.45 Y345.14
G0 X66.35 Y345.14
G0 X66.35 Y342.24
G0 X63.45 Y342.24
G0 X60.55 Y342.24
G0 X57.65 Y342.24
G0 X57.65 Y345.14
G0 X60.55 Y345.14
G0 X60.55 Y348.04
G0 X60.55 Y350.94
G0 X57.65 Y350.94
G0 X57.65 Y348.04
G0 X54.75 Y348.04
G0 X54.75 Y350.94
G0 X51.85 Y350.94
G0 X51.85 Y348.04
G0 X51.85 Y345.14
G0 X54.75 Y345.14
G0 X54.75 Y342.24
G0 X51.85 Y342.24
G0 X51.85 Y339.34
G0 X51.85 Y336.44
G0 X54.75 Y336.44
G0 X54.75 Y339.34
G0 X57.65 Y339.34
G0 X60.55 Y339.34
G0 X60.55 Y336.44
G0 X57.65 Y336.44
G0 X57.65 Y333.54
G0 X60.55 Y333.54
G0 X60.55 Y330.64
G0 X57.65 Y330.64
G0 X54.75 Y330.64
G0 X54.75 Y333.54
G0 X51.85 Y333.54
G0 X51.85 Y330.64
G0 X51.85 Y327.74
G0 X54.75 Y327.74
G0 X54.75 Y324.84
G0 X51.85 Y324.84
G0 X51.85 Y321.94
G0 X51.85 Y319.04
G0 X54.75 Y319.04
G0 X54.75 Y321.94
G0 X57.65 Y321.94
G0 X57.65 Y319.04
G0 X60.55 Y319.04
G0 X60.55 Y321.94
G0 X60.55 Y324.84
G0 X57.65 Y324.84
G0 X57.65 Y327.74
G0 X60.55 Y327.74
G0 X63.45 Y327.74
G0 X63.45 Y324.84
G0 X66.35 Y324.84
G0 X66.35 Y327.74
G0 X69.25 Y327.74
G0 X72.15 Y327.74
G0 X72.15 Y324.84
G0 X69.25 Y324.84
G0 X69.25 Y321.94
G0 X72.15 Y321.94
G0 X72.15 Y319.04
G0 X69.25 Y319.04
G0 X66.35 Y319.04
G0 X66.35 Y321.94
G0 X63.45 Y321.94
G0 X63.45 Y319.04
G0 X63.45 Y316.14
G0 X63.45 Y313.24
G0 X66.35 Y313.24
G0 X66.35 Y316.14
G0 X69.25 Y316.14
G0 X72.15 Y316.14
G0 X72.15 Y313.24
G0 X69.25 Y313.24
G0 X69.25 Y310.34
G0 X72.15 Y310.34
G0 X72.15 Y307.44
G0 X69.25 Y307.44
G0 X66.35 Y307.44
G0 X66.35 Y310.34
G0 X63.45 Y310.34
G0 X63.45 Y307.44
G0 X60.55 Y307.44
G0 X57.65 Y307.44
G0 X57.65 Y310.34
G0 X60.55 Y310.34
G0 X60.55 Y313.24
G0 X60.55 Y316.14
G0 X57.65 Y316.14
G0 X57.65 Y313.24
G0 X54.75 Y313.24
G0 X54.75 Y316.14
G0 X51.85 Y316.14
G0 X51.85 Y313.24
G0 X51.85 Y310.34
G0 X54.75 Y310.34
G0 X54.75 Y307.44
G0 X51.85 Y307.44
G0 X51.85 Y304.54
G0 X51.85 Y301.64
G0 X54.75 Y301.64
G0 X54.75 Y304.54
G0 X57.65 Y304.54
G0 X60.55 Y304.54
G0 X60.55 Y301.64
G0 X57.65 Y301.64
G0 X57.65 Y298.74
G0 X60.55 Y298.74
G0 X60.55 Y295.84
G0 X57.65 Y295.84
G0 X54.75 Y295.84
G0 X54.75 Y298.74
G0 X51.85 Y298.74
G0 X51.85 Y295.84
G0 X51.85 Y292.94
G0 X54.75 Y292.94
G0 X54.75 Y290.04
G0 X51.85 Y290.04
G0 X51.85 Y287.14
G0 X51.85 Y284.24
G0 X54.75 Y284.24
G0 X54.75 Y287.14
G0 X57.65 Y287.14
G0 X57.65 Y284.24
G0 X60.55 Y284.24
G0 X60.55 Y287.14
G0 X60.55 Y290.04
G0 X57.65 Y290.04
G0 X57.65 Y292.94
G0 X60.55 Y292.94
G0 X63.45 Y292.94
G0 X66.35 Y292.94
G0 X66.35 Y290.04
G0 X63.45 Y290.04
G0 X63.45 Y287.14
G0 X63.45 Y284.24
G0 X66.35 Y284.24
G0 X66.35 Y287.14
G0 X69.25 Y287.14
G0 X69.25 Y284.24
G0 X72.15 Y284.24
G0 X72.15 Y287.14
G0 X72.15 Y290.04
G0 X69.25 Y290.04
G0 X69.25 Y292.94
G0 X72.15 Y292.94
G0 X72.15 Y295.84
G0 X72.15 Y298.74
G0 X69.25 Y298.74
G0 X69.25 Y295.84
G0 X66.35 Y295.84
G0 X63.45 Y295.84
G0 X63.45 Y298.74
G0 X66.35 Y298.74
G0 X66.35 Y301.64
G0 X63.45 Y301.64
G0 X63.45 Y304.54
G0 X66.35 Y304.54
G0 X69.25 Y304.54
G0 X69.25 Y301.64
G0 X72.15 Y301.64
G0 X72.15 Y304.54
G0 X75.05 Y304.54
G0 X75.05 Y301.64
G0 X77.95 Y301.64
G0 X77.95 Y304.54
G0 X80.85 Y304.54
G0 X83.75 Y304.54
G0 X83.75 Y301.64
G0 X80.85 Y301.64
G0 X80.85 Y298.74
G0 X83.75 Y298.74
G0 X83.75 Y295.84
G0 X80.85 Y295.84
G0 X77.95 Y295.84
G0 X77.95 Y298.74
G0 X75.05 Y298.74
G0 X75.05 Y295.84
G0 X75.05 Y292.94
G0 X77.95 Y292.94
G0 X77.95 Y290.04
G0 X75.05 Y290.04
G0 X75.05 Y287.14
G0 X75.05 Y284.24
G0 X77.95 Y284.24
G0 X77.95 Y287.14
G0 X80.85 Y287.14
G0 X80.85 Y284.24
G0 X83.75 Y284.24
G0 X83.75 Y287.14
G0 X83.75 Y290.04
G0 X80.85 Y290.04
G0 X80.85 Y292.94
G0 X83.75 Y292.94
G0 X86.65 Y292.94
G0 X89.55 Y292.94
G0 X89.55 Y290.04
G0 X86.65 Y290.04
G0 X86.65 Y287.14
G0 X86.65 Y284.24
G0 X89.55 Y284.24
G0 X89.55 Y287.14
G0 X92.45 Y287.14
G0 X92.45 Y284.24
G0 X95.35 Y284.24
G0 X95.35 Y287.14
G0 X95.35 Y290.04
G0 X92.45 Y290.04
G0 X92.45 Y292.94
G0 X95.35 Y292.94
G0 X95.35 Y295.84
G0 X95.35 Y298.74
G0 X92.45 Y298.74
G0 X92.45 Y295.84
G0 X89.55 Y295.84
G0 X86.65 Y295.84
G0 X86.65 Y298.74
G0 X89.55 Y298.74
G0 X89.55 Y301.64
G0 X86.65 Y301.64
G0 X86.65 Y304.54
G0 X89.55 Y304.54
G0 X92.45 Y304.54
G0 X92.45 Y301.64
G0 X95.35 Y301.64
G0 X95.35 Y304.54
G0 X95.35 Y307.44
G0 X92.45 Y307.44
G0 X92.45 Y310.34
G0 X95.35 Y310.34
G0 X95.35 Y313.24
G0 X95.35 Y316.14
G0 X92.45 Y316.14
G0 X92.45 Y313.24
G0 X89.55 Y313.24
G0 X89.55 Y316.14
G0 X86.65 Y316.14
G0 X86.65 Y313.24
G0 X86.65 Y310.34
G0 X89.55 Y310.34
G0 X89.55 Y307.44
G0 X86.65 Y307.44
G0 X83.75 Y307.44
G0 X83.75 Y310.34
G0 X80.85 Y310.34
G0 X80.85 Y307.44
G0 X77.95 Y307.44
G0 X75.05 Y307.44
G0 X75.05 Y310.34
G0 X77.95 Y310.34
G0 X77.95 Y313.24
G0 X75.05 Y313.24
G0 X75.05 Y316.14
G0 X77.95 Y316.14
G0 X80.85 Y316.14
G0 X80.85 Y313.24
G0 X83.75 Y313.24
G0 X83.75 Y316.14
G0 X83.75 Y319.04
G0 X83.75 Y321.94
G0 X80.85 Y321.94
G0 X80.85 Y319.04
G0 X77.95 Y319.04
G0 X75.05 Y319.04
G0 X75.05 Y321.94
G0 X77.95 Y321.94
G0 X77.95 Y324.84
G0 X75.05 Y324.84
G0 X75.05 Y327.74
G0 X77.95 Y327.74
G0 X80.85 Y327.74
G0 X80.85 Y324.84
G0 X83.75 Y324.84
G0 X83.75 Y327.74
G0 X86.65 Y327.74
G0 X89.55 Y327.74
G0 X89.55 Y324.84
G0 X86.65 Y324.84
G0 X86.65 Y321.94
G0 X86.65 Y319.04
G0 X89.55 Y319.04
G0 X89.55 Y321.94
G0 X92.45 Y321.94
G0 X92.45 Y319.04
G0 X95.35 Y319.04
G0 X95.35 Y321.94
G0 X95.35 Y324.84
G0 X92.45 Y324.84
G0 X92.45 Y327.74
G0 X95.35 Y327.74
G0 X98.25 Y327.74
G0 X101.15 Y327.74
G0 X101.15 Y324.84
G0 X98.25 Y324.84
G0 X98.25 Y321.94
G0 X98.25 Y319.04
G0 X101.15 Y319.04
G0 X101.15 Y321.94
G0 X104.05 Y321.94
G0 X104.05 Y319.04
G0 X106.95 Y319.04
G0 X106.95 Y321.94
G0 X106.95 Y324.84
G0 X104.05 Y324.84
G0 X104.05 Y327.74
G0 X106.95 Y327.74
G0 X109.85 Y327.74
G0 X109.85 Y324.84
G0 X112.75 Y324.84
G0 X112.75 Y327.74
G0 X115.65 Y327.74
G0 X118.55 Y327.74
G0 X118.55 Y324.84
G0 X115.65 Y324.84
G0 X115.65 Y321.94
G0 X118.55 Y321.94
G0 X118.55 Y319.04
G0 X115.65 Y319.04
G0 X112.75 Y319.04
G0 X112.75 Y321.94
G0 X109.85 Y321.94
G0 X109.85 Y319.04
G0 X109.85 Y316.14
G0 X109.85 Y313.24
G0 X112.75 Y313.24
G0 X112.75 Y316.14
G0 X115.65 Y316.14
G0 X118.55 Y316.14
G0 X118.55 Y313.24
G0 X115.65 Y313.24
G0 X115.65 Y310.34
G0 X118.55 Y310.34
G0 X118.55 Y307.44
G0 X115.65 Y307.44
G0 X112.75 Y307.44
G0 X112.75 Y310.34
G0 X109.85 Y310.34
G0 X109.85 Y307.44
G0 X106.95 Y307.44
G0 X104.05 Y307.44
G0 X104.05 Y310.34
G0 X106.95 Y310.34
G0 X106.95 Y313.24
G0 X106.95 Y316.14
G0 X104.05 Y316.14
G0 X104.05 Y313.24
G0 X101.15 Y313.24
G0 X101.15 Y316.14
G0 X98.25 Y316.14
G0 X98.25 Y313.24
G0 X98.25 Y310.34
G0 X101.15 Y310.34
G0 X101.15 Y307.44
G0 X98.25 Y307.44
G0 X98.25 Y304.54
G0 X98.25 Y301.64
G0 X101.15 Y301.64
G0 X101.15 Y304.54
G0 X104.05 Y304.54
G0 X106.95 Y304.54
G0 X106.95 Y301.64
G0 X104.05 Y301.64
G0 X104.05 Y298.74
G0 X106.95 Y298.74
G0 X106.95 Y295.84
G0 X104.05 Y295.84
G0 X101.15 Y295.84
G0 X101.15 Y298.74
G0 X98.25 Y298.74
G0 X98.25 Y295.84
G0 X98.25 Y292.94
G0 X101.15 Y292.94
G0 X101.15 Y290.04
G0 X98.25 Y290.04
G0 X98.25 Y287.14
G0 X98.25 Y284.24
G0 X101.15 Y284.24
G0 X101.15 Y287.14
G0 X104.05 Y287.14
G0 X104.05 Y284.24
G0 X106.95 Y284.24
G0 X106.95 Y287.14
G0 X106.95 Y290.04
G0 X104.05 Y290.04
G0 X104.05 Y292.94
G0 X106.95 Y292.94
G0 X109.85 Y292.94
G0 X112.75 Y292.94
G0 X112.75 Y290.04
G0 X109.85 Y290.04
G0 X109.85 Y287.14
G0 X109.85 Y284.24
G0 X112.75 Y284.24
G0 X112.75 Y287.14
G0 X115.65 Y287.14
G0 X115.65 Y284.24
G0 X118.55 Y284.24
G0 X118.55 Y287.14
G0 X118.55 Y290.04
G0 X115.65 Y290.04
G0 X115.65 Y292.94
G0 X118.55 Y292.94
G0 X118.55 Y295.84
G0 X118.55 Y298.74
G0 X115.65 Y298.74
G0 X115.65 Y295.84
G0 X112.75 Y295.84
G0 X109.85 Y295.84
G0 X109.85 Y298.74
G0 X112.75 Y298.74
G0 X112.75 Y301.64
G0 X109.85 Y301.64
G0 X109.85 Y304.54
G0 X112.75 Y304.54
G0 X115.65 Y304.54
G0 X115.65 Y301.64
G0 X118.55 Y301.64
G0 X118.55 Y304.54
G0 X121.45 Y304.54
G0 X121.45 Y301.64
G0 X124.35 Y301.64
G0 X124.35 Y304.54
G0 X127.25 Y304.54
G0 X130.15 Y304.54
G0 X130.15 Y301.64
G0 X127.25 Y301.64
G0 X127.25 Y298.74
G0 X130.15 Y298.74
G0 X130.15 Y295.84
G0 X127.25 Y295.84
G0 X124.35 Y295.84
G0 X124.35 Y298.74
G0 X121.45 Y298.74
G0 X121.45 Y295.84
G0 X121.45 Y292.94
G0 X124.35 Y292.94
G0 X124.35 Y290.04
G0 X121.45 Y290.04
G0 X121.45 Y287.14
G0 X121.45 Y284.24
G0 X124.35 Y284.24
G0 X124.35 Y287.14
G0 X127.25 Y287.14
G0 X127.25 Y284.24
G0 X130.15 Y284.24
G0 X130.15 Y287.14
G0 X130.15 Y290.04
G0 X127.25 Y290.04
G0 X127.25 Y292.94
G0 X130.15 Y292.94
G0 X133.05 Y292.94
G0 X135.95 Y292.94
G0 X135.95 Y290.04
G0 X133.05 Y290.04
G0 X133.05 Y287.14
G0 X133.05 Y284.24
G0 X135.95 Y284.24
G0 X135.95 Y287.14
G0 X138.85 Y287.14
G0 X138.85 Y284.24
G0 X141.75 Y284.24
G0 X141.75 Y287.14
G0 X141.75 Y290.04
G0 X138.85 Y290.04
G0 X138.85 Y292.94
G0 X141.75 Y292.94
G0 X141.75 Y295.84
G0 X141.75 Y298.74
G0 X138.85 Y298.74
G0 X138.85 Y295.84
G0 X135.95 Y295.84
G0 X133.05 Y295.84
G0 X133.05 Y298.74
G0 X135.95 Y298.74
G0 X135.95 Y301.64
G0 X133.05 Y301.64
G0 X133.05 Y304.54
G0 X135.95 Y304.54
G0 X138.85 Y304.54
G0 X138.85 Y301.64
G0 X141.75 Y301.64
G0 X141.75 Y304.54
G0 X141.75 Y307.44
G0 X138.85 Y307.44
G0 X138.85 Y310.34
G0 X141.75 Y310.34
G0 X141.75 Y313.24
G0 X141.75 Y316.14
G0 X138.85 Y316.14
G0 X138.85 Y313.24
G0 X135.95 Y313.24
G0 X135.95 Y316.14
G0 X133.05 Y316.14
G0 X133.05 Y313.24
G0 X133.05 Y310.34
G0 X135.95 Y310.34
G0 X135.95 Y307.44
G0 X133.05 Y307.44
G0 X130.15 Y307.44
G0 X130.15 Y310.34
G0 X127.25 Y310.34
G0 X127.25 Y307.44
G0 X124.35 Y307.44
G0 X121.45 Y307.44
G0 X121.45 Y310.34
G0 X124.35 Y310.34
G0 X124.35 Y313.24
G0 X121.45 Y313.24
G0 X121.45 Y316.14
G0 X124.35 Y316.14
G0 X127.25 Y316.14
G0 X127.25 Y313.24
G0 X130.15 Y313.24
G0 X130.15 Y316.14
G0 X130.15 Y319.04
G0 X130.15 Y321.94
G0 X127.25 Y321.94
G0 X127.25 Y319.04
G0 X124.35 Y319.04
G0 X121.45 Y319.04
G0 X121.45 Y321.94
G0 X124.35 Y321.94
G0 X124.35 Y324.84
G0 X121.45 Y324.84
G0 X121.45 Y327.74
G0 X124.35 Y327.74
G0 X127.25 Y327.74
G0 X127.25 Y324.84
G0 X130.15 Y324.84
G0 X130.15 Y327.74
G0 X133.05 Y327.74
G0 X135.95 Y327.74
G0 X135.95 Y324.84
G0 X133.05 Y324.84
G0 X133.05 Y321.94
G0 X133.05 Y319.04
G0 X135.95 Y319.04
G0 X135.95 Y321.94
G0 X138.85 Y321.94
G0 X138.85 Y319.04
G0 X141.75 Y319.04
G0 X141.75 Y321.94
G0 X141.75 Y324.84
G0 X138.85 Y324.84
G0 X138.85 Y327.74
G0 X141.75 Y327.74
G0 X141.75 Y330.64
G0 X141.75 Y333.54
G0 X138.85 Y333.54
G0 X138.85 Y330.64
G0 X135.95 Y330.64
G0 X133.05 Y330.64
G0 X133.05 Y333.54
G0 X135.95 Y333.54
G0 X135.95 Y336.44
G0 X133.05 Y336.44
G0 X133.05 Y339.34
G0 X135.95 Y339.34
G0 X138.85 Y339.34
G0 X138.85 Y336.44
G0 X141.75 Y336.44
G0 X141.75 Y339.34
G0 X141.75 Y342.24
G0 X138.85 Y342.24
G0 X138.85 Y345.14
G0 X141.75 Y345.14
G0 X141.75 Y348.04
G0 X141.75 Y350.94
G0 X138.85 Y350.94
G0 X138.85 Y348.04
G0 X135.95 Y348.04
G0 X135.95 Y350.94
G0 X133.05 Y350.94
G0 X133.05 Y348.04
G0 X133.05 Y345.14
G0 X135.95 Y345.14
G0 X135.95 Y342.24
G0 X133.05 Y342.24
G0 X130.15 Y342.24
G0 X127.25 Y342.24
G0 X127.25 Y345.14
G0 X130.15 Y345.14
G0 X130.15 Y348.04
G0 X130.15 Y350.94
G0 X127.25 Y350.94
G0 X127.25 Y348.04
G0 X124.35 Y348.04
G0 X124.35 Y350.94
G0 X121.45 Y350.94
G0 X121.45 Y348.04
G0 X121.45 Y345.14
G0 X124.35 Y345.14
G0 X124.35 Y342.24
G0 X121.45 Y342.24
G0 X121.45 Y339.34
G0 X121.45 Y336.44
G0 X124.35 Y336.44
G0 X124.35 Y339.34
G0 X127.25 Y339.34
G0 X130.15 Y339.34
G0 X130.15 Y336.44
G0 X127.25 Y336.44
G0 X127.25 Y333.54
G0 X130.15 Y333.54
G0 X130.15 Y330.64
G0 X127.25 Y330.64
G0 X124.35 Y330.64
G0 X124.35 Y333.54
G0 X121.45 Y333.54
G0 X121.45 Y330.64
G0 X118.55 Y330.64
G0 X115.65 Y330.64
G0 X115.65 Y333.54
G0 X118.55 Y333.54
G0 X118.55 Y336.44
G0 X118.55 Y339.34
G0 X115.65 Y339.34
G0 X115.65 Y336.44
G0 X112.75 Y336.44
G0 X112.75 Y339.34
G0 X109.85 Y339.34
G0 X109.85 Y336.44
G0 X109.85 Y333.54
G0 X112.75 Y333.54
G0 X112.75 Y330.64
G0 X109.85 Y330.64
G0 X106.95 Y330.64
G0 X106.95 Y333.54
G0 X104.05 Y333.54
G0 X104.05 Y330.64
G0 X101.15 Y330.64
G0 X98.25 Y330.64
G0 X98.25 Y333.54
G0 X101.15 Y333.54
G0 X101.15 Y336.44
G0 X98.25 Y336.44
G0 X98.25 Y339.34
G0 X101.15 Y339.34
G0 X104.05 Y339.34
G0 X104.05 Y336.44
G0 X106.95 Y336.44
G0 X106.95 Y339.34
G0 X106.95 Y342.24
G0 X106.95 Y345.14
G0 X104.05 Y345.14
G0 X104.05 Y342.24
G0 X101.15 Y342.24
G0 X98.25 Y342.24
G0 X98.25 Y345.14
G0 X101.15 Y345.14
G0 X101.15 Y348.04
G0 X98.25 Y348.04
G0 X98.25 Y350.94
G0 X101.15 Y350.94
G0 X104.05 Y350.94
G0 X104.05 Y348.04
G0 X106.95 Y348.04
G0 X106.95 Y350.94
G0 X109.85 Y350.94
G0 X112.75 Y350.94
G0 X112.75 Y348.04
G0 X109.85 Y348.04
G0 X109.85 Y345.14
G0 X109.85 Y342.24
G0 X112.75 Y342.24
G0 X112.75 Y345.14
G0 X115.65 Y345.14
G0 X115.65 Y342.24
G0 X118.55 Y342.24
G0 X118.55 Y345.14
G0 X118.55 Y348.04
G0 X115.65 Y348.04
G0 X115.65 Y350.94
G0 X118.55 Y350.94
G0 X118.55 Y353.84
G0 X115.65 Y353.84
G0 X115.65 Y356.74
G0 X118.55 Y356.74
G0 X118.55 Y359.64
G0 X118.55 Y362.54
G0 X115.65 Y362.54
G0 X115.65 Y359.64
G0 X112.75 Y359.64
G0 X112.75 Y362.54
G0 X109.85 Y362.54
G0 X109.85 Y359.64
G0 X109.85 Y356.74
G0 X112.75 Y356.74
G0 X112.75 Y353.84
G0 X109.85 Y353.84
G0 X106.95 Y353.84
G0 X106.95 Y356.74
G0 X104.05 Y356.74
G0 X104.05 Y353.84
G0 X101.15 Y353.84
G0 X98.25 Y353.84
G0 X98.25 Y356.74
G0 X101.15 Y356.74
G0 X101.15 Y359.64
G0 X98.25 Y359.64
G0 X98.25 Y362.54
G0 X101.15 Y362.54
G0 X104.05 Y362.54
G0 X104.05 Y359.64
G0 X106.95 Y359.64
G0 X106.95 Y362.54
G0 X106.95 Y365.44
G0 X106.95 Y368.34
G0 X104.05 Y368.34
G0 X104.05 Y365.44
G0 X101.15 Y365.44
G0 X98.25 Y365.44
G0 X98.25 Y368.34
G0 X101.15 Y368.34
G0 X101.15 Y371.24
G0 X98.25 Y371.24
G0 X98.25 Y374.14
G0 X101.15 Y374.14
G0 X104.05 Y374.14
G0 X104.05 Y371.24
G0 X106.95 Y371.24
G0 X106.95 Y374.14
G0 X109.85 Y374.14
G0 X112.75 Y374.14
G0 X112.75 Y371.24
G0 X109.85 Y371.24
G0 X109.85 Y368.34
G0 X109.85 Y365.44
G0 X112.75 Y365.44
G0 X112.75 Y368.34
G0 X115.65 Y368.34
G0 X115.65 Y365.44
G0 X118.55 Y365.44
G0 X118.55 Y368.34
G0 X118.55 Y371.24
G0 X115.65 Y371.24
G0 X115.65 Y374.14
G0 X118.55 Y374.14
G0 X121.45 Y374.14
G0 X121.45 Y371.24
G0 X124.35 Y371.24
G0 X124.35 Y374.14
G0 X127.25 Y374.14
G0 X130.15 Y374.14
G0 X130.15 Y371.24
G0 X127.25 Y371.24
G0 X127.25 Y368.34
G0 X130.15 Y368.34
G0 X130.15 Y365.44
G0 X127.25 Y365.44
G0 X124.35 Y365.44
G0 X124.35 Y368.34
G0 X121.45 Y368.34
G0 X121.45 Y365.44
G0 X121.45 Y362.54
G0 X124.35 Y362.54
G0 X124.35 Y359.64
G0 X121.45 Y359.64
G0 X121.45 Y356.74
G0 X121.45 Y353.84
G0 X124.35 Y353.84
G0 X124.35 Y356.74
G0 X127.25 Y356.74
G0 X127.25 Y353.84
G0 X130.15 Y353.84
G0 X130.15 Y356.74
G0 X130.15 Y359.64
G0 X127.25 Y359.64
G0 X127.25 Y362.54
G0 X130.15 Y362.54
G0 X133.05 Y362.54
G0 X135.95 Y362.54
G0 X135.95 Y359.64
G0 X133.05 Y359.64
G0 X133.05 Y356.74
G0 X133.05 Y353.84
G0 X135.95 Y353.84
G0 X135.95 Y356.74
G0 X138.85 Y356.74
G0 X138.85 Y353.84
G0 X141.75 Y353.84
G0 X141.75 Y356.74
G0 X141.75 Y359.64
G0 X138.85 Y359.64
G0 X138.85 Y362.54
G0 X141.75 Y362.54
G0 X141.75 Y365.44
G0 X141.75 Y368.34
G0 X138.85 Y368.34
G0 X138.85 Y365.44
G0 X135.95 Y365.44
G0 X133.05 Y365.44
G0 X133.05 Y368.34
G0 X135.95 Y368.34
G0 X135.95 Y371.24
G0 X133.05 Y371.24
G0 X133.05 Y374.14
G0 X135.95 Y374.14
G0 X138.85 Y374.14
G0 X138.85 Y371.24
G0 X141.75 Y371.24
G0 X141.75 Y374.14
G0 X144.65 Y374.14
G0 X147.55 Y374.14
G0 X147.55 Y371.24
G0 X144.65 Y371.24
G0 X144.65 Y368.34
G0 X144.65 Y365.44
G0 X147.55 Y365.44
G0 X147.55 Y368.34
G0 X150.45 Y368.34
G0 X150.45 Y365.44
G0 X153.35 Y365.44
G0 X153.35 Y368.34
G0 X153.35 Y371.24
G0 X150.45 Y371.24
G0 X150.45 Y374.14
G0 X153.35 Y374.14
G0 X156.25 Y374.14
G0 X156.25 Y371.24
G0 X159.15 Y371.24
G0 X159.15 Y374.14
G0 X162.05 Y374.14
G0 X164.95 Y374.14
G0 X164.95 Y371.24
G0 X162.05 Y371.24
G0 X162.05 Y368.34
G0 X164.95 Y368.34
G0 X164.95 Y365.44
G0 X162.05 Y365.44
G0 X159.15 Y365.44
G0 X159.15 Y368.34
G0 X156.25 Y368.34
G0 X156.25 Y365.44
G0 X156.25 Y362.54
G0 X156.25 Y359.64
G0 X159.15 Y359.64
G0 X159.15 Y362.54
G0 X162.05 Y362.54
G0 X164.95 Y362.54
G0 X164.95 Y359.64
G0 X162.05 Y359.64
G0 X162.05 Y356.74
G0 X164.95 Y356.74
G0 X164.95 Y353.84
G0 X162.05 Y353.84
G0 X159.15 Y353.84
G0 X159.15 Y356.74
G0 X156.25 Y356.74
G0 X156.25 Y353.84
G0 X153.35 Y353.84
G0 X150.45 Y353.84
G0 X150.45 Y356.74
G0 X153.35 Y356.74
G0 X153.35 Y359.64
G0 X153.35 Y362.54
G0 X150.45 Y362.54
G0 X150.45 Y359.64
G0 X147.55 Y359.64
G0 X147.55 Y362.54
G0 X144.65 Y362.54
G0 X144.65 Y359.64
G0 X144.65 Y356.74
G0 X147.55 Y356.74
G0 X147.55 Y353.84
G0 X144.65 Y353.84
G0 X144.65 Y350.94
G0 X144.65 Y348.04
G0 X147.55 Y348.04
G0 X147.55 Y350.94
G0 X150.45 Y350.94
G0 X153.35 Y350.94
G0 X153.35 Y348.04
G0 X150.45 Y348.04
G0 X150.45 Y345.14
G0 X153.35 Y345.14
G0 X153.35 Y342.24
G0 X150.45 Y342.24
G0 X147.55 Y342.24
G0 X147.55 Y345.14
G0 X144.65 Y345.14
G0 X144.65 Y342.24
G0 X144.65 Y339.34
G0 X147.55 Y339.34
G0 X147.55 Y336.44
G0 X144.65 Y336.44
G0 X144.65 Y333.54
G0 X144.65 Y330.64
G0 X147.55 Y330.64
G0 X147.55 Y333.54
G0 X150.45 Y333.54
G0 X150.45 Y330.64
G0 X153.35 Y330.64
G0 X153.35 Y333.54
G0 X153.35 Y336.44
G0 X150.45 Y336.44
G0 X150.45 Y339.34
G0 X153.35 Y339.34
G0 X156.25 Y339.34
G0 X159.15 Y339.34
G0 X159.15 Y336.44
G0 X156.25 Y336.44
G0 X156.25 Y333.54
G0 X156.25 Y330.64
G0 X159.15 Y330.64
G0 X159.15 Y333.54
G0 X162.05 Y333.54
G0 X162.05 Y330.64
G0 X164.95 Y330.64
G0 X164.95 Y333.54
G0 X164.95 Y336.44
G0 X162.05 Y336.44
G0 X162.05 Y339.34
G0 X164.95 Y339.34
G0 X164.95 Y342.24
G0 X164.95 Y345.14
G0 X162.05 Y345.14
G0 X162.05 Y342.24
G0 X159.15 Y342.24
G0 X156.25 Y342.24
G0 X156.25 Y345.14
G0 X159.15 Y345.14
G0 X159.15 Y348.04
G0 X156.25 Y348.04
G0 X156.25 Y350.94
G0 X159.15 Y350.94
G0 X162.05 Y350.94
G0 X162.05 Y348.04
G0 X164.95 Y348.04
G0 X164.95 Y350.94
G0 X167.85 Y350.94
G0 X167.85 Y348.04
G0 X170.75 Y348.04
G0 X170.75 Y350.94
G0 X173.65 Y350.94
G0 X176.55 Y350.94
G0 X176.55 Y348.04
G0 X173.65 Y348.04
G0 X173.65 Y345.14
G0 X176.55 Y345.14
G0 X176.55 Y342.24
G0 X173.65 Y342.24
G0 X170.75 Y342.24
G0 X170.75 Y345.14
G0 X167.85 Y345.14
G0 X167.85 Y342.24
G0 X167.85 Y339.34
G0 X170.75 Y339.34
G0 X170.75 Y336.44
G0 X167.85 Y336.44
G0 X167.85 Y333.54
G0 X167.85 Y330.64
G0 X170.75 Y330.64
G0 X170.75 Y333.54
G0 X173.65 Y333.54
G0 X173.65 Y330.64
G0 X176.55 Y330.64
G0 X176.55 Y333.54
G0 X176.55 Y336.44
G0 X173.65 Y336.44
G0 X173.65 Y339.34
G0 X176.55 Y339.34
G0 X179.45 Y339.34
G0 X182.35 Y339.34
G0 X182.35 Y336.44
G0 X179.45 Y336.44
G0 X179.45 Y333.54
G0 X179.45 Y330.64
G0 X182.35 Y330.64
G0 X182.35 Y333.54
G0 X185.25 Y333.54
G0 X185.25 Y330.64
G0 X188.15 Y330.64
G0 X188.15 Y333.54
G0 X188.15 Y336.44
G0 X185.25 Y336.44
G0 X185.25 Y339.34
G0 X188.15 Y339.34
G0 X188.15 Y342.24
G0 X188.15 Y345.14
G0 X185.25 Y345.14
G0 X185.25 Y342.24
G0 X182.35 Y342.24
G0 X179.45 Y342.24
G0 X179.45 Y345.14
G0 X182.35 Y345.14
G0 X182.35 Y348.04
G0 X179.45 Y348.04
G0 X179.45 Y350.94
G0 X182.35 Y350.94
G0 X185.25 Y350.94
G0 X185.25 Y348.04
G0 X188.15 Y348.04
G0 X188.15 Y350.94
G0 X188.15 Y353.84
G0 X185.25 Y353.84
G0 X185.25 Y356.74
G0 X188.15 Y356.74
G0 X188.15 Y359.64
G0 X188.15 Y362.54
G0 X185.25 Y362.54
G0 X185.25 Y359.64
G0 X182.35 Y359.64
G0 X182.35 Y362.54
G0 X179.45 Y362.54
G0 X179.45 Y359.64
G0 X179.45 Y356.74
G0 X182.35 Y356.74
G0 X182.35 Y353.84
G0 X179.45 Y353.84
G0 X176.55 Y353.84
G0 X176.55 Y356.74
G0 X173.65 Y356.74
G0 X173.65 Y353.84
G0 X170.75 Y353.84
G0 X167.85 Y353.84
G0 X167.85 Y356.74
G0 X170.75 Y356.74
G0 X170.75 Y359.64
G0 X167.85 Y359.64
G0 X167.85 Y362.54
G0 X170.75 Y362.54
G0 X173.65 Y362.54
G0 X173.65 Y359.64
G0 X176.55 Y359.64
G0 X176.55 Y362.54
G0 X176.55 Y365.44
G0 X176.55 Y368.34
G0 X173.65 Y368.34
G0 X173.65 Y365.44
G0 X170.75 Y365.44
G0 X167.85 Y365.44
G0 X167.85 Y368.34
G0 X170.75 Y368.34
G0 X170.75 Y371.24
G0 X167.85 Y371.24
G0 X167.85 Y374.14
G0 X170.75 Y374.14
G0 X173.65 Y374.14
G0 X173.65 Y371.24
G0 X176.55 Y371.24
G0 X176.55 Y374.14
G0 X179.45 Y374.14
G0 X182.35 Y374.14
G0 X182.35 Y371.24
G0 X179.45 Y371.24
G0 X179.45 Y368.34
G0 X179.45 Y365.44
G0 X182.35 Y365.44
G0 X182.35 Y368.34
G0 X185.25 Y368.34
G0 X185.25 Y365.44
G0 X188.15 Y365.44
G0 X188.15 Y368.34
G0 X188.15 Y371.24
G0 X185.25 Y371.24
G0 X185.25 Y374.14
G0 X188.15 Y374.14
G0 X191.05 Y374.14
G0 X191.05 Y371.24
G0 X193.95 Y371.24
G0 X193.95 Y374.14
G0 X196.85 Y374.14
G0 X199.75 Y374.14
G0 X199.75 Y371.24
G0 X196.85 Y371.24
G0 X196.85 Y368.34
G0 X199.75 Y368.34
G0 X199.75 Y365.44
G0 X196.85 Y365.44
G0 X193.95 Y365.44
G0 X193.95 Y368.34
G0 X191.05 Y368.34
G0 X191.05 Y365.44
G0 X191.05 Y362.54
G0 X193.95 Y362.54
G0 X193.95 Y359.64
G0 X191.05 Y359.64
G0 X191.05 Y356.74
G0 X191.05 Y353.84
G0 X193.95 Y353.84
G0 X193.95 Y356.74
G0 X196.85 Y356.74
G0 X196.85 Y353.84
G0 X199.75 Y353.84
G0 X199.75 Y356.74
G0 X199.75 Y359.64
G0 X196.85 Y359.64
G0 X196.85 Y362.54
G0 X199.75 Y362.54
G0 X202.65 Y362.54
G0 X205.55 Y362.54
G0 X205.55 Y359.64
G0 X202.65 Y359.64
G0 X202.65 Y356.74
G0 X202.65 Y353.84
G0 X205.55 Y353.84
G0 X205.55 Y356.74
G0 X208.45 Y356.74
G0 X208.45 Y353.84
G0 X211.35 Y353.84
G0 X211.35 Y356.74
G0 X211.35 Y359.64
G0 X208.45 Y359.64
G0 X208.45 Y362.54
G0 X211.35 Y362.54
G0 X211.35 Y365.44
G0 X211.35 Y368.34
G0 X208.45 Y368.34
G0 X208.45 Y365.44
G0 X205.55 Y365.44
G0 X202.65 Y365.44
G0 X202.65 Y368.34
G0 X205.55 Y368.34
G0 X205.55 Y371.24
G0 X202.65 Y371.24
G0 X202.65 Y374.14
G0 X205.55 Y374.14
G0 X208.45 Y374.14
G0 X208.45 Y371.24
G0 X211.35 Y371.24
G0 X211.35 Y374.14
G0 X214.25 Y374.14
G0 X217.15 Y374.14
G0 X217.15 Y371.24
G0 X214.25 Y371.24
G0 X214.25 Y368.34
G0 X214.25 Y365.44
G0 X217.15 Y365.44
G0 X217.15 Y368.34
G0 X220.05 Y368.34
G0 X220.05 Y365.44
G0 X222.95 Y365.44
G0 X222.95 Y368.34
G0 X222.95 Y371.24
G0 X220.05 Y371.24
G0 X220.05 Y374.14
G0 X222.95 Y374.14
G0 X225.85 Y374.14
G0 X225.85 Y371.24
G0 X228.75 Y371.24
G0 X228.75 Y374.14
G0 X231.65 Y374.14
G0 X234.55 Y374.14
G0 X234.55 Y371.24
G0 X231.65 Y371.24
G0 X231.65 Y368.34
G0 X234.55 Y368.34
G0 X234.55 Y365.44
G0 X231.65 Y365.44
G0 X228.75 Y365.44
G0 X228.75 Y368.34
G0 X225.85 Y368.34
G0 X225.85 Y365.44
G0 X225.85 Y362.54
G0 X225.85 Y359.64
G0 X228.75 Y359.64
G0 X228.75 Y362.54
G0 X231.65 Y362.54
G0 X234.55 Y362.54
G0 X234.55 Y359.64
G0 X231.65 Y359.64
G0 X231.65 Y356.74
G0 X234.55 Y356.74
G0 X234.55 Y353.84
G0 X231.65 Y353.84
G0 X228.75 Y353.84
G0 X228.75 Y356.74
G0 X225.85 Y356.74
G0 X225.85 Y353.84
G0 X222.95 Y353.84
G0 X220.05 Y353.84
G0 X220.05 Y356.74
G0 X222.95 Y356.74
G0 X222.95 Y359.64
G0 X222.95 Y362.54
G0 X220.05 Y362.54
G0 X220.05 Y359.64
G0 X217.15 Y359.64
G0 X217.15 Y362.54
G0 X214.25 Y362.54
G0 X214.25 Y359.64
G0 X214.25 Y356.74
G0 X217.15 Y356.74
G0 X217.15 Y353.84
G0 X214.25 Y353.84
G0 X214.25 Y350.94
G0 X217.15 Y350.94
G0 X217.15 Y348.04
G0 X214.25 Y348.04
G0 X214.25 Y345.14
G0 X214.25 Y342.24
G0 X217.15 Y342.24
G0 X217.15 Y345.14
G0 X220.05 Y345.14
G0 X220.05 Y342.24
G0 X222.95 Y342.24
G0 X222.95 Y345.14
G0 X222.95 Y348.04
G0 X220.05 Y348.04
G0 X220.05 Y350.94
G0 X222.95 Y350.94
G0 X225.85 Y350.94
G0 X225.85 Y348.04
G0 X228.75 Y348.04
G0 X228.75 Y350.94
G0 X231.65 Y350.94
G0 X234.55 Y350.94
G0 X234.55 Y348.04
G0 X231.65 Y348.04
G0 X231.65 Y345.14
G0 X234.55 Y345.14
G0 X234.55 Y342.24
G0 X231.65 Y342.24
G0 X228.75 Y342.24
G0 X228.75 Y345.14
G0 X225.85 Y345.14
G0 X225.85 Y342.24
G0 X225.85 Y339.34
G0 X225.85 Y336.44
G0 X228.75 Y336.44
G0 X228.75 Y339.34
G0 X231.65 Y339.34
G0 X234.55 Y339.34
G0 X234.55 Y336.44
G0 X231.65 Y336.44
G0 X231.65 Y333.54
G0 X234.55 Y333.54
G0 X234.55 Y330.64
G0 X231.65 Y330.64
G0 X228.75 Y330.64
G0 X228.75 Y333.54
G0 X225.85 Y333.54
G0 X225.85 Y330.64
G0 X222.95 Y330.64
G0 X220.05 Y330.64
G0 X220.05 Y333.54
G0 X222.95 Y333.54
G0 X222.95 Y336.44
G0 X222.95 Y339.34
G0 X220.05 Y339.34
G0 X220.05 Y336.44
G0 X217.15 Y336.44
G0 X217.15 Y339.34
G0 X214.25 Y339.34
G0 X214.25 Y336.44
G0 X214.25 Y333.54
G0 X217.15 Y333.54
G0 X217.15 Y330.64
G0 X214.25 Y330.64
G0 X211.35 Y330.64
G0 X211.35 Y333.54
G0 X208.45 Y333.54
G0 X208.45 Y330.64
G0 X205.55 Y330.64
G0 X202.65 Y330.64
G0 X202.65 Y333.54
G0 X205.55 Y333.54
G0 X205.55 Y336.44
G0 X202.65 Y336.44
G0 X202.65 Y339.34
G0 X205.55 Y339.34
G0 X208.45 Y339.34
G0 X208.45 Y336.44
G0 X211.35 Y336.44
G0 X211.35 Y339.34
G0 X211.35 Y342.24
G0 X208.45 Y342.24
G0 X208.45 Y345.14
G0 X211.35 Y345.14
G0 X211.35 Y348.04
G0 X211.35 Y350.94
G0 X208.45 Y350.94
G0 X208.45 Y348.04
G0 X205.55 Y348.04
G0 X205.55 Y350.94
G0 X202.65 Y350.94
G0 X202.65 Y348.04
G0 X202.65 Y345.14
G0 X205.55 Y345.14
G0 X205.55 Y342.24
G0 X202.65 Y342.24
G0 X199.75 Y342.24
G0 X196.85 Y342.24
G0 X196.85 Y345.14
G0 X199.75 Y345.14
G0 X199.75 Y348.04
G0 X199.75 Y350.94
G0 X196.85 Y350.94
G0 X196.85 Y348.04
G0 X193.95 Y348.04
G0 X193.95 Y350.94
G0 X191.05 Y350.94
G0 X191.05 Y348.04
G0 X191.05 Y345.14
G0 X193.95 Y345.14
G0 X193.95 Y342.24
G0 X191.05 Y342.24
G0 X191.05 Y339.34
G0 X191.05 Y336.44
G0 X193.95 Y336.44
G0 X193.95 Y339.34
G0 X196.85 Y339.34
G0 X199.75 Y339.34
G0 X199.75 Y336.44
G0 X196.85 Y336.44
G0 X196.85 Y333.54
G0 X199.75 Y333.54
G0 X199.75 Y330.64
G0 X196.85 Y330.64
G0 X193.95 Y330.64
G0 X193.95 Y333.54
G0 X191.05 Y333.54
G0 X191.05 Y330.64
G0 X191.05 Y327.74
G0 X191.05 Y324.84
G0 X193.95 Y324.84
G0 X193.95 Y327.74
G0 X196.85 Y327.74
G0 X199.75 Y327.74
G0 X199.75 Y324.84
G0 X196.85 Y324.84
G0 X196.85 Y321.94
G0 X199.75 Y321.94
G0 X199.75 Y319.04
G0 X196.85 Y319.04
G0 X193.95 Y319.04
G0 X193.95 Y321.94
G0 X191.05 Y321.94
G0 X191.05 Y319.04
G0 X191.05 Y316.14
G0 X193.95 Y316.14
G0 X193.95 Y313.24
G0 X191.05 Y313.24
G0 X191.05 Y310.34
G0 X191.05 Y307.44
G0 X193.95 Y307.44
G0 X193.95 Y310.34
G0 X196.85 Y310.34
G0 X196.85 Y307.44
G0 X199.75 Y307.44
G0 X199.75 Y310.34
G0 X199.75 Y313.24
G0 X196.85 Y313.24
G0 X196.85 Y316.14
G0 X199.75 Y316.14
G0 X202.65 Y316.14
G0 X205.55 Y316.14
G0 X205.55 Y313.24
G0 X202.65 Y313.24
G0 X202.65 Y310.34
G0 X202.65 Y307.44
G0 X205.55 Y307.44
G0 X205.55 Y310.34
G0 X208.45 Y310.34
G0 X208.45 Y307.44
G0 X211.35 Y307.44
G0 X211.35 Y310.34
G0 X211.35 Y313.24
G0 X208.45 Y313.24
G0 X208.45 Y316.14
G0 X211.35 Y316.14
G0 X211.35 Y319.04
G0 X211.35 Y321.94
G0 X208.45 Y321.94
G0 X208.45 Y319.04
G0 X205.55 Y319.04
G0 X202.65 Y319.04
G0 X202.65 Y321.94
G0 X205.55 Y321.94
G0 X205.55 Y324.84
G0 X202.65 Y324.84
G0 X202.65 Y327.74
G0 X205.55 Y327.74
G0 X208.45 Y327.74
G0 X208.45 Y324.84
G0 X211.35 Y324.84
G0 X211.35 Y327.74
G0 X214.25 Y327.74
G0 X217.15 Y327.74
G0 X217.15 Y324.84
G0 X214.25 Y324.84
G0 X214.25 Y321.94
G0 X214.25 Y319.04
G0 X217.15 Y319.04
G0 X217.15 Y321.94
G0 X220.05 Y321.94
G0 X220.05 Y319.04
G0 X222.95 Y319.04
G0 X222.95 Y321.94
G0 X222.95 Y324.84
G0 X220.05 Y324.84
G0 X220.05 Y327.74
G0 X222.95 Y327.74
G0 X225.85 Y327.74
G0 X225.85 Y324.84
G0 X228.75 Y324.84
G0 X228.75 Y327.74
G0 X231.65 Y327.74
G0 X234.55 Y327.74
G0 X234.55 Y324.84
G0 X231.65 Y324.84
G0 X231.65 Y321.94
G0 X234.55 Y321.94
G0 X234.55 Y319.04
G0 X231.65 Y319.04
G0 X228.75 Y319.04
G0 X228.75 Y321.94
G0 X225.85 Y321.94
G0 X225.85 Y319.04
G0 X225.85 Y316.14
G0 X225.85 Y313.24
G0 X228.75 Y313.24
G0 X228.75 Y316.14
G0 X231.65 Y316.14
G0 X234.55 Y316.14
G0 X234.55 Y313.24
G0 X231.65 Y313.24
G0 X231.65 Y310.34
G0 X234.55 Y310.34
G0 X234.55 Y307.44
G0 X231.65 Y307.44
G0 X228.75 Y307.44
G0 X228.75 Y310.34
G0 X225.85 Y310.34
G0 X225.85 Y307.44
G0 X222.95 Y307.44
G0 X220.05 Y307.44
G0 X220.05 Y310.34
G0 X222.95 Y310.34
G0 X222.95 Y313.24
G0 X222.95 Y316.14
G0 X220.05 Y316.14
G0 X220.05 Y313.24
G0 X217.15 Y313.24
G0 X217.15 Y316.14
G0 X214.25 Y316.14
G0 X214.25 Y313.24
G0 X214.25 Y310.34
G0 X217.15 Y310.34
G0 X217.15 Y307.44
G0 X214.25 Y307.44
G0 X214.25 Y304.54
G0 X217.15 Y304.54
G0 X217.15 Y301.64
G0 X214.25 Y301.64
G0 X214.25 Y298.74
G0 X214.25 Y295.84
G0 X217.15 Y295.84
G0 X217.15 Y298.74
G0 X220.05 Y298.74
G0 X220.05 Y295.84
G0 X222.95 Y295.84
G0 X222.95 Y298.74
G0 X222.95 Y301.64
G0 X220.05 Y301.64
G0 X220.05 Y304.54
G0 X222.95 Y304.54
G0 X225.85 Y304.54
G0 X225.85 Y301.64
G0 X228.75 Y301.64
G0 X228.75 Y304.54
G0 X231.65 Y304.54
G0 X234.55 Y304.54
G0 X234.55 Y301.64
G0 X231.65 Y301.64
G0 X231.65 Y298.74
G0 X234.55 Y298.74
G0 X234.55 Y295.84
G0 X231.65 Y295.84
G0 X228.75 Y295.84
G0 X228.75 Y298.74
G0 X225.85 Y298.74
G0 X225.85 Y295.84
G0 X225.85 Y292.94
G0 X225.85 Y290.04
G0 X228.75 Y290.04
G0 X228.75 Y292.94
G0 X231.65 Y292.94
G0 X234.55 Y292.94
G0 X234.55 Y290.04
G0 X231.65 Y290.04
G0 X231.65 Y287.14
G0 X234.55 Y287.14
G0 X234.55 Y284.24
G0 X231.65 Y284.24
G0 X228.75 Y284.24
G0 X228.75 Y287.14
G0 X225.85 Y287.14
G0 X225.85 Y284.24
G0 X222.95 Y284.24
G0 X220.05 Y284.24
G0 X220.05 Y287.14
G0 X222.95 Y287.14
G0 X222.95 Y290.04
G0 X222.95 Y292.94
G0 X220.05 Y292.94
G0 X220.05 Y290.04
G0 X217.15 Y290.04
G0 X217.15 Y292.94
G0 X214.25 Y292.94
G0 X214.25 Y290.04
G0 X214.25 Y287.14
G0 X217.15 Y287.14
G0 X217.15 Y284.24
G0 X214.25 Y284.24
G0 X211.35 Y284.24
G0 X211.35 Y287.14
G0 X208.45 Y287.14
G0 X208.45 Y284.24
G0 X205.55 Y284.24
G0 X202.65 Y284.24
G0 X202.65 Y287.14
G0 X205.55 Y287.14
G0 X205.55 Y290.04
G0 X202.65 Y290.04
G0 X202.65 Y292.94
G0 X205.55 Y292.94
G0 X208.45 Y292.94
G0 X208.45 Y290.04
G0 X211.35 Y290.04
G0 X211.35 Y292.94
G0 X211.35 Y295.84
G0 X208.45 Y295.84
G0 X208.45 Y298.74
G0 X211.35 Y298.74
G0 X211.35 Y301.64
G0 X211.35 Y304.54
G0 X208.45 Y304.54
G0 X208.45 Y301.64
G0 X205.55 Y301.64
G0 X205.55 Y304.54
G0 X202.65 Y304.54
G0 X202.65 Y301.64
G0 X202.65 Y298.74
G0 X205.55 Y298.74
G0 X205.55 Y295.84
G0 X202.65 Y295.84
G0 X199.75 Y295.84
G0 X196.85 Y295.84
G0 X196.85 Y298.74
G0 X199.75 Y298.74
G0 X199.75 Y301.64
G0 X199.75 Y304.54
G0 X196.85 Y304.54
G0 X196.85 Y301.64
G0 X193.95 Y301.64
G0 X193.95 Y304.54
G0 X191.05 Y304.54
G0 X191.05 Y301.64
G0 X191.05 Y298.74
G0 X193.95 Y298.74
G0 X193.95 Y295.84
G0 X191.05 Y295.84
G0 X191.05 Y292.94
G0 X191.05 Y290.04
G0 X193.95 Y290.04
G0 X193.95 Y292.94
G0 X196.85 Y292.94
G0 X199.75 Y292.94
G0 X199.75 Y290.04
G0 X196.85 Y290.04
G0 X196.85 Y287.14
G0 X199.75 Y287.14
G0 X199.75 Y284.24
G0 X196.85 Y284.24
G0 X193.95 Y284.24
G0 X193.95 Y287.14
G0 X191.05 Y287.14
G0 X191.05 Y284.24
G0 X188.15 Y284.24
G0 X185.25 Y284.24
G0 X185.25 Y287.14
G0 X188.15 Y287.14
G0 X188.15 Y290.04
G0 X188.15 Y292.94
G0 X185.25 Y292.94
G0 X185.25 Y290.04
G0 X182.35 Y290.04
G0 X182.35 Y292.94
G0 X179.45 Y292.94
G0 X179.45 Y290.04
G0 X179.45 Y287.14
G0 X182.35 Y287.14
G0 X182.35 Y284.24
G0 X179.45 Y284.24
G0 X176.55 Y284.24
G0 X176.55 Y287.14
G0 X173.65 Y287.14
G0 X173.65 Y284.24
G0 X170.75 Y284.24
G0 X167.85 Y284.24
G0 X167.85 Y287.14
G0 X170.75 Y287.14
G0 X170.75 Y290.04
G0 X167.85 Y290.04
G0 X167.85 Y292.94
G0 X170.75 Y292.94
G0 X173.65 Y292.94
G0 X173.65 Y290.04
G0 X176.55 Y290.04
G0 X176.55 Y292.94
G0 X176.55 Y295.84
G0 X176.55 Y298.74
G0 X173.65 Y298.74
G0 X173.65 Y295.84
G0 X170.75 Y295.84
G0 X167.85 Y295.84
G0 X167.85 Y298.74
G0 X170.75 Y298.74
G0 X170.75 Y301.64
G0 X167.85 Y301.64
G0 X167.85 Y304.54
G0 X170.75 Y304.54
G0 X173.65 Y304.54
G0 X173.65 Y301.64
G0 X176.55 Y301.64
G0 X176.55 Y304.54
G0 X179.45 Y304.54
G0 X182.35 Y304.54
G0 X182.35 Y301.64
G0 X179.45 Y301.64
G0 X179.45 Y298.74
G0 X179.45 Y295.84
G0 X182.35 Y295.84
G0 X182.35 Y298.74
G0 X185.25 Y298.74
G0 X185.25 Y295.84
G0 X188.15 Y295.84
G0 X188.15 Y298.74
G0 X188.15 Y301.64
G0 X185.25 Y301.64
G0 X185.25 Y304.54
G0 X188.15 Y304.54
G0 X188.15 Y307.44
G0 X188.15 Y310.34
G0 X185.25 Y310.34
G0 X185.25 Y307.44
G0 X182.35 Y307.44
G0 X179.45 Y307.44
G0 X179.45 Y310.34
G0 X182.35 Y310.34
G0 X182.35 Y313.24
G0 X179.45 Y313.24
G0 X179.45 Y316.14
G0 X182.35 Y316.14
G0 X185.25 Y316.14
G0 X185.25 Y313.24
G0 X188.15 Y313.24
G0 X188.15 Y316.14
G0 X188.15 Y319.04
G0 X185.25 Y319.04
G0 X185.25 Y321.94
G0 X188.15 Y321.94
G0 X188.15 Y324.84
G0 X188.15 Y327.74
G0 X185.25 Y327.74
G0 X185.25 Y324.84
G0 X182.35 Y324.84
G0 X182.35 Y327.74
G0 X179.45 Y327.74
G0 X179.45 Y324.84
G0 X179.45 Y321.94
G0 X182.35 Y321.94
G0 X182.35 Y319.04
G0 X179.45 Y319.04
G0 X176.55 Y319.04
G0 X173.65 Y319.04
G0 X173.65 Y321.94
G0 X176.55 Y321.94
G0 X176.55 Y324.84
G0 X176.55 Y327.74
G0 X173.65 Y327.74
G0 X173.65 Y324.84
G0 X170.75 Y324.84
G0 X170.75 Y327.74
G0 X167.85 Y327.74
G0 X167.85 Y324.84
G0 X167.85 Y321.94
G0 X170.75 Y321.94
G0 X170.75 Y319.04
G0 X167.85 Y319.04
G0 X167.85 Y316.14
G0 X167.85 Y313.24
G0 X170.75 Y313.24
G0 X170.75 Y316.14
G0 X173.65 Y316.14
G0 X176.55 Y316.14
G0 X176.55 Y313.24
G0 X173.65 Y313.24
G0 X173.65 Y310.34
G0 X176.55 Y310.34
G0 X176.55 Y307.44
G0 X173.65 Y307.44
G0 X170.75 Y307.44
G0 X170.75 Y310.34
G0 X167.85 Y310.34
G0 X167.85 Y307.44
G0 X164.95 Y307.44
G0 X164.95 Y310.34
G0 X162.05 Y310.34
G0 X162.05 Y307.44
G0 X159.15 Y307.44
G0 X156.25 Y307.44
G0 X156.25 Y310.34
G0 X159.15 Y310.34
G0 X159.15 Y313.24
G0 X156.25 Y313.24
G0 X156.25 Y316.14
G0 X159.15 Y316.14
G0 X162.05 Y316.14
G0 X162.05 Y313.24
G0 X164.95 Y313.24
G0 X164.95 Y316.14
G0 X164.95 Y319.04
G0 X162.05 Y319.04
G0 X162.05 Y321.94
G0 X164.95 Y321.94
G0 X164.95 Y324.84
G0 X164.95 Y327.74
G0 X162.05 Y327.74
G0 X162.05 Y324.84
G0 X159.15 Y324.84
G0 X159.15 Y327.74
G0 X156.25 Y327.74
G0 X156.25 Y324.84
G0 X156.25 Y321.94
G0 X159.15 Y321.94
G0 X159.15 Y319.04
G0 X156.25 Y319.04
G0 X153.35 Y319.04
G0 X150.45 Y319.04
G0 X150.45 Y321.94
G0 X153.35 Y321.94
G0 X153.35 Y324.84
G0 X153.35 Y327.74
G0 X150.45 Y327.74
G0 X150.45 Y324.84
G0 X147.55 Y324.84
G0 X147.55 Y327.74
G0 X144.65 Y327.74
G0 X144.65 Y324.84
G0 X144.65 Y321.94
G0 X147.55 Y321.94
G0 X147.55 Y319.04
G0 X144.65 Y319.04
G0 X144.65 Y316.14
G0 X144.65 Y313.24
G0 X147.55 Y313.24
G0 X147.55 Y316.14
G0 X150.45 Y316.14
G0 X153.35 Y316.14
G0 X153.35 Y313.24
G0 X150.45 Y313.24
G0 X150.45 Y310.34
G0 X153.35 Y310.34
G0 X153.35 Y307.44
G0 X150.45 Y307.44
G0 X147.55 Y307.44
G0 X147.55 Y310.34
G0 X144.65 Y310.34
G0 X144.65 Y307.44
G0 X144.65 Y304.54
G0 X147.55 Y304.54
G0 X147.55 Y301.64
G0 X144.65 Y301.64
G0 X144.65 Y298.74
G0 X144.65 Y295.84
G0 X147.55 Y295.84
G0 X147.55 Y298.74
G0 X150.45 Y298.74
G0 X150.45 Y295.84
G0 X153.35 Y295.84
G0 X153.35 Y298.74
G0 X153.35 Y301.64
G0 X150.45 Y301.64
G0 X150.45 Y304.54
G0 X153.35 Y304.54
G0 X156.25 Y304.54
G0 X156.25 Y301.64
G0 X159.15 Y301.64
G0 X159.15 Y304.54
G0 X162.05 Y304.54
G0 X164.95 Y304.54
G0 X164.95 Y301.64
G0 X162.05 Y301.64
G0 X162.05 Y298.74
G0 X164.95 Y298.74
G0 X164.95 Y295.84
G0 X162.05 Y295.84
G0 X159.15 Y295.84
G0 X159.15 Y298.74
G0 X156.25 Y298.74
G0 X156.25 Y295.84
G0 X156.25 Y292.94
G0 X156.25 Y290.04
G0 X159.15 Y290.04
G0 X159.15 Y292.94
G0 X162.05 Y292.94
G0 X164.95 Y292.94
G0 X164.95 Y290.04
G0 X162.05 Y290.04
G0 X162.05 Y287.14
G0 X164.95 Y287.14
G0 X164.95 Y284.24
G0 X162.05 Y284.24
G0 X159.15 Y284.24
G0 X159.15 Y287.14
G0 X156.25 Y287.14
G0 X156.25 Y284.24
G0 X153.35 Y284.24
G0 X150.45 Y284.24
G0 X150.45 Y287.14
G0 X153.35 Y287.14
G0 X153.35 Y290.04
G0 X153.35 Y292.94
G0 X150.45 Y292.94
G0 X150.45 Y290.04
G0 X147.55 Y290.04
G0 X147.55 Y292.94
G0 X144.65 Y292.94
G0 X144.65 Y290.04
G0 X144.65 Y287.14
G0 X147.55 Y287.14
G0 X147.55 Y284.24
G0 X144.65 Y284.24
G0 X144.65 Y281.34
G0 X147.55 Y281.34
G0 X147.55 Y278.44
G0 X144.65 Y278.44
G0 X144.65 Y275.54
G0 X144.65 Y272.64
G0 X147.55 Y272.64
G0 X147.55 Y275.54
G0 X150.45 Y275.54
G0 X150.45 Y272.64
G0 X153.35 Y272.64
G0 X153.35 Y275.54
G0 X153.35 Y278.44
G0 X150.45 Y278.44
G0 X150.45 Y281.34
G0 X153.35 Y281.34
G0 X156.25 Y281.34
G0 X156.25 Y278.44
G0 X159.15 Y278.44
G0 X159.15 Y281.34
G0 X162.05 Y281.34
G0 X164.95 Y281.34
G0 X164.95 Y278.44
G0 X162.05 Y278.44
G0 X162.05 Y275.54
G0 X164.95 Y275.54
G0 X164.95 Y272.64
G0 X162.05 Y272.64
G0 X159.15 Y272.64
G0 X159.15 Y275.54
G0 X156.25 Y275.54
G0 X156.25 Y272.64
G0 X156.25 Y269.74
G0 X156.25 Y266.84
G0 X159.15 Y266.84
G0 X159.15 Y269.74
G0 X162.05 Y269.74
G0 X164.95 Y269.74
G0 X164.95 Y266.84
G0 X162.05 Y266.84
G0 X162.05 Y263.94
G0 X164.95 Y263.94
G0 X164.95 Y261.04
G0 X162.05 Y261.04
G0 X159.15 Y261.04
G0 X159.15 Y263.94
G0 X156.25 Y263.94
G0 X156.25 Y261.04
G0 X153.35 Y261.04
G0 X150.45 Y261.04
G0 X150.45 Y263.94
G0 X153.35 Y263.94
G0 X153.35 Y266.84
G0 X153.35 Y269.74
G0 X150.45 Y269.74
G0 X150.45 Y266.84
G0 X147.55 Y266.84
G0 X147.55 Y269.74
G0 X144.65 Y269.74
G0 X144.65 Y266.84
G0 X144.65 Y263.94
G0 X147.55 Y263.94
G0 X147.55 Y261.04
G0 X144.65 Y261.04
G0 X144.65 Y258.14
G0 X144.65 Y255.24
G0 X147.55 Y255.24
G0 X147.55 Y258.14
G0 X150.45 Y258.14
G0 X153.35 Y258.14
G0 X153.35 Y255.24
G0 X150.45 Y255.24
G0 X150.45 Y252.34
G0 X153.35 Y252.34
G0 X153.35 Y249.44
G0 X150.45 Y249.44
G0 X147.55 Y249.44
G0 X147.55 Y252.34
G0 X144.65 Y252.34
G0 X144.65 Y249.44
G0 X144.65 Y246.54
G0 X147.55 Y246.54
G0 X147.55 Y243.64
G0 X144.65 Y243.64
G0 X144.65 Y240.74
G0 X144.65 Y237.84
G0 X147.55 Y237.84
G0 X147.55 Y240.74
G0 X150.45 Y240.74
G0 X150.45 Y237.84
G0 X153.35 Y237.84
G0 X153.35 Y240.74
G0 X153.35 Y243.64
G0 X150.45 Y243.64
G0 X150.45 Y246.54
G0 X153.35 Y246.54
G0 X156.25 Y246.54
G0 X159.15 Y246.54
G0 X159.15 Y243.64
G0 X156.25 Y243.64
G0 X156.25 Y240.74
G0 X156.25 Y237.84
G0 X159.15 Y237.84
G0 X159.15 Y240.74
G0 X162.05 Y240.74
G0 X162.05 Y237.84
G0 X164.95 Y237.84
G0 X164.95 Y240.74
G0 X164.95 Y243.64
G0 X162.05 Y243.64
G0 X162.05 Y246.54
G0 X164.95 Y246.54
G0 X164.95 Y249.44
G0 X164.95 Y252.34
G0 X162.05 Y252.34
G0 X162.05 Y249.44
G0 X159.15 Y249.44
G0 X156.25 Y249.44
G0 X156.25 Y252.34
G0 X159.15 Y252.34
G0 X159.15 Y255.24
G0 X156.25 Y255.24
G0 X156.25 Y258.14
G0 X159.15 Y258.14
G0 X162.05 Y258.14
G0 X162.05 Y255.24
G0 X164.95 Y255.24
G0 X164.95 Y258.14
G0 X167.85 Y258.14
G0 X167.85 Y255.24
G0 X170.75 Y255.24
G0 X170.75 Y258.14
G0 X173.65 Y258.14
G0 X176.55 Y258.14
G0 X176.55 Y255.24
G0 X173.65 Y255.24
G0 X173.65 Y252.34
G0 X176.55 Y252.34
G0 X176.55 Y249.44
G0 X173.65 Y249.44
G0 X170.75 Y249.44
G0 X170.75 Y252.34
G0 X167.85 Y252.34
G0 X167.85 Y249.44
G0 X167.85 Y246.54
G0 X170.75 Y246.54
G0 X170.75 Y243.64
G0 X167.85 Y243.64
G0 X167.85 Y240.74
G0 X167.85 Y237.84
G0 X170.75 Y237.84
G0 X170.75 Y240.74
G0 X173.65 Y240.74
G0 X173.65 Y237.84
G0 X176.55 Y237.84
G0 X176.55 Y240.74
G0 X176.55 Y243.64
G0 X173.65 Y243.64
G0 X173.65 Y246.54
G0 X176.55 Y246.54
G0 X179.45 Y246.54
G0 X182.35 Y246.54
G0 X182.35 Y243.64
G0 X179.45 Y243.64
G0 X179.45 Y240.74
G0 X179.45 Y237.84
G0 X182.35 Y237.84
G0 X182.35 Y240.74
G0 X185.25 Y240.74
G0 X185.25 Y237.84
G0 X188.15 Y237.84
G0 X188.15 Y240.74
G0 X188.15 Y243.64
G0 X185.25 Y243.64
G0 X185.25 Y246.54
G0 X188.15 Y246.54
G0 X188.15 Y249.44
G0 X188.15 Y252.34
G0 X185.25 Y252.34
G0 X185.25 Y249.44
G0 X182.35 Y249.44
G0 X179.45 Y249.44
G0 X179.45 Y252.34
G0 X182.35 Y252.34
G0 X182.35 Y255.24
G0 X179.45 Y255.24
G0 X179.45 Y258.14
G0 X182.35 Y258.14
G0 X185.25 Y258.14
G0 X185.25 Y255.24
G0 X188.15 Y255.24
G0 X188.15 Y258.14
G0 X188.15 Y261.04
G0 X185.25 Y261.04
G0 X185.25 Y263.94
G0 X188.15 Y263.94
G0 X188.15 Y266.84
G0 X188.15 Y269.74
G0 X185.25 Y269.74
G0 X185.25 Y266.84
G0 X182.35 Y266.84
G0 X182.35 Y269.74
G0 X179.45 Y269.74
G0 X179.45 Y266.84
G0 X179.45 Y263.94
G0 X182.35 Y263.94
G0 X182.35 Y261.04
G0 X179.45 Y261.04
G0 X176.55 Y261.04
G0 X176.55 Y263.94
G0 X173.65 Y263.94
G0 X173.65 Y261.04
G0 X170.75 Y261.04
G0 X167.85 Y261.04
G0 X167.85 Y263.94
G0 X170.75 Y263.94
G0 X170.75 Y266.84
G0 X167.85 Y266.84
G0 X167.85 Y269.74
G0 X170.75 Y269.74
G0 X173.65 Y269.74
G0 X173.65 Y266.84
G0 X176.55 Y266.84
G0 X176.55 Y269.74
G0 X176.55 Y272.64
G0 X176.55 Y275.54
G0 X173.65 Y275.54
G0 X173.65 Y272.64
G0 X170.75 Y272.64
G0 X167.85 Y272.64
G0 X167.85 Y275.54
G0 X170.75 Y275.54
G0 X170.75 Y278.44
G0 X167.85 Y278.44
G0 X167.85 Y281.34
G0 X170.75 Y281.34
G0 X173.65 Y281.34
G0 X173.65 Y278.44
G0 X176.55 Y278.44
G0 X176.55 Y281.34
G0 X179.45 Y281.34
G0 X182.35 Y281.34
G0 X182.35 Y278.44
G0 X179.45 Y278.44
G0 X179.45 Y275.54
G0 X179.45 Y272.64
G0 X182.35 Y272.64
G0 X182.35 Y275.54
G0 X185.25 Y275.54
G0 X185.25 Y272.64
G0 X188.15 Y272.64
G0 X188.15 Y275.54
G0 X188.15 Y278.44
G0 X185.25 Y278.44
G0 X185.25 Y281.34
G0 X188.15 Y281.34
G0 X191.05 Y281.34
G0 X191.05 Y278.44
G0 X193.95 Y278.44
G0 X193.95 Y281.34
G0 X196.85 Y281.34
G0 X199.75 Y281.34
G0 X199.75 Y278.44
G0 X196.85 Y278.44
G0 X196.85 Y275.54
G0 X199.75 Y275.54
G0 X199.75 Y272.64
G0 X196.85 Y272.64
G0 X193.95 Y272.64
G0 X193.95 Y275.54
G0 X191.05 Y275.54
G0 X191.05 Y272.64
G0 X191.05 Y269.74
G0 X193.95 Y269.74
G0 X193.95 Y266.84
G0 X191.05 Y266.84
G0 X191.05 Y263.94
G0 X191.05 Y261.04
G0 X193.95 Y261.04
G0 X193.95 Y263.94
G0 X196.85 Y263.94
G0 X196.85 Y261.04
G0 X199.75 Y261.04
G0 X199.75 Y263.94
G0 X199.75 Y266.84
G0 X196.85 Y266.84
G0 X196.85 Y269.74
G0 X199.75 Y269.74
G0 X202.65 Y269.74
G0 X205.55 Y269.74
G0 X205.55 Y266.84
G0 X202.65 Y266.84
G0 X202.65 Y263.94
G0 X202.65 Y261.04
G0 X205.55 Y261.04
G0 X205.55 Y263.94
G0 X208.45 Y263.94
G0 X208.45 Y261.04
G0 X211.35 Y261.04
G0 X211.35 Y263.94
G0 X211.35 Y266.84
G0 X208.45 Y266.84
G0 X208.45 Y269.74
G0 X211.35 Y269.74
G0 X211.35 Y272.64
G0 X211.35 Y275.54
G0 X208.45 Y275.54
G0 X208.45 Y272.64
G0 X205.55 Y272.64
G0 X202.65 Y272.64
G0 X202.65 Y275.54
G0 X205.55 Y275.54
G0 X205.55 Y278.44
G0 X202.65 Y278.44
G0 X202.65 Y281.34
G0 X205.55 Y281.34
G0 X208.45 Y281.34
G0 X208.45 Y278.44
G0 X211.35 Y278.44
G0 X211.35 Y281.34
G0 X214.25 Y281.34
G0 X217.15 Y281.34
G0 X217.15 Y278.44
G0 X214.25 Y278.44
G0 X214.25 Y275.54
G0 X214.25 Y272.64
G0 X217.15 Y272.64
G0 X217.15 Y275.54
G0 X220.05 Y275.54
G0 X220.05 Y272.64
G0 X222.95 Y272.64
G0 X222.95 Y275.54
G0 X222.95 Y278.44
G0 X220.05 Y278.44
G0 X220.05 Y281.34
G0 X222.95 Y281.34
G0 X225.85 Y281.34
G0 X225.85 Y278.44
G0 X228.75 Y278.44
G0 X228.75 Y281.34
G0 X231.65 Y281.34
G0 X234.55 Y281.34
G0 X234.55 Y278.44
G0 X231.65 Y278.44
G0 X231.65 Y275.54
G0 X234.55 Y275.54
G0 X234.55 Y272.64
G0 X231.65 Y272.64
G0 X228.75 Y272.64
G0 X228.75 Y275.54
G0 X225.85 Y275.54
G0 X225.85 Y272.64
G0 X225.85 Y269.74
G0 X225.85 Y266.84
G0 X228.75 Y266.84
G0 X228.75 Y269.74
G0 X231.65 Y269.74
G0 X234.55 Y269.74
G0 X234.55 Y266.84
G0 X231.65 Y266.84
G0 X231.65 Y263.94
G0 X234.55 Y263.94
G0 X234.55 Y261.04
G0 X231.65 Y261.04
G0 X228.75 Y261.04
G0 X228.75 Y263.94
G0 X225.85 Y263.94
G0 X225.85 Y261.04
G0 X222.95 Y261.04
G0 X220.05 Y261.04
G0 X220.05 Y263.94
G0 X222.95 Y263.94
G0 X222.95 Y266.84
G0 X222.95 Y269.74
G0 X220.05 Y269.74
G0 X220.05 Y266.84
G0 X217.15 Y266.84
G0 X217.15 Y269.74
G0 X214.25 Y269.74
G0 X214.25 Y266.84
G0 X214.25 Y263.94
G0 X217.15 Y263.94
G0 X217.15 Y261.04
G0 X214.25 Y261.04
G0 X214.25 Y258.14
G0 X217.15 Y258.14
G0 X217.15 Y255.24
G0 X214.25 Y255.24
G0 X214.25 Y252.34
G0 X214.25 Y249.44
G0 X217.15 Y249.44
G0 X217.15 Y252.34
G0 X220.05 Y252.34
G0 X220.05 Y249.44
G0 X222.95 Y249.44
G0 X222.95 Y252.34
G0 X222.95 Y255.24
G0 X220.05 Y255.24
G0 X220.05 Y258.14
G0 X222.95 Y258.14
G0 X225.85 Y258.14
G0 X225.85 Y255.24
G0 X228.75 Y255.24
G0 X228.75 Y258.14
G0 X231.65 Y258.14
G0 X234.55 Y258.14
G0 X234.55 Y255.24
G0 X231.65 Y255.24
G0 X231.65 Y252.34
G0 X234.55 Y252.34
G0 X234.55 Y249.44
G0 X231.65 Y249.44
G0 X228.75 Y249.44
G0 X228.75 Y252.34
G0 X225.85 Y252.34
G0 X225.85 Y249.44
G0 X225.85 Y246.54
G0 X225.85 Y243.64
G0 X228.75 Y243.64
G0 X228.75 Y246.54
G0 X231.65 Y246.54
G0 X234.55 Y246.54
G0 X234.55 Y243.64
G0 X231.65 Y243.64
G0 X231.65 Y240.74
G0 X234.55 Y240.74
G0 X234.55 Y237.84
G0 X231.65 Y237.84
G0 X228.75 Y237.84
G0 X228.75 Y240.74
G0 X225.85 Y240.74
G0 X225.85 Y237.84
G0 X222.95 Y237.84
G0 X220.05 Y237.84
G0 X220.05 Y240.74
G0 X222.95 Y240.74
G0 X222.95 Y243.64
G0 X222.95 Y246.54
G0 X220.05 Y246.54
G0 X220.05 Y243.64
G0 X217.15 Y243.64
G0 X217.15 Y246.54
G0 X214.25 Y246.54
G0 X214.25 Y243.64
G0 X214.25 Y240.74
G0 X217.15 Y240.74
G0 X217.15 Y237.84
G0 X214.25 Y237.84
G0 X211.35 Y237.84
G0 X211.35 Y240.74
G0 X208.45 Y240.74
G0 X208.45 Y237.84
G0 X205.55 Y237.84
G0 X202.65 Y237.84
G0 X202.65 Y240.74
G0 X205.55 Y240.74
G0 X205.55 Y243.64
G0 X202.65 Y243.64
G0 X202.65 Y246.54
G0 X205.55 Y246.54
G0 X208.45 Y246.54
G0 X208.45 Y243.64
G0 X211.35 Y243.64
G0 X211.35 Y246.54
G0 X211.35 Y249.44
G0 X208.45 Y249.44
G0 X208.45 Y252.34
G0 X211.35 Y252.34
G0 X211.35 Y255.24
G0 X211.35 Y258.14
G0 X208.45 Y258.14
G0 X208.45 Y255.24
G0 X205.55 Y255.24
G0 X205.55 Y258.14
G0 X202.65 Y258.14
G0 X202.65 Y255.24
G0 X202.65 Y252.34
G0 X205.55 Y252.34
G0 X205.55 Y249.44
G0 X202.65 Y249.44
G0 X199.75 Y249.44
G0 X196.85 Y249.44
G0 X196.85 Y252.34
G0 X199.75 Y252.34
G0 X199.75 Y255.24
G0 X199.75 Y258.14
G0 X196.85 Y258.14
G0 X196.85 Y255.24
G0 X193.95 Y255.24
G0 X193.95 Y258.14
G0 X191.05 Y258.14
G0 X191.05 Y255.24
G0 X191.05 Y252.34
G0 X193.95 Y252.34
G0 X193.95 Y249.44
G0 X191.05 Y249.44
G0 X191.05 Y246.54
G0 X191.05 Y243.64
G0 X193.95 Y243.64
G0 X193.95 Y246.54
G0 X196.85 Y246.54
G0 X199.75 Y246.54
G0 X199.75 Y243.64
G0 X196.85 Y243.64
G0 X196.85 Y240.74
G0 X199.75 Y240.74
G0 X199.75 Y237.84
G0 X196.85 Y237.84
G0 X193.95 Y237.84
G0 X193.95 Y240.74
G0 X191.05 Y240.74
G0 X191.05 Y237.84
G0 X191.05 Y234.94
G0 X191.05 Y232.04
G0 X193.95 Y232.04
G0 X193.95 Y234.94
G0 X196.85 Y234.94
G0 X199.75 Y234.94
G0 X199.75 Y232.04
G0 X196.85 Y232.04
G0 X196.85 Y229.14
G0 X199.75 Y229.14
G0 X199.75 Y226.24
G0 X196.85 Y226.24
G0 X193.95 Y226.24
G0 X193.95 Y229.14
G0 X191.05 Y229.14
G0 X191.05 Y226.24
G0 X191.05 Y223.34
G0 X193.95 Y223.34
G0 X193.95 Y220.44
G0 X191.05 Y220.44
G0 X191.05 Y217.54
G0 X191.05 Y214.64
G0 X193.95 Y214.64
G0 X193.95 Y217.54
G0 X196.85 Y217.54
G0 X196.85 Y214.64
G0 X199.75 Y214.64
G0 X199.75 Y217.54
G0 X199.75 Y220.44
G0 X196.85 Y220.44
G0 X196.85 Y223.34
G0 X199.75 Y223.34
G0 X202.65 Y223.34
G0 X205.55 Y223.34
G0 X205.55 Y220.44
G0 X202.65 Y220.44
G0 X202.65 Y217.54
G0 X202.65 Y214.64
G0 X205.55 Y214.64
G0 X205.55 Y217.54
G0 X208.45 Y217.54
G0 X208.45 Y214.64
G0 X211.35 Y214.64
G0 X211.35 Y217.54
G0 X211.35 Y220.44
G0 X208.45 Y220.44
G0 X208.45 Y223.34
G0 X211.35 Y223.34
G0 X211.35 Y226.24
G0 X211.35 Y229.14
G0 X208.45 Y229.14
G0 X208.45 Y226.24
G0 X205.55 Y226.24
G0 X202.65 Y226.24
G0 X202.65 Y229.14
G0 X205.55 Y229.14
G0 X205.55 Y232.04
G0 X202.65 Y232.04
G0 X202.65 Y234.94
G0 X205.55 Y234.94
G0 X208.45 Y234.94
G0 X208.45 Y232.04
G0 X211.35 Y232.04
G0 X211.35 Y234.94
G0 X214.25 Y234.94
G0 X217.15 Y234.94
G0 X217.15 Y232.04
G0 X214.25 Y232.04
G0 X214.25 Y229.14
G0 X214.25 Y226.24
G0 X217.15 Y226.24
G0 X217.15 Y229.14
G0 X220.05 Y229.14
G0 X220.05 Y226.24
G0 X222.95 Y226.24
G0 X222.95 Y229.14
G0 X222.95 Y232.04
G0 X220.05 Y232.04
G0 X220.05 Y234.94
G0 X222.95 Y234.94
G0 X225.85 Y234.94
G0 X225.85 Y232.04
G0 X228.75 Y232.04
G0 X228.75 Y234.94
G0 X231.65 Y234.94
G0 X234.55 Y234.94
G0 X234.55 Y232.04
G0 X231.65 Y232.04
G0 X231.65 Y229.14
G0 X234.55 Y229.14
G0 X234.55 Y226.24
G0 X231.65 Y226.24
G0 X228.75 Y226.24
G0 X228.75 Y229.14
G0 X225.85 Y229.14
G0 X225.85 Y226.24
G0 X225.85 Y223.34
G0 X225.85 Y220.44
G0 X228.75 Y220.44
G0 X228.75 Y223.34
G0 X231.65 Y223.34
G0 X234.55 Y223.34
G0 X234.55 Y220.44
G0 X231.65 Y220.44
G0 X231.65 Y217.54
G0 X234.55 Y217.54
G0 X234.55 Y214.64
G0 X231.65 Y214.64
G0 X228.75 Y214.64
G0 X228.75 Y217.54
G0 X225.85 Y217.54
G0 X225.85 Y214.64
G0 X222.95 Y214.64
G0 X220.05 Y214.64
G0 X220.05 Y217.54
G0 X222.95 Y217.54
G0 X222.95 Y220.44
G0 X222.95 Y223.34
G0 X220.05 Y223.34
G0 X220.05 Y220.44
G0 X217.15 Y220.44
G0 X217.15 Y223.34
G0 X214.25 Y223.34
G0 X214.25 Y220.44
G0 X214.25 Y217.54
G0 X217.15 Y217.54
G0 X217.15 Y214.64
G0 X214.25 Y214.64
G0 X214.25 Y211.74
G0 X217.15 Y211.74
G0 X217.15 Y208.84
G0 X214.25 Y208.84
G0 X214.25 Y205.94
G0 X214.25 Y203.04
G0 X217.15 Y203.04
G0 X217.15 Y205.94
G0 X220.05 Y205.94
G0 X220.05 Y203.04
G0 X222.95 Y203.04
G0 X222.95 Y205.94
G0 X222.95 Y208.84
G0 X220.05 Y208.84
G0 X220.05 Y211.74
G0 X222.95 Y211.74
G0 X225.85 Y211.74
G0 X225.85 Y208.84
G0 X228.75 Y208.84
G0 X228.75 Y211.74
G0 X231.65 Y211.74
G0 X234.55 Y211.74
G0 X234.55 Y208.84
G0 X231.65 Y208.84
G0 X231.65 Y205.94
G0 X234.55 Y205.94
G0 X234.55 Y203.04
G0 X231.65 Y203.04
G0 X228.75 Y203.04
G0 X228.75 Y205.94
G0 X225.85 Y205.94
G0 X225.85 Y203.04
G0 X225.85 Y200.14
G0 X225.85 Y197.24
G0 X228.75 Y197.24
G0 X228.75 Y200.14
G0 X231.65 Y200.14
G0 X234.55 Y200.14
G0 X234.55 Y197.24
G0 X231.65 Y197.24
G0 X231.65 Y194.34
G0 X234.55 Y194.34
G0 X234.55 Y191.44
G0 X231.65 Y191.44
G0 X228.75 Y191.44
G0 X228.75 Y194.34
G0 X225.85 Y194.34
G0 X225.85 Y191.44
G0 X222.95 Y191.44
G0 X220.05 Y191.44
G0 X220.05 Y194.34
G0 X222.95 Y194.34
G0 X222.95 Y197.24
G0 X222.95 Y200.14
G0 X220.05 Y200.14
G0 X220.05 Y197.24
G0 X217.15 Y197.24
G0 X217.15 Y200.14
G0 X214.25 Y200.14
G0 X214.25 Y197.24
G0 X214.25 Y194.34
G0 X217.15 Y194.34
G0 X217.15 Y191.44
G0 X214.25 Y191.44
G0 X211.35 Y191.44
G0 X211.35 Y194.34
G0 X208.45 Y194.34
G0 X208.45 Y191.44
G0 X205.55 Y191.44
G0 X202.65 Y191.44
G0 X202.65 Y194.34
G0 X205.55 Y194.34
G0 X205.55 Y197.24
G0 X202.65 Y197.24
G0 X202.65 Y200.14
G0 X205.55 Y200.14
G0 X208.45 Y200.14
G0 X208.45 Y197.24
G0 X211.35 Y197.24
G0 X211.35 Y200.14
G0 X211.35 Y203.04
G0 X208.45 Y203.04
G0 X208.45 Y205.94
G0 X211.35 Y205.94
G0 X211.35 Y208.84
G0 X211.35 Y211.74
G0 X208.45 Y211.74
G0 X208.45 Y208.84
G0 X205.55 Y208.84
G0 X205.55 Y211.74
G0 X202.65 Y211.74
G0 X202.65 Y208.84
G0 X202.65 Y205.94
G0 X205.55 Y205.94
G0 X205.55 Y203.04
G0 X202.65 Y203.04
G0 X199.75 Y203.04
G0 X196.85 Y203.04
G0 X196.85 Y205.94
G0 X199.75 Y205.94
G0 X199.75 Y208.84
G0 X199.75 Y211.74
G0 X196.85 Y211.74
G0 X196.85 Y208.84
G0 X193.95 Y208.84
G0 X193.95 Y211.74
G0 X191.05 Y211.74
G0 X191.05 Y208.84
G0 X191.05 Y205.94
G0 X193.95 Y205.94
G0 X193.95 Y203.04
G0 X191.05 Y203.04
G0 X191.05 Y200.14
G0 X191.05 Y197.24
G0 X193.95 Y197.24
G0 X193.95 Y200.14
G0 X196.85 Y200.14
G0 X199.75 Y200.14
G0 X199.75 Y197.24
G0 X196.85 Y197.24
G0 X196.85 Y194.34
G0 X199.75 Y194.34
G0 X199.75 Y191.44
G0 X196.85 Y191.44
G0 X193.95 Y191.44
G0 X193.95 Y194.34
G0 X191.05 Y194.34
G0 X191.05 Y191.44
G0 X188.15 Y191.44
G0 X185.25 Y191.44
G0 X185.25 Y194.34
G0 X188.15 Y194.34
G0 X188.15 Y197.24
G0 X188.15 Y200.14
G0 X185.25 Y200.14
G0 X185.25 Y197.24
G0 X182.35 Y197.24
G0 X182.35 Y200.14
G0 X179.45 Y200.14
G0 X179.45 Y197.24
G0 X179.45 Y194.34
G0 X182.35 Y194.34
G0 X182.35 Y191.44
G0 X179.45 Y191.44
G0 X176.55 Y191.44
G0 X176.55 Y194.34
G0 X173.65 Y194.34
G0 X173.65 Y191.44
G0 X170.75 Y191.44
G0 X167.85 Y191.44
G0 X167.85 Y194.34
G0 X170.75 Y194.34
G0 X170.75 Y197.24
G0 X167.85 Y197.24
G0 X167.85 Y200.14
G0 X170.75 Y200.14
G0 X173.65 Y200.14
G0 X173.65 Y197.24
G0 X176.55 Y197.24
G0 X176.55 Y200.14
G0 X176.55 Y203.04
G0 X176.55 Y205.94
G0 X173.65 Y205.94
G0 X173.65 Y203.04
G0 X170.75 Y203.04
G0 X167.85 Y203.04
G0 X167.85 Y205.94
G0 X170.75 Y205.94
G0 X170.75 Y208.84
G0 X167.85 Y208.84
G0 X167.85 Y211.74
G0 X170.75 Y211.74
G0 X173.65 Y211.74
G0 X173.65 Y208.84
G0 X176.55 Y208.84
G0 X176.55 Y211.74
G0 X179.45 Y211.74
G0 X182.35 Y211.74
G0 X182.35 Y208.84
G0 X179.45 Y208.84
G0 X179.45 Y205.94
G0 X179.45 Y203.04
G0 X182.35 Y203.04
G0 X182.35 Y205.94
G0 X185.25 Y205.94
G0 X185.25 Y203.04
G0 X188.15 Y203.04
G0 X188.15 Y205.94
G0 X188.15 Y208.84
G0 X185.25 Y208.84
G0 X185.25 Y211.74
G0 X188.15 Y211.74
G0 X188.15 Y214.64
G0 X188.15 Y217.54
G0 X185.25 Y217.54
G0 X185.25 Y214.64
G0 X182.35 Y214.64
G0 X179.45 Y214.64
G0 X179.45 Y217.54
G0 X182.35 Y217.54
G0 X182.35 Y220.44
G0 X179.45 Y220.44
G0 X179.45 Y223.34
G0 X182.35 Y223.34
G0 X185.25 Y223.34
G0 X185.25 Y220.44
G0 X188.15 Y220.44
G0 X188.15 Y223.34
G0 X188.15 Y226.24
G0 X185.25 Y226.24
G0 X185.25 Y229.14
G0 X188.15 Y229.14
G0 X188.15 Y232.04
G0 X188.15 Y234.94
G0 X185.25 Y234.94
G0 X185.25 Y232.04
G0 X182.35 Y232.04
G0 X182.35 Y234.94
G0 X179.45 Y234.94
G0 X179.45 Y232.04
G0 X179.45 Y229.14
G0 X182.35 Y229.14
G0 X182.35 Y226.24
G0 X179.45 Y226.24
G0 X176.55 Y226.24
G0 X173.65 Y226.24
G0 X173.65 Y229.14
G0 X176.55 Y229.14
G0 X176.55 Y232.04
G0 X176.55 Y234.94
G0 X173.65 Y234.94
G0 X173.65 Y232.04
G0 X170.75 Y232.04
G0 X170.75 Y234.94
G0 X167.85 Y234.94
G0 X167.85 Y232.04
G0 X167.85 Y229.14
G0 X170.75 Y229.14
G0 X170.75 Y226.24
G0 X167.85 Y226.24
G0 X167.85 Y223.34
G0 X167.85 Y220.44
G0 X170.75 Y220.44
G0 X170.75 Y223.34
G0 X173.65 Y223.34
G0 X176.55 Y223.34
G0 X176.55 Y220.44
G0 X173.65 Y220.44
G0 X173.65 Y217.54
G0 X176.55 Y217.54
G0 X176.55 Y214.64
G0 X173.65 Y214.64
G0 X170.75 Y214.64
G0 X170.75 Y217.54
G0 X167.85 Y217.54
G0 X167.85 Y214.64
G0 X164.95 Y214.64
G0 X164.95 Y217.54
G0 X162.05 Y217.54
G0 X162.05 Y214.64
G0 X159.15 Y214.64
G0 X156.25 Y214.64
G0 X156.25 Y217.54
G0 X159.15 Y217.54
G0 X159.15 Y220.44
G0 X156.25 Y220.44
G0 X156.25 Y223.34
G0 X159.15 Y223.34
G0 X162.05 Y223.34
G0 X162.05 Y220.44
G0 X164.95 Y220.44
G0 X164.95 Y223.34
G0 X164.95 Y226.24
G0 X162.05 Y226.24
G0 X162.05 Y229.14
G0 X164.95 Y229.14
G0 X164.95 Y232.04
G0 X164.95 Y234.94
G0 X162.05 Y234.94
G0 X162.05 Y232.04
G0 X159.15 Y232.04
G0 X159.15 Y234.94
G0 X156.25 Y234.94
G0 X156.25 Y232.04
G0 X156.25 Y229.14
G0 X159.15 Y229.14
G0 X159.15 Y226.24
G0 X156.25 Y226.24
G0 X153.35 Y226.24
G0 X150.45 Y226.24
G0 X150.45 Y229.14
G0 X153.35 Y229.14
G0 X153.35 Y232.04
G0 X153.35 Y234.94
G0 X150.45 Y234.94
G0 X150.45 Y232.04
G0 X147.55 Y232.04
G0 X147.55 Y234.94
G0 X144.65 Y234.94
G0 X144.65 Y232.04
G0 X144.65 Y229.14
G0 X147.55 Y229.14
G0 X147.55 Y226.24
G0 X144.65 Y226.24
G0 X144.65 Y223.34
G0 X144.65 Y220.44
G0 X147.55 Y220.44
G0 X147.55 Y223.34
G0 X150.45 Y223.34
G0 X153.35 Y223.34
G0 X153.35 Y220.44
G0 X150.45 Y220.44
G0 X150.45 Y217.54
G0 X153.35 Y217.54
G0 X153.35 Y214.64
G0 X150.45 Y214.64
G0 X147.55 Y214.64
G0 X147.55 Y217.54
G0 X144.65 Y217.54
G0 X144.65 Y214.64
G0 X144.65 Y211.74
G0 X147.55 Y211.74
G0 X147.55 Y208.84
G0 X144.65 Y208.84
G0 X144.65 Y205.94
G0 X144.65 Y203.04
G0 X147.55 Y203.04
G0 X147.55 Y205.94
G0 X150.45 Y205.94
G0 X150.45 Y203.04
G0 X153.35 Y203.04
G0 X153.35 Y205.94
G0 X153.35 Y208.84
G0 X150.45 Y208.84
G0 X150.45 Y211.74
G0 X153.35 Y211.74
G0 X156.25 Y211.74
G0 X156.25 Y208.84
G0 X159.15 Y208.84
G0 X159.15 Y211.74
G0 X162.05 Y211.74
G0 X164.95 Y211.74
G0 X164.95 Y208.84
G0 X162.05 Y208.84
G0 X162.05 Y205.94
G0 X164.95 Y205.94
G0 X164.95 Y203.04
G0 X162.05 Y203.04
G0 X159.15 Y203.04
G0 X159.15 Y205.94
G0 X156.25 Y205.94
G0 X156.25 Y203.04
G0 X156.25 Y200.14
G0 X156.25 Y197.24
G0 X159.15 Y197.24
G0 X159.15 Y200.14
G0 X162.05 Y200.14
G0 X164.95 Y200.14
G0 X164.95 Y197.24
G0 X162.05 Y197.24
G0 X162.05 Y194.34
G0 X164.95 Y194.34
G0 X164.95 Y191.44
G0 X162.05 Y191.44
G0 X159.15 Y191.44
G0 X159.15 Y194.34
G0 X156.25 Y194.34
G0 X156.25 Y191.44
G0 X153.35 Y191.44
G0 X150.45 Y191.44
G0 X150.45 Y194.34
G0 X153.35 Y194.34
G0 X153.35 Y197.24
G0 X153.35 Y200.14
G0 X150.45 Y200.14
G0 X150.45 Y197.24
G0 X147.55 Y197.24
G0 X147.55 Y200.14
G0 X144.65 Y200.14
G0 X144.65 Y197.24
G0 X144.65 Y194.34
G0 X147.55 Y194.34
G0 X147.55 Y191.44
G0 X144.65 Y191.44
G0 X141.75 Y191.44
G0 X141.75 Y194.34
G0 X138.85 Y194.34
G0 X138.85 Y191.44
G0 X135.95 Y191.44
G0 X133.05 Y191.44
G0 X133.05 Y194.34
G0 X135.95 Y194.34
G0 X135.95 Y197.24
G0 X133.05 Y197.24
G0 X133.05 Y200.14
G0 X135.95 Y200.14
G0 X138.85 Y200.14
G0 X138.85 Y197.24
G0 X141.75 Y197.24
G0 X141.75 Y200.14
G0 X141.75 Y203.04
G0 X138.85 Y203.04
G0 X138.85 Y205.94
G0 X141.75 Y205.94
G0 X141.75 Y208.84
G0 X141.75 Y211.74
G0 X138.85 Y211.74
G0 X138.85 Y208.84
G0 X135.95 Y208.84
G0 X135.95 Y211.74
G0 X133.05 Y211.74
G0 X133.05 Y208.84
G0 X133.05 Y205.94
G0 X135.95 Y205.94
G0 X135.95 Y203.04
G0 X133.05 Y203.04
G0 X130.15 Y203.04
G0 X127.25 Y203.04
G0 X127.25 Y205.94
G0 X130.15 Y205.94
G0 X130.15 Y208.84
G0 X130.15 Y211.74
G0 X127.25 Y211.74
G0 X127.25 Y208.84
G0 X124.35 Y208.84
G0 X124.35 Y211.74
G0 X121.45 Y211.74
G0 X121.45 Y208.84
G0 X121.45 Y205.94
G0 X124.35 Y205.94
G0 X124.35 Y203.04
G0 X121.45 Y203.04
G0 X121.45 Y200.14
G0 X121.45 Y197.24
G0 X124.35 Y197.24
G0 X124.35 Y200.14
G0 X127.25 Y200.14
G0 X130.15 Y200.14
G0 X130.15 Y197.24
G0 X127.25 Y197.24
G0 X127.25 Y194.34
G0 X130.15 Y194.34
G0 X130.15 Y191.44
G0 X127.25 Y191.44
G0 X124.35 Y191.44
G0 X124.35 Y194.34
G0 X121.45 Y194.34
G0 X121.45 Y191.44
G0 X118.55 Y191.44
G0 X115.65 Y191.44
G0 X115.65 Y194.34
G0 X118.55 Y194.34
G0 X118.55 Y197.24
G0 X118.55 Y200.14
G0 X115.65 Y200.14
G0 X115.65 Y197.24
G0 X112.75 Y197.24
G0 X112.75 Y200.14
G0 X109.85 Y200.14
G0 X109.85 Y197.24
G0 X109.85 Y194.34
G0 X112.75 Y194.34
G0 X112.75 Y191.44
G0 X109.85 Y191.44
G0 X106.95 Y191.44
G0 X106.95 Y194.34
G0 X104.05 Y194.34
G0 X104.05 Y191.44
G0 X101.15 Y191.44
G0 X98.25 Y191.44
G0 X98.25 Y194.34
G0 X101.15 Y194.34
G0 X101.15 Y197.24
G0 X98.25 Y197.24
G0 X98.25 Y200.14
G0 X101.15 Y200.14
G0 X104.05 Y200.14
G0 X104.05 Y197.24
G0 X106.95 Y197.24
G0 X106.95 Y200.14
G0 X106.95 Y203.04
G0 X106.95 Y205.94
G0 X104.05 Y205.94
G0 X104.05 Y203.04
G0 X101.15 Y203.04
G0 X98.25 Y203.04
G0 X98.25 Y205.94
G0 X101.15 Y205.94
G0 X101.15 Y208.84
G0 X98.25 Y208.84
G0 X98.25 Y211.74
G0 X101.15 Y211.74
G0 X104.05 Y211.74
G0 X104.05 Y208.84
G0 X106.95 Y208.84
G0 X106.95 Y211.74
G0 X109.85 Y211.74
G0 X112.75 Y211.74
G0 X112.75 Y208.84
G0 X109.85 Y208.84
G0 X109.85 Y205.94
G0 X109.85 Y203.04
G0 X112.75 Y203.04
G0 X112.75 Y205.94
G0 X115.65 Y205.94
G0 X115.65 Y203.04
G0 X118.55 Y203.04
G0 X118.55 Y205.94
G0 X118.55 Y208.84
G0 X115.65 Y208.84
G0 X115.65 Y211.74
G0 X118.55 Y211.74
G0 X118.55 Y214.64
G0 X115.65 Y214.64
G0 X115.65 Y217.54
G0 X118.55 Y217.54
G0 X118.55 Y220.44
G0 X118.55 Y223.34
G0 X115.65 Y223.34
G0 X115.65 Y220.44
G0 X112.75 Y220.44
G0 X112.75 Y223.34
G0 X109.85 Y223.34
G0 X109.85 Y220.44
G0 X109.85 Y217.54
G0 X112.75 Y217.54
G0 X112.75 Y214.64
G0 X109.85 Y214.64
G0 X106.95 Y214.64
G0 X106.95 Y217.54
G0 X104.05 Y217.54
G0 X104.05 Y214.64
G0 X101.15 Y214.64
G0 X98.25 Y214.64
G0 X98.25 Y217.54
G0 X101.15 Y217.54
G0 X101.15 Y220.44
G0 X98.25 Y220.44
G0 X98.25 Y223.34
G0 X101.15 Y223.34
G0 X104.05 Y223.34
G0 X104.05 Y220.44
G0 X106.95 Y220.44
G0 X106.95 Y223.34
G0 X106.95 Y226.24
G0 X106.95 Y229.14
G0 X104.05 Y229.14
G0 X104.05 Y226.24
G0 X101.15 Y226.24
G0 X98.25 Y226.24
G0 X98.25 Y229.14
G0 X101.15 Y229.14
G0 X101.15 Y232.04
G0 X98.25 Y232.04
G0 X98.25 Y234.94
G0 X101.15 Y234.94
G0 X104.05 Y234.94
G0 X104.05 Y232.04
G0 X106.95 Y232.04
G0 X106.95 Y234.94
G0 X109.85 Y234.94
G0 X112.75 Y234.94
G0 X112.75 Y232.04
G0 X109.85 Y232.04
G0 X109.85 Y229.14
G0 X109.85 Y226.24
G0 X112.75 Y226.24
G0 X112.75 Y229.14
G0 X115.65 Y229.14
G0 X115.65 Y226.24
G0 X118.55 Y226.24
G0 X118.55 Y229.14
G0 X118.55 Y232.04
G0 X115.65 Y232.04
G0 X115.65 Y234.94
G0 X118.55 Y234.94
G0 X121.45 Y234.94
G0 X121.45 Y232.04
G0 X124.35 Y232.04
G0 X124.35 Y234.94
G0 X127.25 Y234.94
G0 X130.15 Y234.94
G0 X130.15 Y232.04
G0 X127.25 Y232.04
G0 X127.25 Y229.14
G0 X130.15 Y229.14
G0 X130.15 Y226.24
G0 X127.25 Y226.24
G0 X124.35 Y226.24
G0 X124.35 Y229.14
G0 X121.45 Y229.14
G0 X121.45 Y226.24
G0 X121.45 Y223.34
G0 X124.35 Y223.34
G0 X124.35 Y220.44
G0 X121.45 Y220.44
G0 X121.45 Y217.54
G0 X121.45 Y214.64
G0 X124.35 Y214.64
G0 X124.35 Y217.54
G0 X127.25 Y217.54
G0 X127.25 Y214.64
G0 X130.15 Y214.64
G0 X130.15 Y217.54
G0 X130.15 Y220.44
G0 X127.25 Y220.44
G0 X127.25 Y223.34
G0 X130.15 Y223.34
G0 X133.05 Y223.34
G0 X135.95 Y223.34
G0 X135.95 Y220.44
G0 X133.05 Y220.44
G0 X133.05 Y217.54
G0 X133.05 Y214.64
G0 X135.95 Y214.64
G0 X135.95 Y217.54
G0 X138.85 Y217.54
G0 X138.85 Y214.64
G0 X141.75 Y214.64
G0 X141.75 Y217.54
G0 X141.75 Y220.44
G0 X138.85 Y220.44
G0 X138.85 Y223.34
G0 X141.75 Y223.34
G0 X141.75 Y226.24
G0 X141.75 Y229.14
G0 X138.85 Y229.14
G0 X138.85 Y226.24
G0 X135.95 Y226.24
G0 X133.05 Y226.24
G0 X133.05 Y229.14
G0 X135.95 Y229.14
G0 X135.95 Y232.04
G0 X133.05 Y232.04
G0 X133.05 Y234.94
G0 X135.95 Y234.94
G0 X138.85 Y234.94
G0 X138.85 Y232.04
G0 X141.75 Y232.04
G0 X141.75 Y234.94
G0 X141.75 Y237.84
G0 X138.85 Y237.84
G0 X138.85 Y240.74
G0 X141.75 Y240.74
G0 X141.75 Y243.64
G0 X141.75 Y246.54
G0 X138.85 Y246.54
G0 X138.85 Y243.64
G0 X135.95 Y243.64
G0 X135.95 Y246.54
G0 X133.05 Y246.54
G0 X133.05 Y243.64
G0 X133.05 Y240.74
G0 X135.95 Y240.74
G0 X135.95 Y237.84
G0 X133.05 Y237.84
G0 X130.15 Y237.84
G0 X130.15 Y240.74
G0 X127.25 Y240.74
G0 X127.25 Y237.84
G0 X124.35 Y237.84
G0 X121.45 Y237.84
G0 X121.45 Y240.74
G0 X124.35 Y240.74
G0 X124.35 Y243.64
G0 X121.45 Y243.64
G0 X121.45 Y246.54
G0 X124.35 Y246.54
G0 X127.25 Y246.54
G0 X127.25 Y243.64
G0 X130.15 Y243.64
G0 X130.15 Y246.54
G0 X130.15 Y249.44
G0 X130.15 Y252.34
G0 X127.25 Y252.34
G0 X127.25 Y249.44
G0 X124.35 Y249.44
G0 X121.45 Y249.44
G0 X121.45 Y252.34
G0 X124.35 Y252.34
G0 X124.35 Y255.24
G0 X121.45 Y255.24
G0 X121.45 Y258.14
G0 X124.35 Y258.14
G0 X127.25 Y258.14
G0 X127.25 Y255.24
G0 X130.15 Y255.24
G0 X130.15 Y258.14
G0 X133.05 Y258.14
G0 X135.95 Y258.14
G0 X135.95 Y255.24
G0 X133.05 Y255.24
G0 X133.05 Y252.34
G0 X133.05 Y249.44
G0 X135.95 Y249.44
G0 X135.95 Y252.34
G0 X138.85 Y252.34
G0 X138.85 Y249.44
G0 X141.75 Y249.44
G0 X141.75 Y252.34
G0 X141.75 Y255.24
G0 X138.85 Y255.24
G0 X138.85 Y258.14
G0 X141.75 Y258.14
G0 X141.75 Y261.04
G0 X141.75 Y263.94
G0 X138.85 Y263.94
G0 X138.85 Y261.04
G0 X135.95 Y261.04
G0 X133.05 Y261.04
G0 X133.05 Y263.94
G0 X135.95 Y263.94
G0 X135.95 Y266.84
G0 X133.05 Y266.84
G0 X133.05 Y269.74
G0 X135.95 Y269.74
G0 X138.85 Y269.74
G0 X138.85 Y266.84
G0 X141.75 Y266.84
G0 X141.75 Y269.74
G0 X141.75 Y272.64
G0 X138.85 Y272.64
G0 X138.85 Y275.54
G0 X141.75 Y275.54
G0 X141.75 Y278.44
G0 X141.75 Y281.34
G0 X138.85 Y281.34
G0 X138.85 Y278.44
G0 X135.95 Y278.44
G0 X135.95 Y281.34
G0 X133.05 Y281.34
G0 X133.05 Y278.44
G0 X133.05 Y275.54
G0 X135.95 Y275.54
G0 X135.95 Y272.64
G0 X133.05 Y272.64
G0 X130.15 Y272.64
G0 X127.25 Y272.64
G0 X127.25 Y275.54
G0 X130.15 Y275.54
G0 X130.15 Y278.44
G0 X130.15 Y281.34
G0 X127.25 Y281.34
G0 X127.25 Y278.44
G0 X124.35 Y278.44
G0 X124.35 Y281.34
G0 X121.45 Y281.34
G0 X121.45 Y278.44
G0 X121.45 Y275.54
G0 X124.35 Y275.54
G0 X124.35 Y272.64
G0 X121.45 Y272.64
G0 X121.45 Y269.74
G0 X121.45 Y266.84
G0 X124.35 Y266.84
G0 X124.35 Y269.74
G0 X127.25 Y269.74
G0 X130.15 Y269.74
G0 X130.15 Y266.84
G0 X127.25 Y266.84
G0 X127.25 Y263.94
G0 X130.15 Y263.94
G0 X130.15 Y261.04
G0 X127.25 Y261.04
G0 X124.35 Y261.04
G0 X124.35 Y263.94
G0 X121.45 Y263.94
G0 X121.45 Y261.04
G0 X118.55 Y261.04
G0 X118.55 Y263.94
G0 X115.65 Y263.94
G0 X115.65 Y261.04
G0 X112.75 Y261.04
G0 X109.85 Y261.04
G0 X109.85 Y263.94
G0 X112.75 Y263.94
G0 X112.75 Y266.84
G0 X109.85 Y266.84
G0 X109.85 Y269.74
G0 X112.75 Y269.74
G0 X115.65 Y269.74
G0 X115.65 Y266.84
G0 X118.55 Y266.84
G0 X118.55 Y269.74
G0 X118.55 Y272.64
G0 X115.65 Y272.64
G0 X115.65 Y275.54
G0 X118.55 Y275.54
G0 X118.55 Y278.44
G0 X118.55 Y281.34
G0 X115.65 Y281.34
G0 X115.65 Y278.44
G0 X112.75 Y278.44
G0 X112.75 Y281.34
G0 X109.85 Y281.34
G0 X109.85 Y278.44
G0 X109.85 Y275.54
G0 X112.75 Y275.54
G0 X112.75 Y272.64
G0 X109.85 Y272.64
G0 X106.95 Y272.64
G0 X104.05 Y272.64
G0 X104.05 Y275.54
G0 X106.95 Y275.54
G0 X106.95 Y278.44
G0 X106.95 Y281.34
G0 X104.05 Y281.34
G0 X104.05 Y278.44
G0 X101.15 Y278.44
G0 X101.15 Y281.34
G0 X98.25 Y281.34
G0 X98.25 Y278.44
G0 X98.25 Y275.54
G0 X101.15 Y275.54
G0 X101.15 Y272.64
G0 X98.25 Y272.64
G0 X98.25 Y269.74
G0 X98.25 Y266.84
G0 X101.15 Y266.84
G0 X101.15 Y269.74
G0 X104.05 Y269.74
G0 X106.95 Y269.74
G0 X106.95 Y266.84
G0 X104.05 Y266.84
G0 X104.05 Y263.94
G0 X106.95 Y263.94
G0 X106.95 Y261.04
G0 X104.05 Y261.04
G0 X101.15 Y261.04
G0 X101.15 Y263.94
G0 X98.25 Y263.94
G0 X98.25 Y261.04
G0 X98.25 Y258.14
G0 X101.15 Y258.14
G0 X101.15 Y255.24
G0 X98.25 Y255.24
G0 X98.25 Y252.34
G0 X98.25 Y249.44
G0 X101.15 Y249.44
G0 X101.15 Y252.34
G0 X104.05 Y252.34
G0 X104.05 Y249.44
G0 X106.95 Y249.44
G0 X106.95 Y252.34
G0 X106.95 Y255.24
G0 X104.05 Y255.24
G0 X104.05 Y258.14
G0 X106.95 Y258.14
G0 X109.85 Y258.14
G0 X109.85 Y255.24
G0 X112.75 Y255.24
G0 X112.75 Y258.14
G0 X115.65 Y258.14
G0 X118.55 Y258.14
G0 X118.55 Y255.24
G0 X115.65 Y255.24
G0 X115.65 Y252.34
G0 X118.55 Y252.34
G0 X118.55 Y249.44
G0 X115.65 Y249.44
G0 X112.75 Y249.44
G0 X112.75 Y252.34
G0 X109.85 Y252.34
G0 X109.85 Y249.44
G0 X109.85 Y246.54
G0 X109.85 Y243.64
G0 X112.75 Y243.64
G0 X112.75 Y246.54
G0 X115.65 Y246.54
G0 X118.55 Y246.54
G0 X118.55 Y243.64
G0 X115.65 Y243.64
G0 X115.65 Y240.74
G0 X118.55 Y240.74
G0 X118.55 Y237.84
G0 X115.65 Y237.84
G0 X112.75 Y237.84
G0 X112.75 Y240.74
G0 X109.85 Y240.74
G0 X109.85 Y237.84
G0 X106.95 Y237.84
G0 X104.05 Y237.84
G0 X104.05 Y240.74
G0 X106.95 Y240.74
G0 X106.95 Y243.64
G0 X106.95 Y246.54
G0 X104.05 Y246.54
G0 X104.05 Y243.64
G0 X101.15 Y243.64
G0 X101.15 Y246.54
G0 X98.25 Y246.54
G0 X98.25 Y243.64
G0 X98.25 Y240.74
G0 X101.15 Y240.74
G0 X101.15 Y237.84
G0 X98.25 Y237.84
G0 X95.35 Y237.84
G0 X92.45 Y237.84
G0 X92.45 Y240.74
G0 X95.35 Y240.74
G0 X95.35 Y243.64
G0 X95.35 Y246.54
G0 X92.45 Y246.54
G0 X92.45 Y243.64
G0 X89.55 Y243.64
G0 X89.55 Y246.54
G0 X86.65 Y246.54
G0 X86.65 Y243.64
G0 X86.65 Y240.74
G0 X89.55 Y240.74
G0 X89.55 Y237.84
G0 X86.65 Y237.84
G0 X83.75 Y237.84
G0 X83.75 Y240.74
G0 X80.85 Y240.74
G0 X80.85 Y237.84
G0 X77.95 Y237.84
G0 X75.05 Y237.84
G0 X75.05 Y240.74
G0 X77.95 Y240.74
G0 X77.95 Y243.64
G0 X75.05 Y243.64
G0 X75.05 Y246.54
G0 X77.95 Y246.54
G0 X80.85 Y246.54
G0 X80.85 Y243.64
G0 X83.75 Y243.64
G0 X83.75 Y246.54
G0 X83.75 Y249.44
G0 X83.75 Y252.34
G0 X80.85 Y252.34
G0 X80.85 Y249.44
G0 X77.95 Y249.44
G0 X75.05 Y249.44
G0 X75.05 Y252.34
G0 X77.95 Y252.34
G0 X77.95 Y255.24
G0 X75.05 Y255.24
G0 X75.05 Y258.14
G0 X77.95 Y258.14
G0 X80.85 Y258.14
G0 X80.85 Y255.24
G0 X83.75 Y255.24
G0 X83.75 Y258.14
G0 X86.65 Y258.14
G0 X89.55 Y258.14
G0 X89.55 Y255.24
G0 X86.65 Y255.24
G0 X86.65 Y252.34
G0 X86.65 Y249.44
G0 X89.55 Y249.44
G0 X89.55 Y252.34
G0 X92.45 Y252.34
G0 X92.45 Y249.44
G0 X95.35 Y249.44
G0 X95.35 Y252.34
G0 X95.35 Y255.24
G0 X92.45 Y255.24
G0 X92.45 Y258.14
G0 X95.35 Y258.14
G0 X95.35 Y261.04
G0 X95.35 Y263.94
G0 X92.45 Y263.94
G0 X92.45 Y261.04
G0 X89.55 Y261.04
G0 X86.65 Y261.04
G0 X86.65 Y263.94
G0 X89.55 Y263.94
G0 X89.55 Y266.84
G0 X86.65 Y266.84
G0 X86.65 Y269.74
G0 X89.55 Y269.74
G0 X92.45 Y269.74
G0 X92.45 Y266.84
G0 X95.35 Y266.84
G0 X95.35 Y269.74
G0 X95.35 Y272.64
G0 X92.45 Y272.64
G0 X92.45 Y275.54
G0 X95.35 Y275.54
G0 X95.35 Y278.44
G0 X95.35 Y281.34
G0 X92.45 Y281.34
G0 X92.45 Y278.44
G0 X89.55 Y278.44
G0 X89.55 Y281.34
G0 X86.65 Y281.34
G0 X86.65 Y278.44
G0 X86.65 Y275.54
G0 X89.55 Y275.54
G0 X89.55 Y272.64
G0 X86.65 Y272.64
G0 X83.75 Y272.64
G0 X80.85 Y272.64
G0 X80.85 Y275.54
G0 X83.75 Y275.54
G0 X83.75 Y278.44
G0 X83.75 Y281.34
G0 X80.85 Y281.34
G0 X80.85 Y278.44
G0 X77.95 Y278.44
G0 X77.95 Y281.34
G0 X75.05 Y281.34
G0 X75.05 Y278.44
G0 X75.05 Y275.54
G0 X77.95 Y275.54
G0 X77.95 Y272.64
G0 X75.05 Y272.64
G0 X75.05 Y269.74
G0 X75.05 Y266.84
G0 X77.95 Y266.84
G0 X77.95 Y269.74
G0 X80.85 Y269.74
G0 X83.75 Y269.74
G0 X83.75 Y266.84
G0 X80.85 Y266.84
G0 X80.85 Y263.94
G0 X83.75 Y263.94
G0 X83.75 Y261.04
G0 X80.85 Y261.04
G0 X77.95 Y261.04
G0 X77.95 Y263.94
G0 X75.05 Y263.94
G0 X75.05 Y261.04
G0 X72.15 Y261.04
G0 X72.15 Y263.94
G0 X69.25 Y263.94
G0 X69.25 Y261.04
G0 X66.35 Y261.04
G0 X63.45 Y261.04
G0 X63.45 Y263.94
G0 X66.35 Y263.94
G0 X66.35 Y266.84
G0 X63.45 Y266.84
G0 X63.45 Y269.74
G0 X66.35 Y269.74
G0 X69.25 Y269.74
G0 X69.25 Y266.84
G0 X72.15 Y266.84
G0 X72.15 Y269.74
G0 X72.15 Y272.64
G0 X69.25 Y272.64
G0 X69.25 Y275.54
G0 X72.15 Y275.54
G0 X72.15 Y278.44
G0 X72.15 Y281.34
G0 X69.25 Y281.34
G0 X69.25 Y278.44
G0 X66.35 Y278.44
G0 X66.35 Y281.34
G0 X63.45 Y281.34
G0 X63.45 Y278.44
G0 X63.45 Y275.54
G0 X66.35 Y275.54
G0 X66.35 Y272.64
G0 X63.45 Y272.64
G0 X60.55 Y272.64
G0 X57.65 Y272.64
G0 X57.65 Y275.54
G0 X60.55 Y275.54
G0 X60.55 Y278.44
G0 X60.55 Y281.34
G0 X57.65 Y281.34
G0 X57.65 Y278.44
G0 X54.75 Y278.44
G0 X54.75 Y281.34
G0 X51.85 Y281.34
G0 X51.85 Y278.44
G0 X51.85 Y275.54
G0 X54.75 Y275.54
G0 X54.75 Y272.64
G0 X51.85 Y272.64
G0 X51.85 Y269.74
G0 X51.85 Y266.84
G0 X54.75 Y266.84
G0 X54.75 Y269.74
G0 X57.65 Y269.74
G0 X60.55 Y269.74
G0 X60.55 Y266.84
G0 X57.65 Y266.84
G0 X57.65 Y263.94
G0 X60.55 Y263.94
G0 X60.55 Y261.04
G0 X57.65 Y261.04
G0 X54.75 Y261.04
G0 X54.75 Y263.94
G0 X51.85 Y263.94
G0 X51.85 Y261.04
G0 X51.85 Y258.14
G0 X54.75 Y258.14
G0 X54.75 Y255.24
G0 X51.85 Y255.24
G0 X51.85 Y252.34
G0 X51.85 Y249.44
G0 X54.75 Y249.44
G0 X54.75 Y252.34
G0 X57.65 Y252.34
G0 X57.65 Y249.44
G0 X60.55 Y249.44
G0 X60.55 Y252.34
G0 X60.55 Y255.24
G0 X57.65 Y255.24
G0 X57.65 Y258.14
G0 X60.55 Y258.14
G0 X63.45 Y258.14
G0 X63.45 Y255.24
G0 X66.35 Y255.24
G0 X66.35 Y258.14
G0 X69.25 Y258.14
G0 X72.15 Y258.14
G0 X72.15 Y255.24
G0 X69.25 Y255.24
G0 X69.25 Y252.34
G0 X72.15 Y252.34
G0 X72.15 Y249.44
G0 X69.25 Y249.44
G0 X66.35 Y249.44
G0 X66.35 Y252.34
G0 X63.45 Y252.34
G0 X63.45 Y249.44
G0 X63.45 Y246.54
G0 X63.45 Y243.64
G0 X66.35 Y243.64
G0 X66.35 Y246.54
G0 X69.25 Y246.54
G0 X72.15 Y246.54
G0 X72.15 Y243.64
G0 X69.25 Y243.64
G0 X69.25 Y240.74
G0 X72.15 Y240.74
G0 X72.15 Y237.84
G0 X69.25 Y237.84
G0 X66.35 Y237.84
G0 X66.35 Y240.74
G0 X63.45 Y240.74
G0 X63.45 Y237.84
G0 X60.55 Y237.84
G0 X57.65 Y237.84
G0 X57.65 Y240.74
G0 X60.55 Y240.74
G0 X60.55 Y243.64
G0 X60.55 Y246.54
G0 X57.65 Y246.54
G0 X57.65 Y243.64
G0 X54.75 Y243.64
G0 X54.75 Y246.54
G0 X51.85 Y246.54
G0 X51.85 Y243.64
G0 X51.85 Y240.74
G0 X54.75 Y240.74
G0 X54.75 Y237.84
G0 X51.85 Y237.84
G0 X51.85 Y234.94
G0 X51.85 Y232.04
G0 X54.75 Y232.04
G0 X54.75 Y234.94
G0 X57.65 Y234.94
G0 X60.55 Y234.94
G0 X60.55 Y232.04
G0 X57.65 Y232.04
G0 X57.65 Y229.14
G0 X60.55 Y229.14
G0 X60.55 Y226.24
G0 X57.65 Y226.24
G0 X54.75 Y226.24
G0 X54.75 Y229.14
G0 X51.85 Y229.14
G0 X51.85 Y226.24
G0 X51.85 Y223.34
G0 X54.75 Y223.34
G0 X54.75 Y220.44
G0 X51.85 Y220.44
G0 X51.85 Y217.54
G0 X51.85 Y214.64
G0 X54.75 Y214.64
G0 X54.75 Y217.54
G0 X57.65 Y217.54
G0 X57.65 Y214.64
G0 X60.55 Y214.64
G0 X60.55 Y217.54
G0 X60.55 Y220.44
G0 X57.65 Y220.44
G0 X57.65 Y223.34
G0 X60.55 Y223.34
G0 X63.45 Y223.34
G0 X66.35 Y223.34
G0 X66.35 Y220.44
G0 X63.45 Y220.44
G0 X63.45 Y217.54
G0 X63.45 Y214.64
G0 X66.35 Y214.64
G0 X66.35 Y217.54
G0 X69.25 Y217.54
G0 X69.25 Y214.64
G0 X72.15 Y214.64
G0 X72.15 Y217.54
G0 X72.15 Y220.44
G0 X69.25 Y220.44
G0 X69.25 Y223.34
G0 X72.15 Y223.34
G0 X72.15 Y226.24
G0 X72.15 Y229.14
G0 X69.25 Y229.14
G0 X69.25 Y226.24
G0 X66.35 Y226.24
G0 X63.45 Y226.24
G0 X63.45 Y229.14
G0 X66.35 Y229.14
G0 X66.35 Y232.04
G0 X63.45 Y232.04
G0 X63.45 Y234.94
G0 X66.35 Y234.94
G0 X69.25 Y234.94
G0 X69.25 Y232.04
G0 X72.15 Y232.04
G0 X72.15 Y234.94
G0 X75.05 Y234.94
G0 X77.95 Y234.94
G0 X77.95 Y232.04
G0 X75.05 Y232.04
G0 X75.05 Y229.14
G0 X75.05 Y226.24
G0 X77.95 Y226.24
G0 X77.95 Y229.14
G0 X80.85 Y229.14
G0 X80.85 Y226.24
G0 X83.75 Y226.24
G0 X83.75 Y229.14
G0 X83.75 Y232.04
G0 X80.85 Y232.04
G0 X80.85 Y234.94
G0 X83.75 Y234.94
G0 X86.65 Y234.94
G0 X86.65 Y232.04
G0 X89.55 Y232.04
G0 X89.55 Y234.94
G0 X92.45 Y234.94
G0 X95.35 Y234.94
G0 X95.35 Y232.04
G0 X92.45 Y232.04
G0 X92.45 Y229.14
G0 X95.35 Y229.14
G0 X95.35 Y226.24
G0 X92.45 Y226.24
G0 X89.55 Y226.24
G0 X89.55 Y229.14
G0 X86.65 Y229.14
G0 X86.65 Y226.24
G0 X86.65 Y223.34
G0 X86.65 Y220.44
G0 X89.55 Y220.44
G0 X89.55 Y223.34
G0 X92.45 Y223.34
G0 X95.35 Y223.34
G0 X95.35 Y220.44
G0 X92.45 Y220.44
G0 X92.45 Y217.54
G0 X95.35 Y217.54
G0 X95.35 Y214.64
G0 X92.45 Y214.64
G0 X89.55 Y214.64
G0 X89.55 Y217.54
G0 X86.65 Y217.54
G0 X86.65 Y214.64
G0 X83.75 Y214.64
G0 X80.85 Y214.64
G0 X80.85 Y217.54
G0 X83.75 Y217.54
G0 X83.75 Y220.44
G0 X83.75 Y223.34
G0 X80.85 Y223.34
G0 X80.85 Y220.44
G0 X77.95 Y220.44
G0 X77.95 Y223.34
G0 X75.05 Y223.34
G0 X75.05 Y220.44
G0 X75.05 Y217.54
G0 X77.95 Y217.54
G0 X77.95 Y214.64
G0 X75.05 Y214.64
G0 X75.05 Y211.74
G0 X77.95 Y211.74
G0 X77.95 Y208.84
G0 X75.05 Y208.84
G0 X75.05 Y205.94
G0 X75.05 Y203.04
G0 X77.95 Y203.04
G0 X77.95 Y205.94
G0 X80.85 Y205.94
G0 X80.85 Y203.04
G0 X83.75 Y203.04
G0 X83.75 Y205.94
G0 X83.75 Y208.84
G0 X80.85 Y208.84
G0 X80.85 Y211.74
G0 X83.75 Y211.74
G0 X86.65 Y211.74
G0 X86.65 Y208.84
G0 X89.55 Y208.84
G0 X89.55 Y211.74
G0 X92.45 Y211.74
G0 X95.35 Y211.74
G0 X95.35 Y208.84
G0 X92.45 Y208.84
G0 X92.45 Y205.94
G0 X95.35 Y205.94
G0 X95.35 Y203.04
G0 X92.45 Y203.04
G0 X89.55 Y203.04
G0 X89.55 Y205.94
G0 X86.65 Y205.94
G0 X86.65 Y203.04
G0 X86.65 Y200.14
G0 X86.65 Y197.24
G0 X89.55 Y197.24
G0 X89.55 Y200.14
G0 X92.45 Y200.14
G0 X95.35 Y200.14
G0 X95.35 Y197.24
G0 X92.45 Y197.24
G0 X92.45 Y194.34
G0 X95.35 Y194.34
G0 X95.35 Y191.44
G0 X92.45 Y191.44
G0 X89.55 Y191.44
G0 X89.55 Y194.34
G0 X86.65 Y194.34
G0 X86.65 Y191.44
G0 X83.75 Y191.44
G0 X80.85 Y191.44
G0 X80.85 Y194.34
G0 X83.75 Y194.34
G0 X83.75 Y197.24
G0 X83.75 Y200.14
G0 X80.85 Y200.14
G0 X80.85 Y197.24
G0 X77.95 Y197.24
G0 X77.95 Y200.14
G0 X75.05 Y200.14
G0 X75.05 Y197.24
G0 X75.05 Y194.34
G0 X77.95 Y194.34
G0 X77.95 Y191.44
G0 X75.05 Y191.44
G0 X72.15 Y191.44
G0 X72.15 Y194.34
G0 X69.25 Y194.34
G0 X69.25 Y191.44
G0 X66.35 Y191.44
G0 X63.45 Y191.44
G0 X63.45 Y194.34
G0 X66.35 Y194.34
G0 X66.35 Y197.24
G0 X63.45 Y197.24
G0 X63.45 Y200.14
G0 X66.35 Y200.14
G0 X69.25 Y200.14
G0 X69.25 Y197.24
G0 X72.15 Y197.24
G0 X72.15 Y200.14
G0 X72.15 Y203.04
G0 X69.25 Y203.04
G0 X69.25 Y205.94
G0 X72.15 Y205.94
G0 X72.15 Y208.84
G0 X72.15 Y211.74
G0 X69.25 Y211.74
G0 X69.25 Y208.84
G0 X66.35 Y208.84
G0 X66.35 Y211.74
G0 X63.45 Y211.74
G0 X63.45 Y208.84
G0 X63.45 Y205.94
G0 X66.35 Y205.94
G0 X66.35 Y203.04
G0 X63.45 Y203.04
G0 X60.55 Y203.04
G0 X57.65 Y203.04
G0 X57.65 Y205.94
G0 X60.55 Y205.94
G0 X60.55 Y208.84
G0 X60.55 Y211.74
G0 X57.65 Y211.74
G0 X57.65 Y208.84
G0 X54.75 Y208.84
G0 X54.75 Y211.74
G0 X51.85 Y211.74
G0 X51.85 Y208.84
G0 X51.85 Y205.94
G0 X54.75 Y205.94
G0 X54.75 Y203.04
G0 X51.85 Y203.04
G0 X51.85 Y200.14
G0 X51.85 Y197.24
G0 X54.75 Y197.24
G0 X54.75 Y200.14
G0 X57.65 Y200.14
G0 X60.55 Y200.14
G0 X60.55 Y197.24
G0 X57.65 Y197.24
G0 X57.65 Y194.34
G0 X60.55 Y194.34
G0 X60.55 Y191.44
G0 X57.65 Y191.44
G0 X54.75 Y191.44
G0 X54.75 Y194.34
G0 X51.85 Y194.34
G0 X51.85 Y191.44
G0 X51.85 Y188.54
G0 X54.75 Y188.54
G0 X54.75 Y185.64
G0 X51.85 Y185.64
G0 X51.85 Y182.74
G0 X51.85 Y179.84
G0 X54.75 Y179.84
G0 X54.75 Y182.74
G0 X57.65 Y182.74
G0 X57.65 Y179.84
G0 X60.55 Y179.84
G0 X60.55 Y182.74
G0 X60.55 Y185.64
G0 X57.65 Y185.64
G0 X57.65 Y188.54
G0 X60.55 Y188.54
G0 X63.45 Y188.54
G0 X63.45 Y185.64
G0 X66.35 Y185.64
G0 X66.35 Y188.54
G0 X69.25 Y188.54
G0 X72.15 Y188.54
G0 X72.15 Y185.64
G0 X69.25 Y185.64
G0 X69.25 Y182.74
G0 X72.15 Y182.74
G0 X72.15 Y179.84
G0 X69.25 Y179.84
G0 X66.35 Y179.84
G0 X66.35 Y182.74
G0 X63.45 Y182.74
G0 X63.45 Y179.84
G0 X63.45 Y176.94
G0 X63.45 Y174.04
G0 X66.35 Y174.04
G0 X66.35 Y176.94
G0 X69.25 Y176.94
G0 X72.15 Y176.94
G0 X72.15 Y174.04
G0 X69.25 Y174.04
G0 X69.25 Y171.14
G0 X72.15 Y171.14
G0 X72.15 Y168.24
G0 X69.25 Y168.24
G0 X66.35 Y168.24
G0 X66.35 Y171.14
G0 X63.45 Y171.14
G0 X63.45 Y168.24
G0 X60.55 Y168.24
G0 X57.65 Y168.24
G0 X57.65 Y171.14
G0 X60.55 Y171.14
G0 X60.55 Y174.04
G0 X60.55 Y176.94
G0 X57.65 Y176.94
G0 X57.65 Y174.04
G0 X54.75 Y174.04
G0 X54.75 Y176.94
G0 X51.85 Y176.94
G0 X51.85 Y174.04
G0 X51.85 Y171.14
G0 X54.75 Y171.14
G0 X54.75 Y168.24
G0 X51.85 Y168.24
G0 X51.85 Y165.34
G0 X51.85 Y162.44
G0 X54.75 Y162.44
G0 X54.75 Y165.34
G0 X57.65 Y165.34
G0 X60.55 Y165.34
G0 X60.55 Y162.44
G0 X57.65 Y162.44
G0 X57.65 Y159.54
G0 X60.55 Y159.54
G0 X60.55 Y156.64
G0 X57.65 Y156.64
G0 X54.75 Y156.64
G0 X54.75 Y159.54
G0 X51.85 Y159.54
G0 X51.85 Y156.64
G0 X51.85 Y153.74
G0 X54.75 Y153.74
G0 X54.75 Y150.84
G0 X51.85 Y150.84
G0 X51.85 Y147.94
G0 X51.85 Y145.04
G0 X54.75 Y145.04
G0 X54.75 Y147.94
G0 X57.65 Y147.94
G0 X57.65 Y145.04
G0 X60.55 Y145.04
G0 X60.55 Y147.94
G0 X60.55 Y150.84
G0 X57.65 Y150.84
G0 X57.65 Y153.74
G0 X60.55 Y153.74
G0 X63.45 Y153.74
G0 X66.35 Y153.74
G0 X66.35 Y150.84
G0 X63.45 Y150.84
G0 X63.45 Y147.94
G0 X63.45 Y145.04
G0 X66.35 Y145.04
G0 X66.35 Y147.94
G0 X69.25 Y147.94
G0 X69.25 Y145.04
G0 X72.15 Y145.04
G0 X72.15 Y147.94
G0 X72.15 Y150.84
G0 X69.25 Y150.84
G0 X69.25 Y153.74
G0 X72.15 Y153.74
G0 X72.15 Y156.64
G0 X72.15 Y159.54
G0 X69.25 Y159.54
G0 X69.25 Y156.64
G0 X66.35 Y156.64
G0 X63.45 Y156.64
G0 X63.45 Y159.54
G0 X66.35 Y159.54
G0 X66.35 Y162.44
G0 X63.45 Y162.44
G0 X63.45 Y165.34
G0 X66.35 Y165.34
G0 X69.25 Y165.34
G0 X69.25 Y162.44
G0 X72.15 Y162.44
G0 X72.15 Y165.34
G0 X75.05 Y165.34
G0 X75.05 Y162.44
G0 X77.95 Y162.44
G0 X77.95 Y165.34
G0 X80.85 Y165.34
G0 X83.75 Y165.34
G0 X83.75 Y162.44
G0 X80.85 Y162.44
G0 X80.85 Y159.54
G0 X83.75 Y159.54
G0 X83.75 Y156.64
G0 X80.85 Y156.64
G0 X77.95 Y156.64
G0 X77.95 Y159.54
G0 X75.05 Y159.54
G0 X75.05 Y156.64
G0 X75.05 Y153.74
G0 X77.95 Y153.74
G0 X77.95 Y150.84
G0 X75.05 Y150.84
G0 X75.05 Y147.94
G0 X75.05 Y145.04
G0 X77.95 Y145.04
G0 X77.95 Y147.94
G0 X80.85 Y147.94
G0 X80.85 Y145.04
G0 X83.75 Y145.04
G0 X83.75 Y147.94
G0 X83.75 Y150.84
G0 X80.85 Y150.84
G0 X80.85 Y153.74
G0 X83.75 Y153.74
G0 X86.65 Y153.74
G0 X89.55 Y153.74
G0 X89.55 Y150.84
G0 X86.65 Y150.84
G0 X86.65 Y147.94
G0 X86.65 Y145.04
G0 X89.55 Y145.04
G0 X89.55 Y147.94
G0 X92.45 Y147.94
G0 X92.45 Y145.04
G0 X95.35 Y145.04
G0 X95.35 Y147.94
G0 X95.35 Y150.84
G0 X92.45 Y150.84
G0 X92.45 Y153.74
G0 X95.35 Y153.74
G0 X95.35 Y156.64
G0 X95.35 Y159.54
G0 X92.45 Y159.54
G0 X92.45 Y156.64
G0 X89.55 Y156.64
G0 X86.65 Y156.64
G0 X86.65 Y159.54
G0 X89.55 Y159.54
G0 X89.55 Y162.44
G0 X86.65 Y162.44
G0 X86.65 Y165.34
G0 X89.55 Y165.34
G0 X92.45 Y165.34
G0 X92.45 Y162.44
G0 X95.35 Y162.44
G0 X95.35 Y165.34
G0 X95.35 Y168.24
G0 X92.45 Y168.24
G0 X92.45 Y171.14
G0 X95.35 Y171.14
G0 X95.35 Y174.04
G0 X95.35 Y176.94
G0 X92.45 Y176.94
G0 X92.45 Y174.04
G0 X89.55 Y174.04
G0 X89.55 Y176.94
G0 X86.65 Y176.94
G0 X86.65 Y174.04
G0 X86.65 Y171.14
G0 X89.55 Y171.14
G0 X89.55 Y168.24
G0 X86.65 Y168.24
G0 X83.75 Y168.24
G0 X83.75 Y171.14
G0 X80.85 Y171.14
G0 X80.85 Y168.24
G0 X77.95 Y168.24
G0 X75.05 Y168.24
G0 X75.05 Y171.14
G0 X77.95 Y171.14
G0 X77.95 Y174.04
G0 X75.05 Y174.04
G0 X75.05 Y176.94
G0 X77.95 Y176.94
G0 X80.85 Y176.94
G0 X80.85 Y174.04
G0 X83.75 Y174.04
G0 X83.75 Y176.94
G0 X83.75 Y179.84
G0 X83.75 Y182.74
G0 X80.85 Y182.74
G0 X80.85 Y179.84
G0 X77.95 Y179.84
G0 X75.05 Y179.84
G0 X75.05 Y182.74
G0 X77.95 Y182.74
G0 X77.95 Y185.64
G0 X75.05 Y185.64
G0 X75.05 Y188.54
G0 X77.95 Y188.54
G0 X80.85 Y188.54
G0 X80.85 Y185.64
G0 X83.75 Y185.64
G0 X83.75 Y188.54
G0 X86.65 Y188.54
G0 X89.55 Y188.54
G0 X89.55 Y185.64
G0 X86.65 Y185.64
G0 X86.65 Y182.74
G0 X86.65 Y179.84
G0 X89.55 Y179.84
G0 X89.55 Y182.74
G0 X92.45 Y182.74
G0 X92.45 Y179.84
G0 X95.35 Y179.84
G0 X95.35 Y182.74
G0 X95.35 Y185.64
G0 X92.45 Y185.64
G0 X92.45 Y188.54
G0 X95.35 Y188.54
G0 X98.25 Y188.54
G0 X98.25 Y185.64
G0 X101.15 Y185.64
G0 X101.15 Y188.54
G0 X104.05 Y188.54
G0 X106.95 Y188.54
G0 X106.95 Y185.64
G0 X104.05 Y185.64
G0 X104.05 Y182.74
G0 X106.95 Y182.74
G0 X106.95 Y179.84
G0 X104.05 Y179.84
G0 X101.15 Y179.84
G0 X101.15 Y182.74
G0 X98.25 Y182.74
G0 X98.25 Y179.84
G0 X98.25 Y176.94
G0 X101.15 Y176.94
G0 X101.15 Y174.04
G0 X98.25 Y174.04
G0 X98.25 Y171.14
G0 X98.25 Y168.24
G0 X101.15 Y168.24
G0 X101.15 Y171.14
G0 X104.05 Y171.14
G0 X104.05 Y168.24
G0 X106.95 Y168.24
G0 X106.95 Y171.14
G0 X106.95 Y174.04
G0 X104.05 Y174.04
G0 X104.05 Y176.94
G0 X106.95 Y176.94
G0 X109.85 Y176.94
G0 X112.75 Y176.94
G0 X112.75 Y174.04
G0 X109.85 Y174.04
G0 X109.85 Y171.14
G0 X109.85 Y168.24
G0 X112.75 Y168.24
G0 X112.75 Y171.14
G0 X115.65 Y171.14
G0 X115.65 Y168.24
G0 X118.55 Y168.24
G0 X118.55 Y171.14
G0 X118.55 Y174.04
G0 X115.65 Y174.04
G0 X115.65 Y176.94
G0 X118.55 Y176.94
G0 X118.55 Y179.84
G0 X118.55 Y182.74
G0 X115.65 Y182.74
G0 X115.65 Y179.84
G0 X112.75 Y179.84
G0 X109.85 Y179.84
G0 X109.85 Y182.74
G0 X112.75 Y182.74
G0 X112.75 Y185.64
G0 X109.85 Y185.64
G0 X109.85 Y188.54
G0 X112.75 Y188.54
G0 X115.65 Y188.54
G0 X115.65 Y185.64
G0 X118.55 Y185.64
G0 X118.55 Y188.54
G0 X121.45 Y188.54
G0 X124.35 Y188.54
G0 X124.35 Y185.64
G0 X121.45 Y185.64
G0 X121.45 Y182.74
G0 X121.45 Y179.84
G0 X124.35 Y179.84
G0 X124.35 Y182.74
G0 X127.25 Y182.74
G0 X127.25 Y179.84
G0 X130.15 Y179.84
G0 X130.15 Y182.74
G0 X130.15 Y185.64
G0 X127.25 Y185.64
G0 X127.25 Y188.54
G0 X130.15 Y188.54
G0 X133.05 Y188.54
G0 X133.05 Y185.64
G0 X135.95 Y185.64
G0 X135.95 Y188.54
G0 X138.85 Y188.54
G0 X141.75 Y188.54
G0 X141.75 Y185.64
G0 X138.85 Y185.64
G0 X138.85 Y182.74
G0 X141.75 Y182.74
G0 X141.75 Y179.84
G0 X138.85 Y179.84
G0 X135.95 Y179.84
G0 X135.95 Y182.74
G0 X133.05 Y182.74
G0 X133.05 Y179.84
G0 X133.05 Y176.94
G0 X133.05 Y174.04
G0 X135.95 Y174.04
G0 X135.95 Y176.94
G0 X138.85 Y176.94
G0 X141.75 Y176.94
G0 X141.75 Y174.04
G0 X138.85 Y174.04
G0 X138.85 Y171.14
G0 X141.75 Y171.14
G0 X141.75 Y168.24
G0 X138.85 Y168.24
G0 X135.95 Y168.24
G0 X135.95 Y171.14
G0 X133.05 Y171.14
G0 X133.05 Y168.24
G0 X130.15 Y168.24
G0 X127.25 Y168.24
G0 X127.25 Y171.14
G0 X130.15 Y171.14
G0 X130.15 Y174.04
G0 X130.15 Y176.94
G0 X127.25 Y176.94
G0 X127.25 Y174.04
G0 X124.35 Y174.04
G0 X124.35 Y176.94
G0 X121.45 Y176.94
G0 X121.45 Y174.04
G0 X121.45 Y171.14
G0 X124.35 Y171.14
G0 X124.35 Y168.24
G0 X121.45 Y168.24
G0 X121.45 Y165.34
G0 X124.35 Y165.34
G0 X124.35 Y162.44
G0 X121.45 Y162.44
G0 X121.45 Y159.54
G0 X121.45 Y156.64
G0 X124.35 Y156.64
G0 X124.35 Y159.54
G0 X127.25 Y159.54
G0 X127.25 Y156.64
G0 X130.15 Y156.64
G0 X130.15 Y159.54
G0 X130.15 Y162.44
G0 X127.25 Y162.44
G0 X127.25 Y165.34
G0 X130.15 Y165.34
G0 X133.05 Y165.34
G0 X133.05 Y162.44
G0 X135.95 Y162.44
G0 X135.95 Y165.34
G0 X138.85 Y165.34
G0 X141.75 Y165.34
G0 X141.75 Y162.44
G0 X138.85 Y162.44
G0 X138.85 Y159.54
G0 X141.75 Y159.54
G0 X141.75 Y156.64
G0 X138.85 Y156.64
G0 X135.95 Y156.64
G0 X135.95 Y159.54
G0 X133.05 Y159.54
G0 X133.05 Y156.64
G0 X133.05 Y153.74
G0 X133.05 Y150.84
G0 X135.95 Y150.84
G0 X135.95 Y153.74
G0 X138.85 Y153.74
G0 X141.75 Y153.74
G0 X141.75 Y150.84
G0 X138.85 Y150.84
G0 X138.85 Y147.94
G0 X141.75 Y147.94
G0 X141.75 Y145.04
G0 X138.85 Y145.04
G0 X135.95 Y145.04
G0 X135.95 Y147.94
G0 X133.05 Y147.94
G0 X133.05 Y145.04
G0 X130.15 Y145.04
G0 X127.25 Y145.04
G0 X127.25 Y147.94
G0 X130.15 Y147.94
G0 X130.15 Y150.84
G0 X130.15 Y153.74
G0 X127.25 Y153.74
G0 X127.25 Y150.84
G0 X124.35 Y150.84
G0 X124.35 Y153.74
G0 X121.45 Y153.74
G0 X121.45 Y150.84
G0 X121.45 Y147.94
G0 X124.35 Y147.94
G0 X124.35 Y145.04
G0 X121.45 Y145.04
G0 X118.55 Y145.04
G0 X118.55 Y147.94
G0 X115.65 Y147.94
G0 X115.65 Y145.04
G0 X112.75 Y145.04
G0 X109.85 Y145.04
G0 X109.85 Y147.94
G0 X112.75 Y147.94
G0 X112.75 Y150.84
G0 X109.85 Y150.84
G0 X109.85 Y153.74
G0 X112.75 Y153.74
G0 X115.65 Y153.74
G0 X115.65 Y150.84
G0 X118.55 Y150.84
G0 X118.55 Y153.74
G0 X118.55 Y156.64
G0 X115.65 Y156.64
G0 X115.65 Y159.54
G0 X118.55 Y159.54
G0 X118.55 Y162.44
G0 X118.55 Y165.34
G0 X115.65 Y165.34
G0 X115.65 Y162.44
G0 X112.75 Y162.44
G0 X112.75 Y165.34
G0 X109.85 Y165.34
G0 X109.85 Y162.44
G0 X109.85 Y159.54
G0 X112.75 Y159.54
G0 X112.75 Y156.64
G0 X109.85 Y156.64
G0 X106.95 Y156.64
G0 X104.05 Y156.64
G0 X104.05 Y159.54
G0 X106.95 Y159.54
G0 X106.95 Y162.44
G0 X106.95 Y165.34
G0 X104.05 Y165.34
G0 X104.05 Y162.44
G0 X101.15 Y162.44
G0 X101.15 Y165.34
G0 X98.25 Y165.34
G0 X98.25 Y162.44
G0 X98.25 Y159.54
G0 X101.15 Y159.54
G0 X101.15 Y156.64
G0 X98.25 Y156.64
G0 X98.25 Y153.74
G0 X98.25 Y150.84
G0 X101.15 Y150.84
G0 X101.15 Y153.74
G0 X104.05 Y153.74
G0 X106.95 Y153.74
G0 X106.95 Y150.84
G0 X104.05 Y150.84
G0 X104.05 Y147.94
G0 X106.95 Y147.94
G0 X106.95 Y145.04
G0 X104.05 Y145.04
G0 X101.15 Y145.04
G0 X101.15 Y147.94
G0 X98.25 Y147.94
G0 X98.25 Y145.04
G0 X98.25 Y142.14
G0 X98.25 Y139.24
G0 X101.15 Y139.24
G0 X101.15 Y142.14
G0 X104.05 Y142.14
G0 X106.95 Y142.14
G0 X106.95 Y139.24
G0 X104.05 Y139.24
G0 X104.05 Y136.34
G0 X106.95 Y136.34
G0 X106.95 Y133.44
G0 X104.05 Y133.44
G0 X101.15 Y133.44
G0 X101.15 Y136.34
G0 X98.25 Y136.34
G0 X98.25 Y133.44
G0 X98.25 Y130.54
G0 X101.15 Y130.54
G0 X101.15 Y127.64
G0 X98.25 Y127.64
G0 X98.25 Y124.74
G0 X98.25 Y121.84
G0 X101.15 Y121.84
G0 X101.15 Y124.74
G0 X104.05 Y124.74
G0 X104.05 Y121.84
G0 X106.95 Y121.84
G0 X106.95 Y124.74
G0 X106.95 Y127.64
G0 X104.05 Y127.64
G0 X104.05 Y130.54
G0 X106.95 Y130.54
G0 X109.85 Y130.54
G0 X112.75 Y130.54
G0 X112.75 Y127.64
G0 X109.85 Y127.64
G0 X109.85 Y124.74
G0 X109.85 Y121.84
G0 X112.75 Y121.84
G0 X112.75 Y124.74
G0 X115.65 Y124.74
G0 X115.65 Y121.84
G0 X118.55 Y121.84
G0 X118.55 Y124.74
G0 X118.55 Y127.64
G0 X115.65 Y127.64
G0 X115.65 Y130.54
G0 X118.55 Y130.54
G0 X118.55 Y133.44
G0 X118.55 Y136.34
G0 X115.65 Y136.34
G0 X115.65 Y133.44
G0 X112.75 Y133.44
G0 X109.85 Y133.44
G0 X109.85 Y136.34
G0 X112.75 Y136.34
G0 X112.75 Y139.24
G0 X109.85 Y139.24
G0 X109.85 Y142.14
G0 X112.75 Y142.14
G0 X115.65 Y142.14
G0 X115.65 Y139.24
G0 X118.55 Y139.24
G0 X118.55 Y142.14
G0 X121.45 Y142.14
G0 X124.35 Y142.14
G0 X124.35 Y139.24
G0 X121.45 Y139.24
G0 X121.45 Y136.34
G0 X121.45 Y133.44
G0 X124.35 Y133.44
G0 X124.35 Y136.34
G0 X127.25 Y136.34
G0 X127.25 Y133.44
G0 X130.15 Y133.44
G0 X130.15 Y136.34
G0 X130.15 Y139.24
G0 X127.25 Y139.24
G0 X127.25 Y142.14
G0 X130.15 Y142.14
G0 X133.05 Y142.14
G0 X133.05 Y139.24
G0 X135.95 Y139.24
G0 X135.95 Y142.14
G0 X138.85 Y142.14
G0 X141.75 Y142.14
G0 X141.75 Y139.24
G0 X138.85 Y139.24
G0 X138.85 Y136.34
G0 X141.75 Y136.34
G0 X141.75 Y133.44
G0 X138.85 Y133.44
G0 X135.95 Y133.44
G0 X135.95 Y136.34
G0 X133.05 Y136.34
G0 X133.05 Y133.44
G0 X133.05 Y130.54
G0 X133.05 Y127.64
G0 X135.95 Y127.64
G0 X135.95 Y130.54
G0 X138.85 Y130.54
G0 X141.75 Y130.54
G0 X141.75 Y127.64
G0 X138.85 Y127.64
G0 X138.85 Y124.74
G0 X141.75 Y124.74
G0 X141.75 Y121.84
G0 X138.85 Y121.84
G0 X135.95 Y121.84
G0 X135.95 Y124.74
G0 X133.05 Y124.74
G0 X133.05 Y121.84
G0 X130.15 Y121.84
G0 X127.25 Y121.84
G0 X127.25 Y124.74
G0 X130.15 Y124.74
G0 X130.15 Y127.64
G0 X130.15 Y130.54
G0 X127.25 Y130.54
G0 X127.25 Y127.64
G0 X124.35 Y127.64
G0 X124.35 Y130.54
G0 X121.45 Y130.54
G0 X121.45 Y127.64
G0 X121.45 Y124.74
G0 X124.35 Y124.74
G0 X124.35 Y121.84
G0 X121.45 Y121.84
G0 X121.45 Y118.94
G0 X124.35 Y118.94
G0 X124.35 Y116.04
G0 X121.45 Y116.04
G0 X121.45 Y113.14
G0 X121.45 Y110.24
G0 X124.35 Y110.24
G0 X124.35 Y113.14
G0 X127.25 Y113.14
G0 X127.25 Y110.24
G0 X130.15 Y110.24
G0 X130.15 Y113.14
G0 X130.15 Y116.04
G0 X127.25 Y116.04
G0 X127.25 Y118.94
G0 X130.15 Y118.94
G0 X133.05 Y118.94
G0 X133.05 Y116.04
G0 X135.95 Y116.04
G0 X135.95 Y118.94
G0 X138.85 Y118.94
G0 X141.75 Y118.94
G0 X141.75 Y116.04
G0 X138.85 Y116.04
G0 X138.85 Y113.14
G0 X141.75 Y113.14
G0 X141.75 Y110.24
G0 X138.85 Y110.24
G0 X135.95 Y110.24
G0 X135.95 Y113.14
G0 X133.05 Y113.14
G0 X133.05 Y110.24
G0 X133.05 Y107.34
G0 X133.05 Y104.44
G0 X135.95 Y104.44
G0 X135.95 Y107.34
G0 X138.85 Y107.34
G0 X141.75 Y107.34
G0 X141.75 Y104.44
G0 X138.85 Y104.44
G0 X138.85 Y101.54
G0 X141.75 Y101.54
G0 X141.75 Y98.64
G0 X138.85 Y98.64
G0 X135.95 Y98.64
G0 X135.95 Y101.54
G0 X133.05 Y101.54
G0 X133.05 Y98.64
G0 X130.15 Y98.64
G0 X127.25 Y98.64
G0 X127.25 Y101.54
G0 X130.15 Y101.54
G0 X130.15 Y104.44
G0 X130.15 Y107.34
G0 X127.25 Y107.34
G0 X127.25 Y104.44
G0 X124.35 Y104.44
G0 X124.35 Y107.34
G0 X121.45 Y107.34
G0 X121.45 Y104.44
G0 X121.45 Y101.54
G0 X124.35 Y101.54
G0 X124.35 Y98.64
G0 X121.45 Y98.64
G0 X118.55 Y98.64
G0 X118.55 Y101.54
G0 X115.65 Y101.54
G0 X115.65 Y98.64
G0 X112.75 Y98.64
G0 X109.85 Y98.64
G0 X109.85 Y101.54
G0 X112.75 Y101.54
G0 X112.75 Y104.44
G0 X109.85 Y104.44
G0 X109.85 Y107.34
G0 X112.75 Y107.34
G0 X115.65 Y107.34
G0 X115.65 Y104.44
G0 X118.55 Y104.44
G0 X118.55 Y107.34
G0 X118.55 Y110.24
G0 X115.65 Y110.24
G0 X115.65 Y113.14
G0 X118.55 Y113.14
G0 X118.55 Y116.04
G0 X118.55 Y118.94
G0 X115.65 Y118.94
G0 X115.65 Y116.04
G0 X112.75 Y116.04
G0 X112.75 Y118.94
G0 X109.85 Y118.94
G0 X109.85 Y116.04
G0 X109.85 Y113.14
G0 X112.75 Y113.14
G0 X112.75 Y110.24
G0 X109.85 Y110.24
G0 X106.95 Y110.24
G0 X104.05 Y110.24
G0 X104.05 Y113.14
G0 X106.95 Y113.14
G0 X106.95 Y116.04
G0 X106.95 Y118.94
G0 X104.05 Y118.94
G0 X104.05 Y116.04
G0 X101.15 Y116.04
G0 X101.15 Y118.94
G0 X98.25 Y118.94
G0 X98.25 Y116.04
G0 X98.25 Y113.14
G0 X101.15 Y113.14
G0 X101.15 Y110.24
G0 X98.25 Y110.24
G0 X98.25 Y107.34
G0 X98.25 Y104.44
G0 X101.15 Y104.44
G0 X101.15 Y107.34
G0 X104.05 Y107.34
G0 X106.95 Y107.34
G0 X106.95 Y104.44
G0 X104.05 Y104.44
G0 X104.05 Y101.54
G0 X106.95 Y101.54
G0 X106.95 Y98.64
G0 X104.05 Y98.64
G0 X101.15 Y98.64
G0 X101.15 Y101.54
G0 X98.25 Y101.54
G0 X98.25 Y98.64
G0 X95.35 Y98.64
G0 X92.45 Y98.64
G0 X92.45 Y101.54
G0 X95.35 Y101.54
G0 X95.35 Y104.44
G0 X95.35 Y107.34
G0 X92.45 Y107.34
G0 X92.45 Y104.44
G0 X89.55 Y104.44
G0 X89.55 Y107.34
G0 X86.65 Y107.34
G0 X86.65 Y104.44
G0 X86.65 Y101.54
G0 X89.55 Y101.54
G0 X89.55 Y98.64
G0 X86.65 Y98.64
G0 X83.75 Y98.64
G0 X83.75 Y101.54
G0 X80.85 Y101.54
G0 X80.85 Y98.64
G0 X77.95 Y98.64
G0 X75.05 Y98.64
G0 X75.05 Y101.54
G0 X77.95 Y101.54
G0 X77.95 Y104.44
G0 X75.05 Y104.44
G0 X75.05 Y107.34
G0 X77.95 Y107.34
G0 X80.85 Y107.34
G0 X80.85 Y104.44
G0 X83.75 Y104.44
G0 X83.75 Y107.34
G0 X83.75 Y110.24
G0 X83.75 Y113.14
G0 X80.85 Y113.14
G0 X80.85 Y110.24
G0 X77.95 Y110.24
G0 X75.05 Y110.24
G0 X75.05 Y113.14
G0 X77.95 Y113.14
G0 X77.95 Y116.04
G0 X75.05 Y116.04
G0 X75.05 Y118.94
G0 X77.95 Y118.94
G0 X80.85 Y118.94
G0 X80.85 Y116.04
G0 X83.75 Y116.04
G0 X83.75 Y118.94
G0 X86.65 Y118.94
G0 X89.55 Y118.94
G0 X89.55 Y116.04
G0 X86.65 Y116.04
G0 X86.65 Y113.14
G0 X86.65 Y110.24
G0 X89.55 Y110.24
G0 X89.55 Y113.14
G0 X92.45 Y113.14
G0 X92.45 Y110.24
G0 X95.35 Y110.24
G0 X95.35 Y113.14
G0 X95.35 Y116.04
G0 X92.45 Y116.04
G0 X92.45 Y118.94
G0 X95.35 Y118.94
G0 X95.35 Y121.84
G0 X95.35 Y124.74
G0 X92.45 Y124.74
G0 X92.45 Y121.84
G0 X89.55 Y121.84
G0 X86.65 Y121.84
G0 X86.65 Y124.74
G0 X89.55 Y124.74
G0 X89.55 Y127.64
G0 X86.65 Y127.64
G0 X86.65 Y130.54
G0 X89.55 Y130.54
G0 X92.45 Y130.54
G0 X92.45 Y127.64
G0 X95.35 Y127.64
G0 X95.35 Y130.54
G0 X95.35 Y133.44
G0 X92.45 Y133.44
G0 X92.45 Y136.34
G0 X95.35 Y136.34
G0 X95.35 Y139.24
G0 X95.35 Y142.14
G0 X92.45 Y142.14
G0 X92.45 Y139.24
G0 X89.55 Y139.24
G0 X89.55 Y142.14
G0 X86.65 Y142.14
G0 X86.65 Y139.24
G0 X86.65 Y136.34
G0 X89.55 Y136.34
G0 X89.55 Y133.44
G0 X86.65 Y133.44
G0 X83.75 Y133.44
G0 X80.85 Y133.44
G0 X80.85 Y136.34
G0 X83.75 Y136.34
G0 X83.75 Y139.24
G0 X83.75 Y142.14
G0 X80.85 Y142.14
G0 X80.85 Y139.24
G0 X77.95 Y139.24
G0 X77.95 Y142.14
G0 X75.05 Y142.14
G0 X75.05 Y139.24
G0 X75.05 Y136.34
G0 X77.95 Y136.34
G0 X77.95 Y133.44
G0 X75.05 Y133.44
G0 X75.05 Y130.54
G0 X75.05 Y127.64
G0 X77.95 Y127.64
G0 X77.95 Y130.54
G0 X80.85 Y130.54
G0 X83.75 Y130.54
G0 X83.75 Y127.64
G0 X80.85 Y127.64
G0 X80.85 Y124.74
G0 X83.75 Y124.74
G0 X83.75 Y121.84
G0 X80.85 Y121.84
G0 X77.95 Y121.84
G0 X77.95 Y124.74
G0 X75.05 Y124.74
G0 X75.05 Y121.84
G0 X72.15 Y121.84
G0 X72.15 Y124.74
G0 X69.25 Y124.74
G0 X69.25 Y121.84
G0 X66.35 Y121.84
G0 X63.45 Y121.84
G0 X63.45 Y124.74
G0 X66.35 Y124.74
G0 X66.35 Y127.64
G0 X63.45 Y127.64
G0 X63.45 Y130.54
G0 X66.35 Y130.54
G0 X69.25 Y130.54
G0 X69.25 Y127.64
G0 X72.15 Y127.64
G0 X72.15 Y130.54
G0 X72.15 Y133.44
G0 X69.25 Y133.44
G0 X69.25 Y136.34
G0 X72.15 Y136.34
G0 X72.15 Y139.24
G0 X72.15 Y142.14
G0 X69.25 Y142.14
G0 X69.25 Y139.24
G0 X66.35 Y139.24
G0 X66.35 Y142.14
G0 X63.45 Y142.14
G0 X63.45 Y139.24
G0 X63.45 Y136.34
G0 X66.35 Y136.34
G0 X66.35 Y133.44
G0 X63.45 Y133.44
G0 X60.55 Y133.44
G0 X57.65 Y133.44
G0 X57.65 Y136.34
G0 X60.55 Y136.34
G0 X60.55 Y139.24
G0 X60.55 Y142.14
G0 X57.65 Y142.14
G0 X57.65 Y139.24
G0 X54.75 Y139.24
G0 X54.75 Y142.14
G0 X51.85 Y142.14
G0 X51.85 Y139.24
G0 X51.85 Y136.34
G0 X54.75 Y136.34
G0 X54.75 Y133.44
G0 X51.85 Y133.44
G0 X51.85 Y130.54
G0 X51.85 Y127.64
G0 X54.75 Y127.64
G0 X54.75 Y130.54
G0 X57.65 Y130.54
G0 X60.55 Y130.54
G0 X60.55 Y127.64
G0 X57.65 Y127.64
G0 X57.65 Y124.74
G0 X60.55 Y124.74
G0 X60.55 Y121.84
G0 X57.65 Y121.84
G0 X54.75 Y121.84
G0 X54.75 Y124.74
G0 X51.85 Y124.74
G0 X51.85 Y121.84
G0 X51.85 Y118.94
G0 X54.75 Y118.94
G0 X54.75 Y116.04
G0 X51.85 Y116.04
G0 X51.85 Y113.14
G0 X51.85 Y110.24
G0 X54.75 Y110.24
G0 X54.75 Y113.14
G0 X57.65 Y113.14
G0 X57.65 Y110.24
G0 X60.55 Y110.24
G0 X60.55 Y113.14
G0 X60.55 Y116.04
G0 X57.65 Y116.04
G0 X57.65 Y118.94
G0 X60.55 Y118.94
G0 X63.45 Y118.94
G0 X63.45 Y116.04
G0 X66.35 Y116.04
G0 X66.35 Y118.94
G0 X69.25 Y118.94
G0 X72.15 Y118.94
G0 X72.15 Y116.04
G0 X69.25 Y116.04
G0 X69.25 Y113.14
G0 X72.15 Y113.14
G0 X72.15 Y110.24
G0 X69.25 Y110.24
G0 X66.35 Y110.24
G0 X66.35 Y113.14
G0 X63.45 Y113.14
G0 X63.45 Y110.24
G0 X63.45 Y107.34
G0 X63.45 Y104.44
G0 X66.35 Y104.44
G0 X66.35 Y107.34
G0 X69.25 Y107.34
G0 X72.15 Y107.34
G0 X72.15 Y104.44
G0 X69.25 Y104.44
G0 X69.25 Y101.54
G0 X72.15 Y101.54
G0 X72.15 Y98.64
G0 X69.25 Y98.64
G0 X66.35 Y98.64
G0 X66.35 Y101.54
G0 X63.45 Y101.54
G0 X63.45 Y98.64
G0 X60.55 Y98.64
G0 X57.65 Y98.64
G0 X57.65 Y101.54
G0 X60.55 Y101.54
G0 X60.55 Y104.44
G0 X60.55 Y107.34
G0 X57.65 Y107.34
G0 X57.65 Y104.44
G0 X54.75 Y104.44
G0 X54.75 Y107.34
G0 X51.85 Y107.34
G0 X51.85 Y104.44
G0 X51.85 Y101.54
G0 X54.75 Y101.54
G0 X54.75 Y98.64
G0 X51.85 Y98.64
G0 X51.85 Y95.74
G0 X51.85 Y92.84
G0 X54.75 Y92.84
G0 X54.75 Y95.74
G0 X57.65 Y95.74
G0 X60.55 Y95.74
G0 X60.55 Y92.84
G0 X57.65 Y92.84
G0 X57.65 Y89.94
G0 X60.55 Y89.94
G0 X60.55 Y87.04
G0 X57.65 Y87.04
G0 X54.75 Y87.04
G0 X54.75 Y89.94
G0 X51.85 Y89.94
G0 X51.85 Y87.04
G0 X51.85 Y84.14
G0 X54.75 Y84.14
G0 X54.75 Y81.24
G0 X51.85 Y81.24
G0 X51.85 Y78.34
G0 X51.85 Y75.44
G0 X54.75 Y75.44
G0 X54.75 Y78.34
G0 X57.65 Y78.34
G0 X57.65 Y75.44
G0 X60.55 Y75.44
G0 X60.55 Y78.34
G0 X60.55 Y81.24
G0 X57.65 Y81.24
G0 X57.65 Y84.14
G0 X60.55 Y84.14
G0 X63.45 Y84.14
G0 X66.35 Y84.14
G0 X66.35 Y81.24
G0 X63.45 Y81.24
G0 X63.45 Y78.34
G0 X63.45 Y75.44
G0 X66.35 Y75.44
G0 X66.35 Y78.34
G0 X69.25 Y78.34
G0 X69.25 Y75.44
G0 X72.15 Y75.44
G0 X72.15 Y78.34
G0 X72.15 Y81.24
G0 X69.25 Y81.24
G0 X69.25 Y84.14
G0 X72.15 Y84.14
G0 X72.15 Y87.04
G0 X72.15 Y89.94
G0 X69.25 Y89.94
G0 X69.25 Y87.04
G0 X66.35 Y87.04
G0 X63.45 Y87.04
G0 X63.45 Y89.94
G0 X66.35 Y89.94
G0 X66.35 Y92.84
G0 X63.45 Y92.84
G0 X63.45 Y95.74
G0 X66.35 Y95.74
G0 X69.25 Y95.74
G0 X69.25 Y92.84
G0 X72.15 Y92.84
G0 X72.15 Y95.74
G0 X75.05 Y95.74
G0 X77.95 Y95.74
G0 X77.95 Y92.84
G0 X75.05 Y92.84
G0 X75.05 Y89.94
G0 X75.05 Y87.04
G0 X77.95 Y87.04
G0 X77.95 Y89.94
G0 X80.85 Y89.94
G0 X80.85 Y87.04
G0 X83.75 Y87.04
G0 X83.75 Y89.94
G0 X83.75 Y92.84
G0 X80.85 Y92.84
G0 X80.85 Y95.74
G0 X83.75 Y95.74
G0 X86.65 Y95.74
G0 X86.65 Y92.84
G0 X89.55 Y92.84
G0 X89.55 Y95.74
G0 X92.45 Y95.74
G0 X95.35 Y95.74
G0 X95.35 Y92.84
G0 X92.45 Y92.84
G0 X92.45 Y89.94
G0 X95.35 Y89.94
G0 X95.35 Y87.04
G0 X92.45 Y87.04
G0 X89.55 Y87.04
G0 X89.55 Y89.94
G0 X86.65 Y89.94
G0 X86.65 Y87.04
G0 X86.65 Y84.14
G0 X86.65 Y81.24
G0 X89.55 Y81.24
G0 X89.55 Y84.14
G0 X92.45 Y84.14
G0 X95.35 Y84.14
G0 X95.35 Y81.24
G0 X92.45 Y81.24
G0 X92.45 Y78.34
G0 X95.35 Y78.34
G0 X95.35 Y75.44
G0 X92.45 Y75.44
G0 X89.55 Y75.44
G0 X89.55 Y78.34
G0 X86.65 Y78.34
G0 X86.65 Y75.44
G0 X83.75 Y75.44
G0 X80.85 Y75.44
G0 X80.85 Y78.34
G0 X83.75 Y78.34
G0 X83.75 Y81.24
G0 X83.75 Y84.14
G0 X80.85 Y84.14
G0 X80.85 Y81.24
G0 X77.95 Y81.24
G0 X77.95 Y84.14
G0 X75.05 Y84.14
G0 X75.05 Y81.24
G0 X75.05 Y78.34
G0 X77.95 Y78.34
G0 X77.95 Y75.44
G0 X75.05 Y75.44
G0 X75.05 Y72.54
G0 X77.95 Y72.54
G0 X77.95 Y69.64
G0 X75.05 Y69.64
G0 X75.05 Y66.74
G0 X75.05 Y63.84
G0 X77.95 Y63.84
G0 X77.95 Y66.74
G0 X80.85 Y66.74
G0 X80.85 Y63.84
G0 X83.75 Y63.84
G0 X83.75 Y66.74
G0 X83.75 Y69.64
G0 X80.85 Y69.64
G0 X80.85 Y72.54
G0 X83.75 Y72.54
G0 X86.65 Y72.54
G0 X86.65 Y69.64
G0 X89.55 Y69.64
G0 X89.55 Y72.54
G0 X92.45 Y72.54
G0 X95.35 Y72.54
G0 X95.35 Y69.64
G0 X92.45 Y69.64
G0 X92.45 Y66.74
G0 X95.35 Y66.74
G0 X95.35 Y63.84
G0 X92.45 Y63.84
G0 X89.55 Y63.84
G0 X89.55 Y66.74
G0 X86.65 Y66.74
G0 X86.65 Y63.84
G0 X86.65 Y60.94
G0 X86.65 Y58.04
G0 X89.55 Y58.04
G0 X89.55 Y60.94
G0 X92.45 Y60.94
G0 X95.35 Y60.94
G0 X95.35 Y58.04
G0 X92.45 Y58.04
G0 X92.45 Y55.14
G0 X95.35 Y55.14
G0 X95.35 Y52.24
G0 X92.45 Y52.24
G0 X89.55 Y52.24
G0 X89.55 Y55.14
G0 X86.65 Y55.14
G0 X86.65 Y52.24
G0 X83.75 Y52.24
G0 X80.85 Y52.24
G0 X80.85 Y55.14
G0 X83.75 Y55.14
G0 X83.75 Y58.04
G0 X83.75 Y60.94
G0 X80.85 Y60.94
G0 X80.85 Y58.04
G0 X77.95 Y58.04
G0 X77.95 Y60.94
G0 X75.05 Y60.94
G0 X75.05 Y58.04
G0 X75.05 Y55.14
G0 X77.95 Y55.14
G0 X77.95 Y52.24
G0 X75.05 Y52.24
G0 X72.15 Y52.24
G0 X72.15 Y55.14
G0 X69.25 Y55.14
G0 X69.25 Y52.24
G0 X66.35 Y52.24
G0 X63.45 Y52.24
G0 X63.45 Y55.14
G0 X66.35 Y55.14
G0 X66.35 Y58.04
G0 X63.45 Y58.04
G0 X63.45 Y60.94
G0 X66.35 Y60.94
G0 X69.25 Y60.94
G0 X69.25 Y58.04
G0 X72.15 Y58.04
G0 X72.15 Y60.94
G0 X72.15 Y63.84
G0 X69.25 Y63.84
G0 X69.25 Y66.74
G0 X72.15 Y66.74
G0 X72.15 Y69.64
G0 X72.15 Y72.54
G0 X69.25 Y72.54
G0 X69.25 Y69.64
G0 X66.35 Y69.64
G0 X66.35 Y72.54
G0 X63.45 Y72.54
G0 X63.45 Y69.64
G0 X63.45 Y66.74
G0 X66.35 Y66.74
G0 X66.35 Y63.84
G0 X63.45 Y63.84
G0 X60.55 Y63.84
