; Created using https://markroland.github.io/sand-table-pattern-maker/
;
; 5/22/2023 19:11:54
;
; Machine Specifications:
;
; Units: mm
;
; Min X: 0
; Max X: 472
; Min Y: 0
; Max Y: 380
; Motor Speed (mm/min): 4000
;
; Pattern Specifications:
;
; Name: Circle
;
; Parameters:
; - radius: [object Object]
; - angle: [object Object]
; - reverse: [object Object]
;
; URL: https://markroland.github.io/sand-table-pattern-maker/?pattern=lissajous
;
; Pattern Distance (mm): 24,044.1
; Pattern Draw Time (minutes): 6.0


; Custom G-code to execute before the start of the sketch

G0 X81.74 Y380.00
G0 X76.86 Y379.97
G0 X72.10 Y379.89
G0 X67.47 Y379.77
G0 X62.97 Y379.59
G0 X58.60 Y379.36
G0 X54.36 Y379.08
G0 X50.27 Y378.75
G0 X46.31 Y378.37
G0 X42.50 Y377.95
G0 X38.84 Y377.47
G0 X35.33 Y376.94
G0 X31.97 Y376.36
G0 X28.77 Y375.73
G0 X25.73 Y375.05
G0 X22.85 Y374.32
G0 X20.13 Y373.54
G0 X17.58 Y372.71
G0 X15.19 Y371.84
G0 X12.97 Y370.92
G0 X10.92 Y369.94
G0 X9.05 Y368.92
G0 X7.34 Y367.86
G0 X4.46 Y365.58
G0 X2.29 Y363.11
G0 X0.83 Y360.46
G0 X0.09 Y357.63
G0 X0.08 Y354.62
G0 X0.78 Y351.43
G0 X2.20 Y348.07
G0 X4.34 Y344.55
G0 X5.67 Y342.72
G0 X7.18 Y340.85
G0 X8.87 Y338.95
G0 X10.73 Y337.00
G0 X12.76 Y335.01
G0 X14.96 Y332.99
G0 X17.33 Y330.93
G0 X19.87 Y328.83
G0 X22.57 Y326.69
G0 X25.44 Y324.51
G0 X28.46 Y322.30
G0 X31.65 Y320.06
G0 X34.99 Y317.78
G0 X38.48 Y315.47
G0 X42.13 Y313.12
G0 X45.92 Y310.74
G0 X49.86 Y308.32
G0 X53.95 Y305.88
G0 X58.17 Y303.41
G0 X62.52 Y300.90
G0 X67.01 Y298.37
G0 X71.63 Y295.80
G0 X76.38 Y293.21
G0 X81.24 Y290.59
G0 X86.23 Y287.94
G0 X91.33 Y285.27
G0 X96.54 Y282.57
G0 X101.85 Y279.85
G0 X107.27 Y277.10
G0 X112.79 Y274.33
G0 X118.40 Y271.54
G0 X124.10 Y268.73
G0 X129.89 Y265.89
G0 X135.75 Y263.04
G0 X141.70 Y260.16
G0 X147.71 Y257.27
G0 X153.80 Y254.36
G0 X159.94 Y251.43
G0 X166.15 Y248.48
G0 X172.41 Y245.52
G0 X178.71 Y242.54
G0 X185.06 Y239.55
G0 X191.45 Y236.55
G0 X197.88 Y233.54
G0 X204.33 Y230.51
G0 X210.81 Y227.47
G0 X217.30 Y224.42
G0 X223.81 Y221.37
G0 X230.33 Y218.30
G0 X236.86 Y215.23
G0 X243.38 Y212.15
G0 X249.90 Y209.06
G0 X256.40 Y205.97
G0 X262.89 Y202.88
G0 X269.37 Y199.78
G0 X275.81 Y196.68
G0 X282.23 Y193.58
G0 X288.61 Y190.47
G0 X294.94 Y187.37
G0 X301.24 Y184.27
G0 X307.48 Y181.16
G0 X313.67 Y178.06
G0 X319.80 Y174.97
G0 X325.87 Y171.88
G0 X331.87 Y168.79
G0 X337.79 Y165.71
G0 X343.64 Y162.63
G0 X349.40 Y159.57
G0 X355.08 Y156.51
G0 X360.67 Y153.45
G0 X366.16 Y150.41
G0 X371.55 Y147.38
G0 X376.84 Y144.36
G0 X382.02 Y141.36
G0 X387.09 Y138.36
G0 X392.04 Y135.38
G0 X396.88 Y132.42
G0 X401.59 Y129.47
G0 X406.17 Y126.53
G0 X410.63 Y123.62
G0 X414.95 Y120.72
G0 X419.13 Y117.84
G0 X423.18 Y114.98
G0 X427.08 Y112.13
G0 X430.84 Y109.31
G0 X434.44 Y106.51
G0 X437.90 Y103.74
G0 X441.20 Y100.98
G0 X444.34 Y98.25
G0 X447.33 Y95.55
G0 X450.15 Y92.87
G0 X452.81 Y90.21
G0 X455.30 Y87.58
G0 X457.63 Y84.98
G0 X459.78 Y82.41
G0 X461.77 Y79.87
G0 X463.58 Y77.35
G0 X465.22 Y74.87
G0 X466.69 Y72.41
G0 X467.97 Y69.99
G0 X469.08 Y67.60
G0 X470.02 Y65.24
G0 X470.77 Y62.92
G0 X471.34 Y60.63
G0 X471.74 Y58.37
G0 X471.95 Y56.15
G0 X471.99 Y53.97
G0 X471.84 Y51.82
G0 X471.51 Y49.71
G0 X471.01 Y47.63
G0 X470.32 Y45.60
G0 X469.45 Y43.60
G0 X468.41 Y41.64
G0 X467.19 Y39.72
G0 X465.79 Y37.84
G0 X464.21 Y36.00
G0 X462.47 Y34.20
G0 X460.54 Y32.45
G0 X458.45 Y30.73
G0 X456.19 Y29.06
G0 X453.76 Y27.43
G0 X451.16 Y25.85
G0 X448.40 Y24.31
G0 X445.47 Y22.81
G0 X442.39 Y21.36
G0 X439.15 Y19.95
G0 X435.75 Y18.59
G0 X432.20 Y17.27
G0 X428.50 Y16.00
G0 X424.65 Y14.78
G0 X420.66 Y13.60
G0 X416.52 Y12.47
G0 X412.25 Y11.39
G0 X407.85 Y10.36
G0 X403.31 Y9.37
G0 X398.65 Y8.43
G0 X393.86 Y7.54
G0 X388.95 Y6.70
G0 X383.92 Y5.90
G0 X378.78 Y5.16
G0 X373.53 Y4.47
G0 X368.18 Y3.82
G0 X362.73 Y3.23
G0 X357.17 Y2.68
G0 X351.53 Y2.19
G0 X345.80 Y1.74
G0 X339.98 Y1.35
G0 X334.08 Y1.00
G0 X328.11 Y0.71
G0 X322.07 Y0.47
G0 X315.96 Y0.27
G0 X309.80 Y0.13
G0 X303.57 Y0.04
G0 X297.30 Y0.00
G0 X290.97 Y0.01
G0 X284.61 Y0.07
G0 X278.20 Y0.18
G0 X271.77 Y0.34
G0 X265.31 Y0.55
G0 X258.82 Y0.82
G0 X252.32 Y1.13
G0 X245.81 Y1.49
G0 X239.29 Y1.91
G0 X232.76 Y2.37
G0 X226.24 Y2.89
G0 X219.73 Y3.45
G0 X213.22 Y4.06
G0 X206.74 Y4.73
G0 X200.28 Y5.44
G0 X193.84 Y6.20
G0 X187.44 Y7.02
G0 X181.07 Y7.88
G0 X174.75 Y8.78
G0 X168.47 Y9.74
G0 X162.25 Y10.75
G0 X156.08 Y11.80
G0 X149.97 Y12.90
G0 X143.93 Y14.05
G0 X137.96 Y15.24
G0 X132.06 Y16.49
G0 X126.25 Y17.77
G0 X120.51 Y19.11
G0 X114.87 Y20.49
G0 X109.31 Y21.91
G0 X103.86 Y23.38
G0 X98.50 Y24.90
G0 X93.25 Y26.45
G0 X88.11 Y28.06
G0 X83.09 Y29.70
G0 X78.18 Y31.39
G0 X73.39 Y33.12
G0 X68.72 Y34.89
G0 X64.18 Y36.70
G0 X59.78 Y38.56
G0 X55.50 Y40.45
G0 X51.37 Y42.39
G0 X47.38 Y44.36
G0 X43.53 Y46.37
G0 X39.83 Y48.43
G0 X36.27 Y50.51
G0 X32.87 Y52.64
G0 X29.63 Y54.80
G0 X26.54 Y57.00
G0 X23.62 Y59.24
G0 X20.85 Y61.51
G0 X18.26 Y63.81
G0 X15.82 Y66.15
G0 X13.56 Y68.52
G0 X11.46 Y70.92
G0 X9.54 Y73.35
G0 X7.79 Y75.82
G0 X6.21 Y78.32
G0 X4.81 Y80.84
G0 X3.59 Y83.40
G0 X2.55 Y85.98
G0 X1.68 Y88.59
G0 X0.99 Y91.23
G0 X0.48 Y93.89
G0 X0.15 Y96.58
G0 X0.00 Y99.30
G0 X0.04 Y102.04
G0 X0.25 Y104.80
G0 X0.64 Y107.59
G0 X1.21 Y110.40
G0 X1.97 Y113.22
G0 X2.90 Y116.07
G0 X4.00 Y118.94
G0 X5.29 Y121.83
G0 X6.75 Y124.74
G0 X8.39 Y127.66
G0 X10.20 Y130.60
G0 X12.19 Y133.56
G0 X14.34 Y136.53
G0 X16.67 Y139.51
G0 X19.16 Y142.51
G0 X21.82 Y145.52
G0 X24.64 Y148.55
G0 X27.62 Y151.58
G0 X30.76 Y154.63
G0 X34.06 Y157.68
G0 X37.52 Y160.74
G0 X41.12 Y163.81
G0 X44.88 Y166.89
G0 X48.78 Y169.98
G0 X52.82 Y173.07
G0 X57.00 Y176.16
G0 X61.32 Y179.26
G0 X65.78 Y182.36
G0 X70.36 Y185.46
G0 X75.07 Y188.56
G0 X79.90 Y191.67
G0 X84.86 Y194.77
G0 X89.92 Y197.87
G0 X95.10 Y200.97
G0 X100.39 Y204.07
G0 X105.78 Y207.16
G0 X111.27 Y210.25
G0 X116.86 Y213.33
G0 X122.54 Y216.41
G0 X128.30 Y219.48
G0 X134.14 Y222.54
G0 X140.07 Y225.60
G0 X146.07 Y228.64
G0 X152.13 Y231.68
G0 X158.26 Y234.70
G0 X164.45 Y237.71
G0 X170.69 Y240.71
G0 X176.99 Y243.69
G0 X183.33 Y246.66
G0 X189.71 Y249.62
G0 X196.12 Y252.55
G0 X202.57 Y255.48
G0 X209.04 Y258.38
G0 X215.53 Y261.27
G0 X222.04 Y264.14
G0 X228.55 Y266.98
G0 X235.08 Y269.81
G0 X241.60 Y272.62
G0 X248.12 Y275.40
G0 X254.63 Y278.16
G0 X261.13 Y280.90
G0 X267.60 Y283.61
G0 X274.06 Y286.30
G0 X280.48 Y288.96
G0 X286.87 Y291.60
G0 X293.22 Y294.21
G0 X299.53 Y296.79
G0 X305.79 Y299.34
G0 X311.99 Y301.87
G0 X318.14 Y304.36
G0 X324.22 Y306.82
G0 X330.24 Y309.26
G0 X336.18 Y311.66
G0 X342.05 Y314.02
G0 X347.84 Y316.36
G0 X353.54 Y318.66
G0 X359.15 Y320.93
G0 X364.67 Y323.16
G0 X370.09 Y325.35
G0 X375.41 Y327.51
G0 X380.62 Y329.64
G0 X385.72 Y331.72
G0 X390.70 Y333.77
G0 X395.57 Y335.78
G0 X400.32 Y337.75
G0 X404.94 Y339.68
G0 X409.43 Y341.58
G0 X413.78 Y343.43
G0 X418.01 Y345.24
G0 X422.09 Y347.01
G0 X426.03 Y348.73
G0 X429.83 Y350.42
G0 X433.47 Y352.06
G0 X436.97 Y353.66
G0 X440.31 Y355.21
G0 X443.50 Y356.72
G0 X446.53 Y358.19
G0 X449.40 Y359.61
G0 X452.10 Y360.99
G0 X454.64 Y362.32
G0 X457.01 Y363.60
G0 X459.21 Y364.84
G0 X461.25 Y366.03
G0 X463.11 Y367.17
G0 X464.79 Y368.27
G0 X467.64 Y370.32
G0 X469.78 Y372.18
G0 X471.21 Y373.85
G0 X471.99 Y375.97
G0 X470.52 Y378.12
G0 X467.54 Y379.20
G0 X464.66 Y379.66
G0 X461.09 Y379.93
G0 X459.04 Y379.99
G0 X456.82 Y379.99
G0 X454.44 Y379.95
G0 X451.88 Y379.85
G0 X449.17 Y379.70
G0 X446.29 Y379.51
G0 X443.24 Y379.26
G0 X440.04 Y378.96
G0 X436.69 Y378.61
G0 X433.18 Y378.22
G0 X429.52 Y377.77
G0 X425.71 Y377.27
G0 X421.76 Y376.72
G0 X417.67 Y376.12
G0 X413.43 Y375.47
G0 X409.06 Y374.77
G0 X404.56 Y374.03
G0 X399.93 Y373.23
G0 X395.18 Y372.38
G0 X390.30 Y371.49
G0 X385.30 Y370.55
G0 X380.20 Y369.56
G0 X374.98 Y368.52
G0 X369.65 Y367.43
G0 X364.22 Y366.30
G0 X358.70 Y365.12
G0 X353.08 Y363.89
G0 X347.37 Y362.62
G0 X341.57 Y361.30
G0 X335.70 Y359.93
G0 X329.75 Y358.52
G0 X323.73 Y357.07
G0 X317.64 Y355.56
G0 X311.48 Y354.02
G0 X305.27 Y352.43
G0 X299.01 Y350.80
G0 X292.70 Y349.13
G0 X286.35 Y347.41
G0 X279.95 Y345.65
G0 X273.53 Y343.85
G0 X267.07 Y342.01
G0 X260.59 Y340.12
G0 X254.10 Y338.20
G0 X247.59 Y336.24
G0 X241.07 Y334.24
G0 X234.54 Y332.20
G0 X228.02 Y330.12
G0 X221.50 Y328.01
G0 X215.00 Y325.86
G0 X208.51 Y323.67
G0 X202.04 Y321.44
G0 X195.59 Y319.19
G0 X189.18 Y316.89
G0 X182.81 Y314.57
G0 X176.47 Y312.21
G0 X170.18 Y309.81
G0 X163.94 Y307.39
G0 X157.76 Y304.93
G0 X151.63 Y302.45
G0 X145.57 Y299.93
G0 X139.58 Y297.38
G0 X133.66 Y294.81
G0 X127.82 Y292.20
G0 X122.07 Y289.57
G0 X116.40 Y286.92
G0 X110.82 Y284.24
G0 X105.34 Y281.53
G0 X99.95 Y278.80
G0 X94.68 Y276.04
G0 X89.50 Y273.26
G0 X84.45 Y270.46
G0 X79.50 Y267.64
G0 X74.68 Y264.80
G0 X69.98 Y261.93
G0 X65.41 Y259.05
G0 X60.96 Y256.15
G0 X56.65 Y253.23
G0 X52.48 Y250.30
G0 X48.45 Y247.34
G0 X44.56 Y244.38
G0 X40.82 Y241.40
G0 X37.23 Y238.40
G0 X33.79 Y235.39
G0 X30.50 Y232.37
G0 X27.37 Y229.34
G0 X24.40 Y226.30
G0 X21.59 Y223.25
G0 X18.95 Y220.19
G0 X16.47 Y217.12
G0 X14.16 Y214.05
G0 X12.02 Y210.96
G0 X10.05 Y207.88
G0 X8.25 Y204.78
G0 X6.63 Y201.69
G0 X5.18 Y198.59
G0 X3.91 Y195.49
G0 X2.81 Y192.38
G0 X1.90 Y189.28
G0 X1.16 Y186.18
G0 X0.60 Y183.07
G0 X0.22 Y179.97
G0 X0.03 Y176.87
G0 X0.01 Y173.78
G0 X0.17 Y170.69
G0 X0.52 Y167.60
G0 X1.04 Y164.52
G0 X1.74 Y161.45
G0 X2.62 Y158.39
G0 X3.68 Y155.33
G0 X4.92 Y152.28
G0 X6.34 Y149.25
G0 X7.93 Y146.22
G0 X9.69 Y143.21
G0 X11.63 Y140.20
G0 X13.74 Y137.22
G0 X16.02 Y134.24
G0 X18.46 Y131.28
G0 X21.08 Y128.34
G0 X23.85 Y125.41
G0 X26.79 Y122.50
G0 X29.89 Y119.61
G0 X33.15 Y116.73
G0 X36.56 Y113.88
G0 X40.12 Y111.05
G0 X43.84 Y108.23
G0 X47.70 Y105.44
G0 X51.70 Y102.67
G0 X55.85 Y99.93
G0 X60.13 Y97.21
G0 X64.55 Y94.51
G0 X69.10 Y91.84
G0 X73.77 Y89.20
G0 X78.57 Y86.58
G0 X83.49 Y83.99
G0 X88.53 Y81.43
G0 X93.68 Y78.90
G0 X98.94 Y76.39
G0 X104.30 Y73.92
G0 X109.77 Y71.48
G0 X115.33 Y69.07
G0 X120.98 Y66.69
G0 X126.72 Y64.35
G0 X132.54 Y62.03
G0 X138.45 Y59.76
G0 X144.42 Y57.51
G0 X150.47 Y55.31
G0 X156.58 Y53.14
G0 X162.76 Y51.00
G0 X168.99 Y48.90
G0 X175.27 Y46.84
G0 X181.59 Y44.82
G0 X187.96 Y42.84
G0 X194.37 Y40.90
G0 X200.81 Y38.99
G0 X207.27 Y37.13
G0 X213.76 Y35.31
G0 X220.26 Y33.52
G0 X226.77 Y31.78
G0 X233.30 Y30.09
G0 X239.82 Y28.43
G0 X246.34 Y26.82
G0 X252.86 Y25.25
G0 X259.36 Y23.73
G0 X265.84 Y22.25
G0 X272.30 Y20.81
G0 X278.73 Y19.42
G0 X285.13 Y18.08
G0 X291.49 Y16.78
G0 X297.81 Y15.53
G0 X304.08 Y14.32
G0 X310.30 Y13.16
G0 X316.47 Y12.05
G0 X322.57 Y10.99
G0 X328.61 Y9.97
G0 X334.57 Y9.00
G0 X340.46 Y8.08
G0 X346.27 Y7.21
G0 X351.99 Y6.39
G0 X357.63 Y5.61
G0 X363.18 Y4.89
G0 X368.62 Y4.21
G0 X373.97 Y3.59
G0 X379.21 Y3.01
G0 X384.34 Y2.49
G0 X389.36 Y2.01
G0 X394.26 Y1.58
G0 X399.03 Y1.21
G0 X403.69 Y0.88
G0 X408.21 Y0.61
G0 X412.61 Y0.39
G0 X416.87 Y0.21
G0 X420.99 Y0.09
G0 X424.97 Y0.02
G0 X428.81 Y0.00
G0 X432.49 Y0.02
G0 X436.03 Y0.10
G0 X439.42 Y0.23
G0 X442.65 Y0.42
G0 X445.72 Y0.65
G0 X448.63 Y0.93
G0 X451.38 Y1.26
G0 X453.96 Y1.65
G0 X456.38 Y2.08
G0 X458.63 Y2.56
G0 X460.71 Y3.10
G0 X464.35 Y4.31
G0 X467.29 Y5.73
G0 X469.53 Y7.34
G0 X471.05 Y9.15
G0 X471.86 Y11.15
G0 X471.94 Y13.34
G0 X471.30 Y15.72
G0 X469.95 Y18.28
G0 X467.88 Y21.03
G0 X465.10 Y23.96
G0 X463.44 Y25.49
G0 X461.61 Y27.06
G0 X459.61 Y28.68
G0 X457.44 Y30.34
G0 X455.10 Y32.05
G0 X452.60 Y33.80
G0 X449.92 Y35.58
G0 X447.09 Y37.41
G0 X444.09 Y39.28
G0 X440.93 Y41.19
G0 X437.62 Y43.14
G0 X434.15 Y45.13
G0 X430.53 Y47.16
G0 X426.77 Y49.22
G0 X422.85 Y51.33
G0 X418.80 Y53.47
G0 X414.60 Y55.64
G0 X410.27 Y57.86
G0 X405.80 Y60.11
G0 X401.21 Y62.39
G0 X396.49 Y64.70
G0 X391.64 Y67.05
G0 X386.68 Y69.44
G0 X381.60 Y71.85
G0 X376.41 Y74.30
G0 X371.11 Y76.78
G0 X365.71 Y79.28
G0 X360.21 Y81.82
G0 X354.62 Y84.39
G0 X348.93 Y86.98
G0 X343.16 Y89.60
G0 X337.31 Y92.25
G0 X331.38 Y94.93
G0 X325.38 Y97.63
G0 X319.30 Y100.35
G0 X313.17 Y103.10
G0 X306.97 Y105.87
G0 X300.73 Y108.67
G0 X294.43 Y111.48
G0 X288.08 Y114.32
G0 X281.70 Y117.17
G0 X275.28 Y120.05
G0 X268.84 Y122.95
G0 X262.36 Y125.86
G0 X255.87 Y128.79
G0 X249.36 Y131.74
G0 X242.84 Y134.70
G0 X236.32 Y137.67
G0 X229.80 Y140.67
G0 X223.28 Y143.67
G0 X216.77 Y146.69
G0 X210.27 Y149.71
G0 X203.80 Y152.75
G0 X197.35 Y155.80
G0 X190.93 Y158.86
G0 X184.54 Y161.92
G0 X178.19 Y165.00
G0 X171.89 Y168.08
G0 X165.64 Y171.16
G0 X159.44 Y174.25
G0 X153.30 Y177.35
G0 X147.22 Y180.45
G0 X141.21 Y183.55
G0 X135.27 Y186.65
G0 X129.41 Y189.76
G0 X123.63 Y192.86
G0 X117.93 Y195.96
G0 X112.33 Y199.06
G0 X106.82 Y202.16
G0 X101.41 Y205.26
G0 X96.10 Y208.35
G0 X90.90 Y211.44
G0 X85.81 Y214.52
G0 X80.84 Y217.59
G0 X75.98 Y220.66
G0 X71.25 Y223.72
G0 X66.64 Y226.77
G0 X62.16 Y229.81
G0 X57.82 Y232.84
G0 X53.61 Y235.86
G0 X49.54 Y238.86
G0 X45.61 Y241.86
G0 X41.83 Y244.83
G0 X38.19 Y247.80
G0 X34.71 Y250.75
G0 X31.38 Y253.68
G0 X28.21 Y256.60
G0 X25.19 Y259.49
G0 X22.34 Y262.37
G0 X19.65 Y265.23
G0 X17.13 Y268.07
G0 X14.77 Y270.89
G0 X12.58 Y273.69
G0 X10.57 Y276.47
G0 X8.72 Y279.22
G0 X7.05 Y281.95
G0 X5.56 Y284.65
G0 X4.24 Y287.33
G0 X3.09 Y289.98
G0 X2.13 Y292.61
G0 X1.34 Y295.21
G0 X0.74 Y297.78
G0 X0.31 Y300.32
G0 X0.06 Y302.83
G0 X0.00 Y305.31
G0 X0.11 Y307.76
G0 X0.40 Y310.18
G0 X0.88 Y312.57
G0 X1.53 Y314.93
G0 X2.37 Y317.25
G0 X3.38 Y319.54
G0 X4.57 Y321.79
G0 X5.93 Y324.01
G0 X7.48 Y326.19
G0 X9.19 Y328.34
G0 X11.08 Y330.44
G0 X13.15 Y332.52
G0 X15.38 Y334.55
G0 X17.78 Y336.54
G0 X20.35 Y338.50
G0 X23.08 Y340.42
G0 X25.97 Y342.29
G0 X29.03 Y344.13
G0 X32.24 Y345.92
G0 X35.61 Y347.68
G0 X39.14 Y349.39
G0 X42.81 Y351.05
G0 X46.63 Y352.68
G0 X50.60 Y354.26
G0 X54.70 Y355.80
G0 X58.95 Y357.29
G0 X63.33 Y358.74
G0 X67.84 Y360.14
G0 X72.49 Y361.50
G0 X77.25 Y362.82
G0 X82.14 Y364.08
G0 X87.15 Y365.30
G0 X92.26 Y366.48
G0 X97.49 Y367.60
G0 X102.83 Y368.68
G0 X108.27 Y369.71
G0 X113.80 Y370.70
G0 X119.43 Y371.63
G0 X125.14 Y372.52
G0 X130.95 Y373.36
G0 X136.83 Y374.14
G0 X142.79 Y374.88
G0 X148.81 Y375.57
G0 X154.91 Y376.21
G0 X161.07 Y376.81
G0 X167.28 Y377.35
G0 X173.55 Y377.84
G0 X179.86 Y378.28
G0 X186.22 Y378.67
G0 X192.62 Y379.01
G0 X199.05 Y379.30
G0 X205.50 Y379.54
G0 X211.99 Y379.73
G0 X218.48 Y379.87
G0 X225.00 Y379.96
G0 X231.52 Y379.99
G0 X238.04 Y379.98
G0 X244.56 Y379.92
G0 X251.08 Y379.80
G0 X257.58 Y379.63
G0 X264.07 Y379.42
G0 X270.54 Y379.15
G0 X276.98 Y378.83
G0 X283.39 Y378.47
G0 X289.76 Y378.05
G0 X296.09 Y377.58
G0 X302.38 Y377.06
G0 X308.61 Y376.49
G0 X314.79 Y375.88
G0 X320.91 Y375.21
G0 X326.97 Y374.49
G0 X332.95 Y373.73
G0 X338.86 Y372.91
G0 X344.69 Y372.05
G0 X350.44 Y371.13
G0 X356.10 Y370.17
G0 X361.67 Y369.16
G0 X367.15 Y368.11
G0 X372.52 Y367.00
G0 X377.79 Y365.85
G0 X382.95 Y364.65
G0 X388.00 Y363.41
G0 X392.93 Y362.11
G0 X397.74 Y360.78
G0 X402.43 Y359.39
G0 X406.99 Y357.97
G0 X411.42 Y356.49
G0 X415.72 Y354.98
G0 X419.88 Y353.41
G0 X423.90 Y351.81
G0 X427.77 Y350.16
G0 X431.50 Y348.47
G0 X435.08 Y346.74
G0 X438.51 Y344.96
G0 X441.78 Y343.14
G0 X444.90 Y341.29
G0 X447.85 Y339.39
G0 X450.64 Y337.45
G0 X453.27 Y335.48
G0 X455.74 Y333.46
G0 X458.03 Y331.41
G0 X460.16 Y329.31
G0 X462.11 Y327.18
G0 X463.89 Y325.02
G0 X465.50 Y322.82
G0 X466.93 Y320.58
G0 X468.19 Y318.31
G0 X469.27 Y316.00
G0 X470.17 Y313.66
G0 X470.89 Y311.29
G0 X471.43 Y308.88
G0 X471.79 Y306.45
G0 X471.97 Y303.98
G0 X471.97 Y301.48
G0 X471.79 Y298.95
G0 X471.43 Y296.40
G0 X470.89 Y293.81
G0 X470.17 Y291.20
G0 X469.28 Y288.56
G0 X468.20 Y285.89
G0 X466.95 Y283.20
G0 X465.52 Y280.48
G0 X463.91 Y277.74
G0 X462.13 Y274.97
G0 X460.18 Y272.19
G0 X458.05 Y269.38
G0 X455.76 Y266.55
G0 X453.30 Y263.70
G0 X450.67 Y260.83
G0 X447.88 Y257.94
G0 X444.92 Y255.03
G0 X441.81 Y252.10
G0 X438.54 Y249.16
G0 X435.11 Y246.20
G0 X431.54 Y243.23
G0 X427.81 Y240.25
G0 X423.93 Y237.25
G0 X419.92 Y234.23
G0 X415.76 Y231.21
G0 X411.46 Y228.17
G0 X407.03 Y225.13
G0 X402.47 Y222.07
G0 X397.79 Y219.01
G0 X392.97 Y215.94
G0 X388.04 Y212.86
G0 X383.00 Y209.78
G0 X377.84 Y206.69
G0 X372.57 Y203.59
G0 X367.20 Y200.50
G0 X361.72 Y197.39
G0 X356.15 Y194.29
G0 X350.49 Y191.19
G0 X344.75 Y188.08
G0 X338.91 Y184.98
G0 X333.00 Y181.88
G0 X327.02 Y178.78
G0 X320.97 Y175.68
G0 X314.85 Y172.59
G0 X308.67 Y169.50
G0 X302.43 Y166.42
G0 X296.15 Y163.34
G0 X289.82 Y160.27
G0 X283.45 Y157.21
G0 X277.04 Y154.16
G0 X270.60 Y151.11
G0 X264.13 Y148.08
G0 X257.64 Y145.06
G0 X251.14 Y142.05
G0 X244.62 Y139.05
G0 X238.10 Y136.07
G0 X231.58 Y133.10
G0 X225.06 Y130.15
G0 X218.54 Y127.21
G0 X212.04 Y124.29
G0 X205.56 Y121.39
G0 X199.11 Y118.50
G0 X192.68 Y115.63
G0 X186.28 Y112.79
G0 X179.92 Y109.96
G0 X173.61 Y107.16
G0 X167.34 Y104.38
G0 X161.12 Y101.62
G0 X154.97 Y98.88
G0 X148.87 Y96.17
G0 X142.84 Y93.48
G0 X136.88 Y90.82
G0 X131.00 Y88.19
G0 X125.20 Y85.58
G0 X119.48 Y83.00
G0 X113.85 Y80.45
G0 X108.32 Y77.93
G0 X102.88 Y75.44
G0 X97.54 Y72.98
G0 X92.31 Y70.55
G0 X87.19 Y68.15
G0 X82.18 Y65.78
G0 X77.30 Y63.45
G0 X72.53 Y61.15
G0 X67.88 Y58.89
G0 X63.37 Y56.66
G0 X58.99 Y54.47
G0 X54.74 Y52.31
G0 X50.63 Y50.19
G0 X46.67 Y48.11
G0 X42.84 Y46.06
G0 X39.17 Y44.06
G0 X35.64 Y42.09
G0 X32.27 Y40.16
G0 X29.06 Y38.27
G0 X26.00 Y36.42
G0 X23.10 Y34.62
G0 X20.37 Y32.85
G0 X17.80 Y31.13
G0 X15.40 Y29.44
G0 X13.16 Y27.81
G0 X11.10 Y26.21
G0 X9.21 Y24.66
G0 X7.49 Y23.15
G0 X5.95 Y21.69
G0 X3.39 Y18.90
G0 X1.54 Y16.29
G0 X0.41 Y13.87
G0 X0.00 Y11.64
G0 X0.31 Y9.59
G0 X1.34 Y7.74
G0 X3.08 Y6.08
G0 X5.54 Y4.62
G0 X8.71 Y3.36
G0 X12.57 Y2.30
G0 X14.75 Y1.84
G0 X17.11 Y1.43
G0 X19.63 Y1.08
G0 X22.32 Y0.77
G0 X25.17 Y0.52
G0 X28.18 Y0.31
G0 X31.35 Y0.16
G0 X34.68 Y0.06
G0 X38.16 Y0.00
G0 X41.79 Y0.00
G0 X45.57 Y0.05
G0 X49.50 Y0.15
G0 X53.57 Y0.30
G0 X57.78 Y0.50
G0 X62.12 Y0.75
G0 X66.60 Y1.05
G0 X71.21 Y1.40
G0 X75.94 Y1.81
G0 X80.80 Y2.26
G0 X85.77 Y2.76
G0 X90.86 Y3.32
G0 X96.06 Y3.92
G0 X101.36 Y4.57
G0 X106.77 Y5.27
G0 X112.28 Y6.02
G0 X117.88 Y6.82
G0 X123.58 Y7.67
G0 X129.36 Y8.57
G0 X135.22 Y9.52
G0 X141.15 Y10.51
G0 X147.16 Y11.55
G0 X153.24 Y12.64
G0 X159.38 Y13.78
G0 X165.58 Y14.96
G0 X171.84 Y16.20
G0 X178.14 Y17.47
G0 X184.48 Y18.80
G0 X190.87 Y20.17
G0 X197.29 Y21.58
G0 X203.74 Y23.04
G0 X210.22 Y24.54
G0 X216.71 Y26.09
G0 X223.22 Y27.68
G0 X229.74 Y29.32
G0 X236.26 Y31.00
G0 X242.79 Y32.72
G0 X249.30 Y34.48
G0 X255.81 Y36.28
G0 X262.31 Y38.13
G0 X268.78 Y40.01
G0 X275.23 Y41.94
G0 X281.64 Y43.90
G0 X288.03 Y45.91
G0 X294.37 Y47.95
G0 X300.67 Y50.03
G0 X306.92 Y52.15
G0 X313.11 Y54.30
G0 X319.25 Y56.49
G0 X325.32 Y58.72
G0 X331.33 Y60.98
G0 X337.26 Y63.27
G0 X343.11 Y65.60
G0 X348.88 Y67.97
G0 X354.57 Y70.36
G0 X360.16 Y72.79
G0 X365.66 Y75.25
G0 X371.06 Y77.74
G0 X376.36 Y80.26
G0 X381.55 Y82.80
G0 X386.63 Y85.38
G0 X391.60 Y87.99
G0 X396.44 Y90.62
G0 X401.17 Y93.28
G0 X405.76 Y95.96
G0 X410.23 Y98.67
G0 X414.56 Y101.41
G0 X418.76 Y104.16
G0 X422.82 Y106.94
G0 X426.73 Y109.75
G0 X430.50 Y112.57
G0 X434.12 Y115.41
G0 X437.59 Y118.28
G0 X440.90 Y121.16
G0 X444.06 Y124.06
G0 X447.06 Y126.98
G0 X449.90 Y129.92
G0 X452.57 Y132.87
G0 X455.08 Y135.84
G0 X457.42 Y138.82
G0 X459.60 Y141.82
G0 X461.60 Y144.83
G0 X463.43 Y147.85
G0 X465.08 Y150.88
G0 X466.56 Y153.92
G0 X467.86 Y156.98
G0 X468.99 Y160.04
G0 X469.94 Y163.11
G0 X470.71 Y166.18
G0 X471.30 Y169.26
G0 X471.71 Y172.35
G0 X471.94 Y175.44
G0 X471.99 Y178.54
G0 X471.86 Y181.64
G0 X471.55 Y184.74
G0 X471.06 Y187.85
G0 X470.39 Y190.95
G0 X469.54 Y194.05
G0 X468.51 Y197.16
G0 X467.31 Y200.26
G0 X465.92 Y203.35
G0 X464.37 Y206.45
G0 X462.63 Y209.54
G0 X460.73 Y212.62
G0 X458.65 Y215.70
G0 X456.40 Y218.77
G0 X453.99 Y221.84
G0 X451.40 Y224.89
G0 X448.65 Y227.94
G0 X445.74 Y230.98
G0 X442.67 Y234.00
G0 X439.45 Y237.01
G0 X436.06 Y240.02
G0 X432.53 Y243.00
G0 X428.84 Y245.98
G0 X425.00 Y248.94
G0 X421.03 Y251.88
G0 X416.91 Y254.80
G0 X412.65 Y257.71
G0 X408.25 Y260.60
G0 X403.73 Y263.48
G0 X399.08 Y266.33
G0 X394.30 Y269.16
G0 X389.40 Y271.97
G0 X384.38 Y274.76
G0 X379.25 Y277.53
G0 X374.02 Y280.27
G0 X368.67 Y282.99
G0 X363.23 Y285.68
G0 X357.68 Y288.35
G0 X352.05 Y290.99
G0 X346.32 Y293.61
G0 X340.51 Y296.20
G0 X334.62 Y298.76
G0 X328.66 Y301.29
G0 X322.62 Y303.79
G0 X316.52 Y306.26
G0 X310.36 Y308.70
G0 X304.14 Y311.11
G0 X297.87 Y313.48
G0 X291.55 Y315.82
G0 X285.19 Y318.13
G0 X278.79 Y320.41
G0 X272.36 Y322.65
G0 X265.90 Y324.85
G0 X259.41 Y327.02
G0 X252.91 Y329.15
G0 X246.40 Y331.25
G0 X239.88 Y333.30
G0 X233.36 Y335.32
G0 X226.83 Y337.30
G0 X220.32 Y339.24
G0 X213.81 Y341.14
G0 X207.33 Y343.00
G0 X200.86 Y344.82
G0 X194.43 Y346.60
G0 X188.02 Y348.34
G0 X181.65 Y350.03
G0 X175.32 Y351.68
G0 X169.04 Y353.29
G0 X162.81 Y354.86
G0 X156.64 Y356.38
G0 X150.53 Y357.85
G0 X144.48 Y359.29
G0 X138.50 Y360.67
G0 X132.60 Y362.01
G0 X126.77 Y363.31
G0 X121.03 Y364.56
G0 X115.38 Y365.76
G0 X109.82 Y366.91
G0 X104.35 Y368.02
G0 X98.99 Y369.08
G0 X93.73 Y370.10
G0 X88.58 Y371.06
G0 X83.54 Y371.98
G0 X78.62 Y372.85
G0 X73.82 Y373.66
G0 X69.14 Y374.43
G0 X64.59 Y375.16
G0 X60.17 Y375.83
G0 X55.89 Y376.45
G0 X51.74 Y377.02
G0 X47.73 Y377.54
G0 X43.87 Y378.01
G0 X40.16 Y378.44
G0 X36.59 Y378.81
G0 X33.18 Y379.13
G0 X29.92 Y379.40
G0 X26.82 Y379.62
G0 X23.88 Y379.79
G0 X21.10 Y379.91
G0 X18.48 Y379.98
G0 X16.04 Y379.99
G0 X13.76 Y379.96
G0 X11.65 Y379.88
G0 X7.94 Y379.56
G0 X4.93 Y379.04
G0 X2.63 Y378.31
G0 X0.52 Y376.85
G0 X0.22 Y374.20
G0 X1.89 Y371.70
G0 X3.90 Y369.79
G0 X6.61 Y367.69
G0 X10.03 Y365.39
G0 X12.00 Y364.18
G0 X14.14 Y362.92
G0 X16.45 Y361.61
G0 X18.93 Y360.25
G0 X21.57 Y358.85
G0 X24.37 Y357.41
G0 X27.34 Y355.91
G0 X30.47 Y354.38
G0 X33.76 Y352.80
G0 X37.20 Y351.18
G0 X40.79 Y349.52
G0 X44.53 Y347.81
G0 X48.42 Y346.06
G0 X52.45 Y344.27
G0 X56.62 Y342.44
G0 X60.92 Y340.56
G0 X65.37 Y338.65
G0 X69.94 Y336.70
G0 X74.64 Y334.70
G0 X79.46 Y332.67
G0 X84.40 Y330.61
G0 X89.46 Y328.50
G0 X94.63 Y326.36
G0 X99.91 Y324.18
G0 X105.29 Y321.96
G0 X110.77 Y319.71
G0 X116.35 Y317.43
G0 X122.02 Y315.11
G0 X127.77 Y312.75
G0 X133.61 Y310.37
G0 X139.53 Y307.95
G0 X145.52 Y305.50
G0 X151.58 Y303.02
G0 X157.70 Y300.51
G0 X163.89 Y297.97
G0 X170.12 Y295.40
G0 X176.41 Y292.81
G0 X182.75 Y290.18
G0 X189.13 Y287.53
G0 X195.54 Y284.86
G0 X201.98 Y282.16
G0 X208.45 Y279.43
G0 X214.94 Y276.68
G0 X221.44 Y273.90
G0 X227.96 Y271.11
G0 X234.48 Y268.29
G0 X241.01 Y265.45
G0 X247.53 Y262.59
G0 X254.04 Y259.72
G0 X260.54 Y256.82
G0 X267.02 Y253.91
G0 X273.47 Y250.97
G0 X279.90 Y248.03
G0 X286.29 Y245.06
G0 X292.64 Y242.09
G0 X298.96 Y239.09
G0 X305.22 Y236.09
G0 X311.43 Y233.07
G0 X317.58 Y230.04
G0 X323.67 Y227.00
G0 X329.69 Y223.95
G0 X335.65 Y220.90
G0 X341.52 Y217.83
G0 X347.32 Y214.76
G0 X353.03 Y211.67
G0 X358.65 Y208.59
G0 X364.17 Y205.50
G0 X369.60 Y202.40
G0 X374.93 Y199.30
G0 X380.15 Y196.20
G0 X385.26 Y193.10
G0 X390.25 Y189.99
G0 X395.13 Y186.89
G0 X399.89 Y183.79
G0 X404.52 Y180.69
G0 X409.02 Y177.59
G0 X413.39 Y174.49
G0 X417.63 Y171.40
G0 X421.72 Y168.32
G0 X425.68 Y165.23
G0 X429.49 Y162.16
G0 X433.15 Y159.09
G0 X436.66 Y156.04
G0 X440.02 Y152.99
G0 X443.22 Y149.95
G0 X446.26 Y146.92
G0 X449.14 Y143.90
G0 X451.86 Y140.90
G0 X454.41 Y137.90
G0 X456.80 Y134.93
G0 X459.02 Y131.96
G0 X461.07 Y129.02
G0 X462.94 Y126.08
G0 X464.65 Y123.17
G0 X466.17 Y120.27
G0 X467.53 Y117.40
G0 X468.70 Y114.54
G0 X469.70 Y111.70
G0 X470.52 Y108.88
G0 X471.16 Y106.09
G0 X471.62 Y103.31
G0 X471.90 Y100.56
G0 X471.99 Y97.83
G0 X471.91 Y95.13
G0 X471.65 Y92.46
G0 X471.21 Y89.81
G0 X470.59 Y87.18
G0 X469.79 Y84.59
G0 X468.81 Y82.02
G0 X467.65 Y79.48
G0 X466.32 Y76.97
G0 X464.81 Y74.49
G0 X463.12 Y72.04
G0 X461.26 Y69.62
G0 X459.23 Y67.24
G0 X457.03 Y64.88
G0 X454.66 Y62.56
G0 X452.12 Y60.28
G0 X449.42 Y58.03
G0 X446.55 Y55.81
G0 X443.53 Y53.63
G0 X440.34 Y51.49
G0 X437.00 Y49.38
G0 X433.51 Y47.32
G0 X429.86 Y45.29
G0 X426.07 Y43.29
G0 X422.13 Y41.34
G0 X418.04 Y39.43
G0 X413.82 Y37.55
G0 X409.47 Y35.72
G0 X404.98 Y33.93
G0 X400.36 Y32.18
G0 X395.61 Y30.47
G0 X390.75 Y28.81
G0 X385.76 Y27.19
G0 X380.66 Y25.61
G0 X375.45 Y24.08
G0 X370.14 Y22.58
G0 X364.72 Y21.14
G0 X359.20 Y19.74
G0 X353.59 Y18.38
G0 X347.89 Y17.07
G0 X342.10 Y15.81
G0 X336.24 Y14.60
G0 X330.29 Y13.43
G0 X324.28 Y12.30
G0 X318.19 Y11.23
G0 X312.05 Y10.20
G0 X305.84 Y9.22
G0 X299.58 Y8.29
G0 X293.28 Y7.41
G0 X286.93 Y6.57
G0 X280.54 Y5.79
G0 X274.11 Y5.05
G0 X267.66 Y4.36
G0 X261.18 Y3.73
G0 X254.69 Y3.14
G0 X248.18 Y2.60
G0 X241.66 Y2.12
G0 X235.13 Y1.68
G0 X228.61 Y1.29
G0 X222.09 Y0.95
G0 X215.59 Y0.67
G0 X209.10 Y0.43
G0 X202.62 Y0.25
G0 X196.18 Y0.11
G0 X189.76 Y0.03
G0 X183.38 Y0.00
G0 X177.05 Y0.01
G0 X170.75 Y0.08
G0 X164.51 Y0.20
G0 X158.32 Y0.37
G0 X152.19 Y0.59
G0 X146.12 Y0.86
G0 X140.12 Y1.18
G0 X134.20 Y1.55
G0 X128.35 Y1.98
G0 X122.59 Y2.45
G0 X116.91 Y2.97
G0 X111.32 Y3.54
G0 X105.83 Y4.16
G0 X100.44 Y4.83
G0 X95.15 Y5.56
G0 X89.97 Y6.33
G0 X84.90 Y7.14
G0 X79.95 Y8.01
G0 X75.11 Y8.93
G0 X70.40 Y9.89
G0 X65.82 Y10.91
G0 X61.36 Y11.97
G0 X57.04 Y13.08
G0 X52.86 Y14.23
G0 X48.81 Y15.43
G0 X44.91 Y16.68
G0 X41.15 Y17.98
G0 X37.55 Y19.32
G0 X34.09 Y20.70
G0 X30.79 Y22.14
G0 X27.65 Y23.61
G0 X24.66 Y25.13
G0 X21.84 Y26.70
G0 X19.18 Y28.31
G0 X16.69 Y29.96
G0 X14.36 Y31.65
G0 X12.21 Y33.39
G0 X10.22 Y35.17
G0 X8.41 Y36.99
G0 X6.77 Y38.85
G0 X5.30 Y40.75
G0 X4.02 Y42.69
G0 X2.91 Y44.67
G0 X1.97 Y46.69
G0 X1.22 Y48.74
G0 X0.65 Y50.84
G0 X0.25 Y52.97
G0 X0.04 Y55.14
G0 X0.00 Y57.34
G0 X0.15 Y59.58
G0 X0.48 Y61.86
G0 X0.98 Y64.17
G0 X1.67 Y66.51
G0 X2.54 Y68.88
G0 X3.58 Y71.29
G0 X4.80 Y73.73
G0 X6.20 Y76.20
G0 X7.78 Y78.70
G0 X9.52 Y81.23
G0 X11.45 Y83.79
G0 X13.54 Y86.38
G0 X15.80 Y89.00
G0 X18.23 Y91.64
G0 X20.83 Y94.31
G0 X23.59 Y97.00
G0 X26.52 Y99.72
G0 X29.60 Y102.46
G0 X32.84 Y105.23
G0 X36.24 Y108.02
G0 X39.79 Y110.83
G0 X43.49 Y113.66
G0 X47.34 Y116.51
G0 X51.33 Y119.39
G0 X55.47 Y122.28
G0 X59.74 Y125.19
G0 X64.14 Y128.11
G0 X68.68 Y131.05
G0 X73.34 Y134.01
G0 X78.13 Y136.99
G0 X83.04 Y139.97
G0 X88.07 Y142.98
G0 X93.21 Y145.99
G0 X98.46 Y149.01
G0 X103.81 Y152.05
G0 X109.26 Y155.10
G0 X114.82 Y158.15
G0 X120.46 Y161.22
G0 X126.19 Y164.29
G0 X132.01 Y167.37
G0 X137.91 Y170.45
G0 X143.88 Y173.54
G0 X149.92 Y176.64
G0 X156.03 Y179.73
G0 X162.19 Y182.83
G0 X168.42 Y185.94
G0 X174.69 Y189.04
G0 X181.02 Y192.14
G0 X187.38 Y195.25
G0 X193.79 Y198.35
G0 X200.22 Y201.45
G0 X206.68 Y204.55
G0 X213.17 Y207.64
G0 X219.67 Y210.73
G0 X226.18 Y213.81
G0 X232.70 Y216.88
G0 X239.23 Y219.95
G0 X245.75 Y223.01
G0 X252.26 Y226.07
G0 X258.77 Y229.11
G0 X265.25 Y232.14
G0 X271.71 Y235.16
G0 X278.15 Y238.17
G0 X284.55 Y241.17
G0 X290.92 Y244.15
G0 X297.24 Y247.12
G0 X303.52 Y250.07
G0 X309.74 Y253.01
G0 X315.91 Y255.93
G0 X322.02 Y258.83
G0 X328.06 Y261.71
G0 X334.03 Y264.58
G0 X339.93 Y267.42
G0 X345.74 Y270.24
G0 X351.48 Y273.05
G0 X357.12 Y275.83
G0 X362.68 Y278.58
G0 X368.13 Y281.32
G0 X373.49 Y284.03
G0 X378.74 Y286.71
G0 X383.88 Y289.37
G0 X388.90 Y292.00
G0 X393.81 Y294.61
G0 X398.60 Y297.19
G0 X403.27 Y299.73
G0 X407.81 Y302.25
G0 X412.21 Y304.74
G0 X416.49 Y307.20
G0 X420.62 Y309.63
G0 X424.61 Y312.02
G0 X428.46 Y314.39
G0 X432.16 Y316.72
G0 X435.72 Y319.01
G0 X439.12 Y321.27
G0 X442.36 Y323.50
G0 X445.45 Y325.69
G0 X448.37 Y327.84
G0 X451.14 Y329.96
G0 X453.73 Y332.04
G0 X456.17 Y334.08
G0 X458.43 Y336.09
G0 X460.53 Y338.05
G0 X462.45 Y339.98
G0 X464.20 Y341.86
G0 X465.78 Y343.71
G0 X467.18 Y345.51
G0 X468.40 Y347.27
G0 X469.44 Y348.99
G0 X471.00 Y352.31
G0 X471.84 Y355.45
G0 X471.95 Y358.41
G0 X471.35 Y361.19
G0 X470.02 Y363.79
G0 X467.99 Y366.21
G0 X465.24 Y368.44
G0 X461.79 Y370.47
G0 X459.80 Y371.42
G0 X457.65 Y372.32
G0 X455.32 Y373.17
G0 X452.83 Y373.97
G0 X450.17 Y374.72
G0 X447.35 Y375.42
G0 X444.37 Y376.07
G0 X441.23 Y376.67
G0 X437.93 Y377.23
G0 X434.47 Y377.73
G0 X430.87 Y378.18
G0 X427.11 Y378.59
G0 X423.21 Y378.94
G0 X419.17 Y379.24
G0 X414.99 Y379.49
G0 X410.67 Y379.69
G0 X406.21 Y379.84
G0 X401.63 Y379.94
G0 X396.92 Y379.99
G0 X392.09 Y379.99
G0 X387.13 Y379.93
G0 X382.07 Y379.83
G0 X376.89 Y379.68
G0 X371.60 Y379.47
G0 X366.21 Y379.22
G0 X360.72 Y378.91
G0 X355.13 Y378.56
G0 X349.45 Y378.15
G0 X343.69 Y377.69
G0 X337.85 Y377.19
G0 X331.92 Y376.63
G0 X325.92 Y376.02
G0 X319.86 Y375.37
G0 X313.73 Y374.66
G0 X307.54 Y373.91
G0 X301.30 Y373.10
G0 X295.00 Y372.25
G0 X288.66 Y371.35
G0 X282.28 Y370.40
G0 X275.87 Y369.40
G0 X269.42 Y368.35
G0 X262.95 Y367.26
G0 X256.46 Y366.12
G0 X249.95 Y364.93
G0 X243.44 Y363.70
G0 X236.91 Y362.42
G0 X230.39 Y361.09
G0 X223.87 Y359.72
G0 X217.36 Y358.30
G0 X210.86 Y356.84
G0 X204.39 Y355.33
G0 X197.93 Y353.78
G0 X191.51 Y352.18
G0 X185.12 Y350.55
G0 X178.77 Y348.86
G0 X172.46 Y347.14
G0 X166.20 Y345.37
G0 X160.00 Y343.57
G0 X153.85 Y341.72
G0 X147.77 Y339.83
G0 X141.75 Y337.90
G0 X135.81 Y335.93
G0 X129.94 Y333.93
G0 X124.15 Y331.88
G0 X118.45 Y329.80
G0 X112.84 Y327.68
G0 X107.32 Y325.52
G0 X101.90 Y323.33
G0 X96.58 Y321.10
G0 X91.37 Y318.84
G0 X86.27 Y316.54
G0 X81.29 Y314.21
G0 X76.42 Y311.84
G0 X71.67 Y309.44
G0 X67.05 Y307.01
G0 X62.56 Y304.55
G0 X58.21 Y302.06
G0 X53.98 Y299.54
G0 X49.90 Y296.99
G0 X45.96 Y294.41
G0 X42.16 Y291.80
G0 X38.52 Y289.17
G0 X35.02 Y286.51
G0 X31.68 Y283.82
G0 X28.49 Y281.11
G0 X25.46 Y278.37
G0 X22.59 Y275.61
G0 X19.89 Y272.83
G0 X17.35 Y270.03
G0 X14.98 Y267.20
G0 X12.78 Y264.36
G0 X10.74 Y261.49
G0 X8.88 Y258.60
G0 X7.20 Y255.70
G0 X5.69 Y252.78
G0 X4.35 Y249.84
G0 X3.19 Y246.89
G0 X2.21 Y243.92
G0 X1.41 Y240.94
G0 X0.78 Y237.94
G0 X0.34 Y234.93
G0 X0.08 Y231.91
G0 X0.00 Y228.88
G0 X0.09 Y225.83
G0 X0.37 Y222.78
G0 X0.83 Y219.72
G0 X1.47 Y216.65
G0 X2.28 Y213.57
G0 X3.28 Y210.49
G0 X4.45 Y207.40
G0 X5.80 Y204.31
G0 X7.33 Y201.21
G0 X9.03 Y198.11
G0 X10.90 Y195.01
G0 X12.95 Y191.91
G0 X15.17 Y188.80
G0 X17.55 Y185.70
G0 X20.11 Y182.60
G0 X22.82 Y179.49
G0 X25.70 Y176.40
G0 X28.75 Y173.30
G0 X31.95 Y170.21
G0 X35.30 Y167.13
G0 X38.81 Y164.05
G0 X42.47 Y160.98
G0 X46.28 Y157.92
G0 X50.23 Y154.86
G0 X54.32 Y151.82
G0 X58.56 Y148.78
G0 X62.93 Y145.76
G0 X67.43 Y142.74
G0 X72.06 Y139.74
G0 X76.81 Y136.76
G0 X81.69 Y133.79
G0 X86.69 Y130.83
G0 X91.79 Y127.89
G0 X97.01 Y124.96
G0 X102.34 Y122.05
G0 X107.77 Y119.16
G0 X113.29 Y116.29
G0 X118.91 Y113.44
G0 X124.62 Y110.61
G0 X130.42 Y107.80
G0 X136.29 Y105.02
G0 X142.24 Y102.25
G0 X148.26 Y99.51
G0 X154.35 Y96.79
G0 X160.51 Y94.10
G0 X166.72 Y91.43
G0 X172.98 Y88.79
G0 X179.29 Y86.18
G0 X185.64 Y83.59
G0 X192.04 Y81.04
G0 X198.46 Y78.51
G0 X204.92 Y76.01
G0 X211.40 Y73.54
G0 X217.89 Y71.11
G0 X224.40 Y68.70
G0 X230.92 Y66.33
G0 X237.45 Y63.99
G0 X243.97 Y61.68
G0 X250.49 Y59.41
G0 X256.99 Y57.17
G0 X263.48 Y54.97
G0 X269.95 Y52.81
G0 X276.40 Y50.68
G0 X282.81 Y48.58
G0 X289.18 Y46.53
G0 X295.52 Y44.51
G0 X301.81 Y42.54
G0 X308.05 Y40.60
G0 X314.23 Y38.70
G0 X320.36 Y36.85
G0 X326.42 Y35.03
G0 X332.41 Y33.25
G0 X338.33 Y31.52
G0 X344.17 Y29.83
G0 X349.92 Y28.18
G0 X355.59 Y26.58
G0 X361.17 Y25.01
G0 X366.65 Y23.50
G0 X372.04 Y22.02
G0 X377.31 Y20.60
G0 X382.49 Y19.21
G0 X387.54 Y17.88
G0 X392.49 Y16.58
G0 X397.31 Y15.34
G0 X402.01 Y14.14
G0 X406.58 Y12.99
G0 X411.03 Y11.88
G0 X415.34 Y10.83
G0 X419.51 Y9.82
G0 X423.54 Y8.86
G0 X427.43 Y7.94
G0 X431.17 Y7.08
G0 X434.76 Y6.26
G0 X438.20 Y5.50
G0 X441.49 Y4.78
G0 X444.62 Y4.11
G0 X447.59 Y3.50
G0 X450.40 Y2.93
G0 X453.04 Y2.41
G0 X455.52 Y1.94
G0 X457.83 Y1.52
G0 X459.97 Y1.16
G0 X463.74 Y0.57
G0 X466.81 Y0.19
G0 X469.18 Y0.01
G0 X471.39 Y0.12
G0 X470.25 Y2.15
G0 X468.31 Y3.18
G0 X465.65 Y4.42
G0 X462.30 Y5.85
G0 X460.36 Y6.63
G0 X458.25 Y7.47
G0 X455.97 Y8.36
G0 X453.53 Y9.29
G0 X450.91 Y10.28
G0 X448.14 Y11.31
G0 X445.20 Y12.39
G0 X442.10 Y13.51
G0 X438.84 Y14.69
G0 X435.43 Y15.91
G0 X431.87 Y17.17
G0 X428.15 Y18.49
G0 X424.29 Y19.85
G0 X420.29 Y21.25
G0 X416.14 Y22.70
G0 X411.86 Y24.19
G0 X407.44 Y25.73
G0 X402.89 Y27.31
G0 X398.22 Y28.94
G0 X393.42 Y30.60
G0 X388.50 Y32.31
G0 X383.46 Y34.07
G0 X378.31 Y35.86
G0 X373.05 Y37.70
G0 X367.69 Y39.57
G0 X362.22 Y41.49
G0 X356.66 Y43.45
G0 X351.01 Y45.44
G0 X345.27 Y47.47
G0 X339.45 Y49.55
G0 X333.54 Y51.65
G0 X327.57 Y53.80
G0 X321.52 Y55.98
G0 X315.41 Y58.20
G0 X309.23 Y60.45
G0 X303.00 Y62.74
G0 X296.72 Y65.06
G0 X290.40 Y67.42
G0 X284.03 Y69.81
G0 X277.62 Y72.23
G0 X271.18 Y74.68
G0 X264.72 Y77.16
G0 X258.23 Y79.67
G0 X251.73 Y82.21
G0 X245.22 Y84.78
G0 X238.69 Y87.38
G0 X232.17 Y90.01
G0 X225.65 Y92.66
G0 X219.13 Y95.34
G0 X212.63 Y98.04
G0 X206.15 Y100.77
G0 X199.69 Y103.52
G0 X193.26 Y106.30
G0 X186.86 Y109.10
G0 X180.50 Y111.92
G0 X174.18 Y114.76
G0 X167.91 Y117.62
G0 X161.69 Y120.50
G0 X155.52 Y123.39
G0 X149.42 Y126.31
G0 X143.38 Y129.24
G0 X137.42 Y132.19
G0 X131.53 Y135.16
G0 X125.72 Y138.13
G0 X120.00 Y141.13
G0 X114.36 Y144.13
G0 X108.81 Y147.15
G0 X103.37 Y150.18
G0 X98.02 Y153.22
G0 X92.78 Y156.27
G0 X87.65 Y159.33
G0 X82.63 Y162.40
G0 X77.73 Y165.47
G0 X72.96 Y168.55
G0 X68.30 Y171.64
G0 X63.78 Y174.73
G0 X59.38 Y177.83
G0 X55.12 Y180.93
G0 X51.00 Y184.03
G0 X47.02 Y187.13
G0 X43.18 Y190.23
G0 X39.50 Y193.34
G0 X35.96 Y196.44
G0 X32.57 Y199.54
G0 X29.34 Y202.64
G0 X26.27 Y205.74
G0 X23.36 Y208.83
G0 X20.61 Y211.91
G0 X18.03 Y214.99
G0 X15.61 Y218.07
G0 X13.36 Y221.13
G0 X11.28 Y224.19
G0 X9.37 Y227.24
G0 X7.64 Y230.28
G0 X6.08 Y233.30
G0 X4.70 Y236.32
G0 X3.49 Y239.32
G0 X2.46 Y242.32
G0 X1.61 Y245.29
G0 X0.94 Y248.25
G0 X0.44 Y251.20
G0 X0.13 Y254.13
G0 X0.00 Y257.04
G0 X0.05 Y259.94
G0 X0.28 Y262.82
G0 X0.69 Y265.67
G0 X1.27 Y268.51
G0 X2.04 Y271.32
G0 X2.99 Y274.12
G0 X4.11 Y276.89
G0 X5.42 Y279.64
G0 X6.89 Y282.36
G0 X8.55 Y285.06
G0 X10.38 Y287.74
G0 X12.38 Y290.39
G0 X14.55 Y293.01
G0 X16.89 Y295.60
G0 X19.39 Y298.17
G0 X22.07 Y300.71
G0 X24.90 Y303.21
G0 X27.90 Y305.69
G0 X31.06 Y308.14
G0 X34.37 Y310.55
G0 X37.84 Y312.94
G0 X41.46 Y315.29
G0 X45.22 Y317.60
G0 X49.14 Y319.88
G0 X53.19 Y322.13
G0 X57.39 Y324.35
G0 X61.72 Y326.52
G0 X66.19 Y328.66
G0 X70.78 Y330.77
G0 X75.50 Y332.83
G0 X80.35 Y334.86
G0 X85.31 Y336.85
G0 X90.39 Y338.80
G0 X95.58 Y340.71
G0 X100.88 Y342.58
G0 X106.28 Y344.41
G0 X111.78 Y346.19
G0 X117.37 Y347.94
G0 X123.06 Y349.65
G0 X128.83 Y351.31
G0 X134.68 Y352.93
G0 X140.61 Y354.50
G0 X146.61 Y356.03
G0 X152.69 Y357.52
G0 X158.82 Y358.96
G0 X165.02 Y360.36
G0 X171.26 Y361.71
G0 X177.56 Y363.01
G0 X183.91 Y364.27
G0 X190.29 Y365.49
G0 X196.71 Y366.65
G0 X203.15 Y367.77
G0 X209.63 Y368.84
G0 X216.12 Y369.87
G0 X222.63 Y370.84
G0 X229.15 Y371.77
G0 X235.67 Y372.65
G0 X242.19 Y373.48
G0 X248.71 Y374.26
G0 X255.22 Y374.99
G0 X261.72 Y375.68
G0 X268.19 Y376.31
G0 X274.64 Y376.89
G0 X281.06 Y377.43
G0 X287.45 Y377.91
G0 X293.80 Y378.34
G0 X300.10 Y378.73
G0 X306.35 Y379.06
G0 X312.55 Y379.34
G0 X318.69 Y379.57
G0 X324.77 Y379.76
G0 X330.78 Y379.89
G0 X336.72 Y379.97
G0 X342.58 Y379.99
G0 X348.36 Y379.97
G0 X354.06 Y379.90
G0 X359.66 Y379.78
G0 X365.17 Y379.60
G0 X370.58 Y379.38
G0 X375.89 Y379.11
G0 X381.09 Y378.78
G0 X386.18 Y378.41
G0 X391.15 Y377.98
G0 X396.01 Y377.50
G0 X400.74 Y376.98
G0 X405.35 Y376.40
G0 X409.83 Y375.78
G0 X414.17 Y375.10
G0 X418.38 Y374.38
G0 X422.45 Y373.60
G0 X426.38 Y372.78
G0 X430.16 Y371.91
G0 X433.80 Y370.99
G0 X437.28 Y370.02
G0 X440.61 Y369.00
G0 X443.78 Y367.94
G0 X446.80 Y366.83
G0 X449.65 Y365.67
G0 X452.34 Y364.46
G0 X454.86 Y363.21
G0 X457.22 Y361.91
G0 X459.41 Y360.57
G0 X461.42 Y359.18
G0 X463.27 Y357.74
G0 X464.94 Y356.26
G0 X466.43 Y354.74
G0 X467.75 Y353.17
G0 X469.86 Y349.90
G0 X471.25 Y346.47
G0 X471.93 Y342.86
G0 X471.88 Y339.09
G0 X471.11 Y335.17
G0 X470.46 Y333.15
G0 X469.62 Y331.09
G0 X468.61 Y328.99
G0 X467.42 Y326.85
G0 X466.06 Y324.68
G0 X464.51 Y322.48
G0 X462.80 Y320.23
G0 X460.91 Y317.96
G0 X458.84 Y315.64
G0 X456.61 Y313.30
G0 X454.21 Y310.92
G0 X451.64 Y308.51
G0 X448.91 Y306.07
G0 X446.02 Y303.60
G0 X442.96 Y301.09
G0 X439.75 Y298.56
G0 X436.38 Y296.00
G0 X432.85 Y293.41
G0 X429.18 Y290.79
G0 X425.36 Y288.15
G0 X421.39 Y285.48
G0 X417.29 Y282.78
G0 X413.04 Y280.06
G0 X408.66 Y277.32
G0 X404.15 Y274.55
G0 X399.50 Y271.76
G0 X394.74 Y268.94
G0 X389.85 Y266.11
G0 X384.84 Y263.26
G0 X379.73 Y260.38
G0 X374.50 Y257.49
G0 X369.16 Y254.58
G0 X363.72 Y251.65
G0 X358.19 Y248.71
G0 X352.56 Y245.75
G0 X346.85 Y242.77
G0 X341.04 Y239.79
G0 X335.16 Y236.78
G0 X329.20 Y233.77
G0 X323.18 Y230.74
G0 X317.08 Y227.71
G0 X310.92 Y224.66
G0 X304.71 Y221.60
G0 X298.44 Y218.54
G0 X292.13 Y215.47
G0 X285.77 Y212.39
G0 X279.37 Y209.30
G0 X272.94 Y206.21
G0 X266.49 Y203.12
G0 X260.00 Y200.02
G0 X253.51 Y196.92
G0 X246.99 Y193.81
G0 X240.47 Y190.71
G0 X233.95 Y187.61
G0 X227.43 Y184.50
G0 X220.91 Y181.40
G0 X214.41 Y178.30
G0 X207.92 Y175.21
G0 X201.45 Y172.11
G0 X195.01 Y169.03
G0 X188.60 Y165.94
G0 X182.23 Y162.87
G0 X175.90 Y159.80
G0 X169.61 Y156.74
G0 X163.38 Y153.69
G0 X157.20 Y150.65
G0 X151.08 Y147.62
G0 X145.02 Y144.60
G0 X139.04 Y141.59
G0 X133.13 Y138.59
G0 X127.30 Y135.61
G0 X121.55 Y132.65
G0 X115.89 Y129.69
G0 X110.32 Y126.76
G0 X104.84 Y123.84
G0 X99.47 Y120.94
G0 X94.20 Y118.06
G0 X89.04 Y115.19
G0 X83.99 Y112.35
G0 X79.06 Y109.53
G0 X74.25 Y106.73
G0 X69.56 Y103.95
G0 X65.00 Y101.19
G0 X60.57 Y98.46
G0 X56.27 Y95.75
G0 X52.11 Y93.07
G0 X48.09 Y90.42
G0 X44.22 Y87.79
G0 X40.49 Y85.18
G0 X36.91 Y82.61
G0 X33.48 Y80.06
G0 X30.21 Y77.54
G0 X27.09 Y75.06
G0 X24.14 Y72.60
G0 X21.35 Y70.18
G0 X18.72 Y67.78
G0 X16.25 Y65.42
G0 X13.96 Y63.10
G0 X11.83 Y60.80
G0 X9.88 Y58.55
G0 X8.10 Y56.32
G0 X6.49 Y54.13
G0 X5.06 Y51.98
G0 X3.80 Y49.87
G0 X2.72 Y47.79
G0 X1.82 Y45.75
G0 X1.10 Y43.75
G0 X0.56 Y41.79
G0 X0.02 Y37.98
G0 X0.20 Y34.34
G0 X1.10 Y30.86
G0 X2.71 Y27.56
G0 X5.04 Y24.43
G0 X6.47 Y22.92
G0 X8.08 Y21.47
G0 X9.86 Y20.06
G0 X11.81 Y18.69
G0 X13.94 Y17.37
G0 X16.23 Y16.10
G0 X18.69 Y14.87
G0 X21.32 Y13.69
G0 X24.11 Y12.56
G0 X27.07 Y11.47
G0 X30.18 Y10.43
G0 X33.45 Y9.44
G0 X36.88 Y8.50
G0 X40.45 Y7.61
G0 X44.18 Y6.76
G0 X48.06 Y5.96
G0 X52.07 Y5.22
G0 X56.23 Y4.52
G0 X60.53 Y3.87
G0 X64.96 Y3.27
G0 X69.52 Y2.72
G0 X74.20 Y2.22
G0 X79.02 Y1.77
G0 X83.95 Y1.38
G0 X88.99 Y1.03
G0 X94.15 Y0.73
G0 X99.42 Y0.48
G0 X104.79 Y0.29
G0 X110.27 Y0.14
G0 X115.84 Y0.04
G0 X121.50 Y0.00
G0 X127.24 Y0.00
G0 X133.08 Y0.06
G0 X138.99 Y0.17
G0 X144.97 Y0.33
G0 X151.02 Y0.53
G0 X157.14 Y0.79
G0 X163.32 Y1.10
G0 X169.56 Y1.46
G0 X175.84 Y1.87
G0 X182.17 Y2.33
G0 X188.54 Y2.84
G0 X194.95 Y3.41
G0 X201.39 Y4.02
G0 X207.86 Y4.68
G0 X214.35 Y5.38
G0 X220.85 Y6.14
G0 X227.37 Y6.95
G0 X233.89 Y7.81
G0 X240.41 Y8.71
G0 X246.93 Y9.67
G0 X253.45 Y10.67
G0 X259.95 Y11.72
G0 X266.43 Y12.82
G0 X272.88 Y13.96
G0 X279.31 Y15.15
G0 X285.71 Y16.39
G0 X292.07 Y17.67
G0 X298.38 Y19.00
G0 X304.65 Y20.38
G0 X310.87 Y21.80
G0 X317.02 Y23.27
G0 X323.12 Y24.78
G0 X329.15 Y26.33
G0 X335.11 Y27.93
G0 X340.99 Y29.57
G0 X346.79 Y31.26
G0 X352.51 Y32.98
G0 X358.14 Y34.75
G0 X363.67 Y36.56
G0 X369.11 Y38.41
G0 X374.45 Y40.31
G0 X379.68 Y42.24
G0 X384.80 Y44.21
G0 X389.81 Y46.22
G0 X394.69 Y48.27
G0 X399.46 Y50.35
G0 X404.11 Y52.48
G0 X408.62 Y54.64
G0 X413.00 Y56.83
G0 X417.25 Y59.06
G0 X421.36 Y61.33
G0 X425.32 Y63.63
G0 X429.15 Y65.97
G0 X432.82 Y68.33
G0 X436.35 Y70.73
G0 X439.72 Y73.17
G0 X442.93 Y75.63
G0 X445.99 Y78.12
G0 X448.89 Y80.65
G0 X451.62 Y83.20
G0 X454.19 Y85.78
G0 X456.59 Y88.39
G0 X458.83 Y91.03
G0 X460.89 Y93.69
G0 X462.78 Y96.38
G0 X464.50 Y99.09
G0 X466.04 Y101.83
G0 X467.41 Y104.59
G0 X468.60 Y107.37
G0 X469.62 Y110.18
G0 X470.45 Y113.01
G0 X471.11 Y115.85
G0 X471.58 Y118.72
G0 X471.88 Y121.61
G0 X471.99 Y124.51
G0 X471.93 Y127.44
G0 X471.68 Y130.37
G0 X471.26 Y133.33
G0 X470.65 Y136.30
G0 X469.87 Y139.28
G0 X468.91 Y142.28
G0 X467.76 Y145.29
G0 X466.45 Y148.31
G0 X464.95 Y151.35
G0 X463.28 Y154.39
G0 X461.44 Y157.45
G0 X459.42 Y160.51
G0 X457.24 Y163.58
G0 X454.88 Y166.66
G0 X452.36 Y169.74
G0 X449.67 Y172.83
G0 X446.82 Y175.92
G0 X443.81 Y179.02
G0 X440.64 Y182.12
G0 X437.31 Y185.22
G0 X433.83 Y188.32
G0 X430.20 Y191.43
G0 X426.42 Y194.53
G0 X422.49 Y197.63
G0 X418.42 Y200.73
G0 X414.21 Y203.83
G0 X409.87 Y206.92
G0 X405.39 Y210.01
G0 X400.78 Y213.10
G0 X396.05 Y216.18
G0 X391.19 Y219.25
G0 X386.22 Y222.31
G0 X381.13 Y225.36
G0 X375.93 Y228.41
G0 X370.63 Y231.44
G0 X365.22 Y234.47
G0 X359.71 Y237.48
G0 X354.11 Y240.48
G0 X348.41 Y243.46
G0 X342.63 Y246.43
G0 X336.77 Y249.39
G0 X330.84 Y252.33
G0 X324.83 Y255.25
G0 X318.75 Y258.16
G0 X312.61 Y261.05
G0 X306.41 Y263.92
G0 X300.15 Y266.77
G0 X293.85 Y269.59
G0 X287.51 Y272.40
G0 X281.12 Y275.19
G0 X274.70 Y277.95
G0 X268.25 Y280.69
G0 X261.77 Y283.41
G0 X255.28 Y286.10
G0 X248.77 Y288.76
G0 X242.25 Y291.40
G0 X235.73 Y294.01
G0 X229.20 Y296.59
G0 X222.69 Y299.15
G0 X216.18 Y301.67
G0 X209.68 Y304.17
G0 X203.21 Y306.64
G0 X196.76 Y309.07
G0 X190.35 Y311.47
G0 X183.96 Y313.84
G0 X177.62 Y316.18
G0 X171.32 Y318.48
G0 X165.07 Y320.75
G0 X158.88 Y322.99
G0 X152.74 Y325.19
G0 X146.67 Y327.35
G0 X140.66 Y329.48
G0 X134.73 Y331.56
G0 X128.88 Y333.62
G0 X123.11 Y335.63
G0 X117.42 Y337.60
G0 X111.83 Y339.54
G0 X106.33 Y341.43
G0 X100.93 Y343.29
G0 X95.63 Y345.10
G0 X90.44 Y346.87
G0 X85.36 Y348.60
G0 X80.39 Y350.29
G0 X75.55 Y351.93
G0 X70.82 Y353.54
G0 X66.23 Y355.09
G0 X61.76 Y356.61
G0 X57.43 Y358.08
G0 X53.23 Y359.50
G0 X49.17 Y360.88
G0 X45.26 Y362.22
G0 X41.49 Y363.50
G0 X37.87 Y364.75
G0 X34.40 Y365.94
G0 X31.09 Y367.09
G0 X27.93 Y368.19
G0 X24.93 Y369.24
G0 X22.09 Y370.25
G0 X19.42 Y371.21
G0 X16.91 Y372.11
G0 X14.57 Y372.97
G0 X12.39 Y373.79
G0 X10.39 Y374.55
G0 X6.91 Y375.93
G0 X4.13 Y377.10
G0 X2.05 Y378.08
G0 X0.28 Y379.17
G0 X2.45 Y379.95
G0 X4.68 Y379.72
G0 X7.62 Y379.28
G0 X11.26 Y378.64
G0 X13.34 Y378.25
G0 X15.59 Y377.80
G0 X18.00 Y377.31
G0 X20.59 Y376.76
G0 X23.34 Y376.17
G0 X26.25 Y375.52
G0 X29.32 Y374.83
G0 X32.54 Y374.09
G0 X35.93 Y373.29
G0 X39.46 Y372.45
G0 X43.15 Y371.56
G0 X46.99 Y370.62
G0 X50.96 Y369.63
G0 X55.08 Y368.60
G0 X59.34 Y367.52
G0 X63.74 Y366.39
G0 X68.26 Y365.21
G0 X72.91 Y363.99
G0 X77.69 Y362.72
G0 X82.59 Y361.40
G0 X87.61 Y360.04
G0 X92.74 Y358.63
G0 X97.97 Y357.18
G0 X103.32 Y355.68
G0 X108.76 Y354.14
G0 X114.31 Y352.56
G0 X119.94 Y350.93
G0 X125.67 Y349.26
G0 X131.48 Y347.54
G0 X137.37 Y345.79
G0 X143.33 Y343.99
G0 X149.37 Y342.15
G0 X155.47 Y340.27
G0 X161.63 Y338.35
G0 X167.85 Y336.39
G0 X174.12 Y334.39
G0 X180.44 Y332.36
G0 X186.80 Y330.28
G0 X193.20 Y328.17
G0 X199.63 Y326.02
G0 X206.09 Y323.84
G0 X212.58 Y321.62
G0 X219.08 Y319.36
G0 X225.59 Y317.07
G0 X232.11 Y314.75
G0 X238.63 Y312.39
G0 X245.16 Y310.00
G0 X251.67 Y307.58
G0 X258.18 Y305.12
G0 X264.66 Y302.64
G0 X271.13 Y300.12
G0 X277.56 Y297.58
G0 X283.97 Y295.01
G0 X290.34 Y292.41
G0 X296.67 Y289.78
G0 X302.95 Y287.12
G0 X309.18 Y284.44
G0 X315.35 Y281.74
G0 X321.46 Y279.01
G0 X327.51 Y276.25
G0 X333.49 Y273.48
G0 X339.39 Y270.68
G0 X345.22 Y267.86
G0 X350.96 Y265.01
G0 X356.61 Y262.15
G0 X362.17 Y259.27
G0 X367.64 Y256.37
G0 X373.00 Y253.46
G0 X378.26 Y250.52
G0 X383.41 Y247.57
G0 X388.45 Y244.61
G0 X393.37 Y241.63
G0 X398.17 Y238.63
G0 X402.85 Y235.63
G0 X407.40 Y232.61
G0 X411.82 Y229.58
G0 X416.10 Y226.54
G0 X420.25 Y223.48
G0 X424.26 Y220.42
G0 X428.12 Y217.36
G0 X431.83 Y214.28
G0 X435.40 Y211.20
G0 X438.81 Y208.11
G0 X442.07 Y205.02
G0 X445.17 Y201.93
G0 X448.11 Y198.83
G0 X450.89 Y195.72
G0 X453.51 Y192.62
G0 X455.95 Y189.52
G0 X458.23 Y186.41
G0 X460.34 Y183.31
G0 X462.28 Y180.21
G0 X464.05 Y177.11
G0 X465.64 Y174.02
G0 X467.06 Y170.93
G0 X468.29 Y167.84
G0 X469.36 Y164.76
G0 X470.24 Y161.69
G0 X470.94 Y158.62
G0 X471.47 Y155.57
G0 X471.81 Y152.52
G0 X471.98 Y149.48
G0 X471.96 Y146.45
G0 X471.77 Y143.44
G0 X471.39 Y140.44
G0 X470.84 Y137.45
G0 X470.10 Y134.47
G0 X469.19 Y131.51
G0 X468.09 Y128.56
G0 X466.82 Y125.63
G0 X465.38 Y122.72
G0 X463.76 Y119.83
G0 X461.96 Y116.95
G0 X459.99 Y114.10
G0 X457.85 Y111.26
G0 X455.54 Y108.45
G0 X453.06 Y105.66
G0 X450.42 Y102.89
G0 X447.62 Y100.14
G0 X444.65 Y97.42
G0 X441.52 Y94.72
G0 X438.23 Y92.05
G0 X434.79 Y89.40
G0 X431.20 Y86.78
G0 X427.46 Y84.19
G0 X423.57 Y81.62
G0 X419.54 Y79.09
G0 X415.37 Y76.58
G0 X411.07 Y74.11
G0 X406.62 Y71.67
G0 X402.05 Y69.25
G0 X397.35 Y66.87
G0 X392.53 Y64.52
G0 X387.59 Y62.21
G0 X382.53 Y59.93
G0 X377.36 Y57.69
G0 X372.08 Y55.48
G0 X366.70 Y53.30
G0 X361.22 Y51.16
G0 X355.64 Y49.06
G0 X349.97 Y47.00
G0 X344.22 Y44.98
G0 X338.38 Y42.99
G0 X332.46 Y41.04
G0 X326.47 Y39.14
G0 X320.41 Y37.27
G0 X314.29 Y35.44
G0 X308.10 Y33.66
G0 X301.87 Y31.92
G0 X295.58 Y30.22
G0 X289.24 Y28.56
G0 X282.86 Y26.94
G0 X276.45 Y25.37
G0 X270.01 Y23.84
G0 X263.54 Y22.36
G0 X257.05 Y20.92
G0 X250.55 Y19.53
G0 X244.03 Y18.18
G0 X237.51 Y16.88
G0 X230.98 Y15.62
G0 X224.46 Y14.41
G0 X217.95 Y13.25
G0 X211.45 Y12.13
G0 X204.97 Y11.07
G0 X198.52 Y10.05
G0 X192.09 Y9.07
G0 X185.70 Y8.15
G0 X179.35 Y7.28
G0 X173.03 Y6.45
G0 X166.77 Y5.67
G0 X160.56 Y4.94
G0 X154.41 Y4.26
G0 X148.32 Y3.63
G0 X142.30 Y3.05
G0 X136.34 Y2.52
G0 X130.47 Y2.04
G0 X124.67 Y1.62
G0 X118.96 Y1.24
G0 X113.34 Y0.91
G0 X107.82 Y0.63
G0 X102.39 Y0.40
G0 X97.06 Y0.22
G0 X91.84 Y0.10
G0 X86.73 Y0.02
G0 X81.74 Y0.00
G0 X76.86 Y0.02
G0 X72.10 Y0.10
G0 X67.47 Y0.22
G0 X62.97 Y0.40
G0 X58.60 Y0.63
G0 X54.36 Y0.91
G0 X50.27 Y1.24
G0 X46.31 Y1.62
G0 X42.50 Y2.04
G0 X38.84 Y2.52
G0 X35.33 Y3.05
G0 X31.97 Y3.63
G0 X28.77 Y4.26
G0 X25.73 Y4.94
G0 X22.85 Y5.67
G0 X20.13 Y6.45
G0 X17.58 Y7.28
G0 X15.19 Y8.15
G0 X12.97 Y9.07
G0 X10.92 Y10.05
G0 X9.05 Y11.07
G0 X7.34 Y12.13
G0 X4.46 Y14.41
G0 X2.29 Y16.88
G0 X0.83 Y19.53
G0 X0.09 Y22.36
G0 X0.08 Y25.37
G0 X0.78 Y28.56
G0 X2.20 Y31.92
G0 X4.34 Y35.44
G0 X5.67 Y37.27
G0 X7.18 Y39.14
G0 X8.87 Y41.04
G0 X10.73 Y42.99
G0 X12.76 Y44.98
G0 X14.96 Y47.00
G0 X17.33 Y49.06
G0 X19.87 Y51.16
G0 X22.57 Y53.30
G0 X25.44 Y55.48
G0 X28.46 Y57.69
G0 X31.65 Y59.93
G0 X34.99 Y62.21
G0 X38.48 Y64.52
G0 X42.13 Y66.87
G0 X45.92 Y69.25
G0 X49.86 Y71.67
G0 X53.95 Y74.11
G0 X58.17 Y76.58
G0 X62.52 Y79.09
G0 X67.01 Y81.62
G0 X71.63 Y84.19
G0 X76.38 Y86.78
G0 X81.24 Y89.40
G0 X86.23 Y92.05
G0 X91.33 Y94.72
G0 X96.54 Y97.42
G0 X101.85 Y100.14
G0 X107.27 Y102.89
G0 X112.79 Y105.66
G0 X118.40 Y108.45
G0 X124.10 Y111.26
G0 X129.89 Y114.10
G0 X135.75 Y116.95
G0 X141.70 Y119.83
G0 X147.71 Y122.72
G0 X153.80 Y125.63
G0 X159.94 Y128.56
G0 X166.15 Y131.51
G0 X172.41 Y134.47
G0 X178.71 Y137.45
G0 X185.06 Y140.44
G0 X191.45 Y143.44
G0 X197.88 Y146.45
G0 X204.33 Y149.48
G0 X210.81 Y152.52
G0 X217.30 Y155.57
G0 X223.81 Y158.62
G0 X230.33 Y161.69
G0 X236.86 Y164.76
G0 X243.38 Y167.84
G0 X249.90 Y170.93
G0 X256.40 Y174.02
G0 X262.89 Y177.11
G0 X269.37 Y180.21
G0 X275.81 Y183.31
G0 X282.23 Y186.41
G0 X288.61 Y189.52
G0 X294.94 Y192.62
G0 X301.24 Y195.72
G0 X307.48 Y198.83
G0 X313.67 Y201.93
G0 X319.80 Y205.02
G0 X325.87 Y208.11
G0 X331.87 Y211.20
G0 X337.79 Y214.28
G0 X343.64 Y217.36
G0 X349.40 Y220.42
G0 X355.08 Y223.48
G0 X360.67 Y226.54
G0 X366.16 Y229.58
G0 X371.55 Y232.61
G0 X376.84 Y235.63
G0 X382.02 Y238.63
G0 X387.09 Y241.63
G0 X392.04 Y244.61
G0 X396.88 Y247.57
G0 X401.59 Y250.52
G0 X406.17 Y253.46
G0 X410.63 Y256.37
G0 X414.95 Y259.27
G0 X419.13 Y262.15
G0 X423.18 Y265.01
G0 X427.08 Y267.86
G0 X430.84 Y270.68
G0 X434.44 Y273.48
G0 X437.90 Y276.25
G0 X441.20 Y279.01
G0 X444.34 Y281.74
G0 X447.33 Y284.44
G0 X450.15 Y287.12
G0 X452.81 Y289.78
G0 X455.30 Y292.41
G0 X457.63 Y295.01
G0 X459.78 Y297.58
G0 X461.77 Y300.12
G0 X463.58 Y302.64
G0 X465.22 Y305.12
G0 X466.69 Y307.58
G0 X467.97 Y310.00
G0 X469.08 Y312.39
G0 X470.02 Y314.75
G0 X470.77 Y317.07
G0 X471.34 Y319.36
G0 X471.74 Y321.62
G0 X471.95 Y323.84
G0 X471.99 Y326.02
G0 X471.84 Y328.17
G0 X471.51 Y330.28
G0 X471.01 Y332.36
G0 X470.32 Y334.39
G0 X469.45 Y336.39
G0 X468.41 Y338.35
G0 X467.19 Y340.27
G0 X465.79 Y342.15
G0 X464.21 Y343.99
G0 X462.47 Y345.79
G0 X460.54 Y347.54
G0 X458.45 Y349.26
G0 X456.19 Y350.93
G0 X453.76 Y352.56
G0 X451.16 Y354.14
G0 X448.40 Y355.68
G0 X445.47 Y357.18
G0 X442.39 Y358.63
G0 X439.15 Y360.04
G0 X435.75 Y361.40
G0 X432.20 Y362.72
G0 X428.50 Y363.99
G0 X424.65 Y365.21
G0 X420.66 Y366.39
G0 X416.52 Y367.52
G0 X412.25 Y368.60
G0 X407.85 Y369.63
G0 X403.31 Y370.62
G0 X398.65 Y371.56
G0 X393.86 Y372.45
G0 X388.95 Y373.29
G0 X383.92 Y374.09
G0 X378.78 Y374.83
G0 X373.53 Y375.52
G0 X368.18 Y376.17
G0 X362.73 Y376.76
G0 X357.17 Y377.31
G0 X351.53 Y377.80
G0 X345.80 Y378.25
G0 X339.98 Y378.64
G0 X334.08 Y378.99
G0 X328.11 Y379.28
G0 X322.07 Y379.52
G0 X315.96 Y379.72
G0 X309.80 Y379.86
G0 X303.57 Y379.95
G0 X297.30 Y379.99
G0 X290.97 Y379.98
G0 X284.61 Y379.92
G0 X278.20 Y379.81
G0 X271.77 Y379.65
G0 X265.31 Y379.44
G0 X258.82 Y379.17
G0 X252.32 Y378.86
G0 X245.81 Y378.50
G0 X239.29 Y378.08
G0 X232.76 Y377.62
G0 X226.24 Y377.10
G0 X219.73 Y376.54
G0 X213.22 Y375.93
G0 X206.74 Y375.26
G0 X200.28 Y374.55
G0 X193.84 Y373.79
G0 X187.44 Y372.97
G0 X181.07 Y372.11
G0 X174.75 Y371.21
G0 X168.47 Y370.25
G0 X162.25 Y369.24
G0 X156.08 Y368.19
G0 X149.97 Y367.09
G0 X143.93 Y365.94
G0 X137.96 Y364.75
G0 X132.06 Y363.50
G0 X126.25 Y362.22
G0 X120.51 Y360.88
G0 X114.87 Y359.50
G0 X109.31 Y358.08
G0 X103.86 Y356.61
G0 X98.50 Y355.09
G0 X93.25 Y353.54
G0 X88.11 Y351.93
G0 X83.09 Y350.29
G0 X78.18 Y348.60
G0 X73.39 Y346.87
G0 X68.72 Y345.10
G0 X64.18 Y343.29
G0 X59.78 Y341.43
G0 X55.50 Y339.54
G0 X51.37 Y337.60
G0 X47.38 Y335.63
G0 X43.53 Y333.62
G0 X39.83 Y331.56
G0 X36.27 Y329.48
G0 X32.87 Y327.35
G0 X29.63 Y325.19
G0 X26.54 Y322.99
G0 X23.62 Y320.75
G0 X20.85 Y318.48
G0 X18.26 Y316.18
G0 X15.82 Y313.84
G0 X13.56 Y311.47
G0 X11.46 Y309.07
G0 X9.54 Y306.64
G0 X7.79 Y304.17
G0 X6.21 Y301.67
G0 X4.81 Y299.15
G0 X3.59 Y296.59
G0 X2.55 Y294.01
G0 X1.68 Y291.40
G0 X0.99 Y288.76
G0 X0.48 Y286.10
G0 X0.15 Y283.41
G0 X0.00 Y280.69
G0 X0.04 Y277.95
G0 X0.25 Y275.19
G0 X0.64 Y272.40
G0 X1.21 Y269.59
G0 X1.97 Y266.77
G0 X2.90 Y263.92
G0 X4.00 Y261.05
G0 X5.29 Y258.16
G0 X6.75 Y255.25
G0 X8.39 Y252.33
G0 X10.20 Y249.39
G0 X12.19 Y246.43
G0 X14.34 Y243.46
G0 X16.67 Y240.48
G0 X19.16 Y237.48
G0 X21.82 Y234.47
G0 X24.64 Y231.44
G0 X27.62 Y228.41
G0 X30.76 Y225.36
G0 X34.06 Y222.31
G0 X37.52 Y219.25
G0 X41.12 Y216.18
G0 X44.88 Y213.10
G0 X48.78 Y210.01
G0 X52.82 Y206.92
G0 X57.00 Y203.83
G0 X61.32 Y200.73
G0 X65.78 Y197.63
G0 X70.36 Y194.53
G0 X75.07 Y191.43
G0 X79.90 Y188.32
G0 X84.86 Y185.22
G0 X89.92 Y182.12
G0 X95.10 Y179.02
G0 X100.39 Y175.92
G0 X105.78 Y172.83
G0 X111.27 Y169.74
G0 X116.86 Y166.66
G0 X122.54 Y163.58
G0 X128.30 Y160.51
G0 X134.14 Y157.45
G0 X140.07 Y154.39
G0 X146.07 Y151.35
G0 X152.13 Y148.31
G0 X158.26 Y145.29
G0 X164.45 Y142.28
G0 X170.69 Y139.28
G0 X176.99 Y136.30
G0 X183.33 Y133.33
G0 X189.71 Y130.37
G0 X196.12 Y127.44
G0 X202.57 Y124.51
G0 X209.04 Y121.61
G0 X215.53 Y118.72
G0 X222.04 Y115.85
G0 X228.55 Y113.01
G0 X235.08 Y110.18
G0 X241.60 Y107.37
G0 X248.12 Y104.59
G0 X254.63 Y101.83
G0 X261.13 Y99.09
G0 X267.60 Y96.38
G0 X274.06 Y93.69
G0 X280.48 Y91.03
G0 X286.87 Y88.39
G0 X293.22 Y85.78
G0 X299.53 Y83.20
G0 X305.79 Y80.65
G0 X311.99 Y78.12
G0 X318.14 Y75.63
G0 X324.22 Y73.17
G0 X330.24 Y70.73
G0 X336.18 Y68.33
G0 X342.05 Y65.97
G0 X347.84 Y63.63
G0 X353.54 Y61.33
G0 X359.15 Y59.06
G0 X364.67 Y56.83
G0 X370.09 Y54.64
G0 X375.41 Y52.48
G0 X380.62 Y50.35
G0 X385.72 Y48.27
G0 X390.70 Y46.22
G0 X395.57 Y44.21
G0 X400.32 Y42.24
G0 X404.94 Y40.31
G0 X409.43 Y38.41
G0 X413.78 Y36.56
G0 X418.01 Y34.75
G0 X422.09 Y32.98
G0 X426.03 Y31.26
G0 X429.83 Y29.57
G0 X433.47 Y27.93
G0 X436.97 Y26.33
G0 X440.31 Y24.78
G0 X443.50 Y23.27
G0 X446.53 Y21.80
G0 X449.40 Y20.38
G0 X452.10 Y19.00
G0 X454.64 Y17.67
G0 X457.01 Y16.39
G0 X459.21 Y15.15
G0 X461.25 Y13.96
G0 X463.11 Y12.82
G0 X464.79 Y11.72
G0 X467.64 Y9.67
G0 X469.78 Y7.81
G0 X471.21 Y6.14
G0 X471.99 Y4.02
G0 X470.52 Y1.87
G0 X467.54 Y0.79
G0 X464.66 Y0.33
G0 X461.09 Y0.06
G0 X459.04 Y0.00
G0 X456.82 Y0.00
G0 X454.44 Y0.04
G0 X451.88 Y0.14
G0 X449.17 Y0.29
G0 X446.29 Y0.48
G0 X443.24 Y0.73
G0 X440.04 Y1.03
G0 X436.69 Y1.38
G0 X433.18 Y1.77
G0 X429.52 Y2.22
G0 X425.71 Y2.72
G0 X421.76 Y3.27
G0 X417.67 Y3.87
G0 X413.43 Y4.52
G0 X409.06 Y5.22
G0 X404.56 Y5.96
G0 X399.93 Y6.76
G0 X395.18 Y7.61
G0 X390.30 Y8.50
G0 X385.30 Y9.44
G0 X380.20 Y10.43
G0 X374.98 Y11.47
G0 X369.65 Y12.56
G0 X364.22 Y13.69
G0 X358.70 Y14.87
G0 X353.08 Y16.10
G0 X347.37 Y17.37
G0 X341.57 Y18.69
G0 X335.70 Y20.06
G0 X329.75 Y21.47
G0 X323.73 Y22.92
G0 X317.64 Y24.43
G0 X311.48 Y25.97
G0 X305.27 Y27.56
G0 X299.01 Y29.19
G0 X292.70 Y30.86
G0 X286.35 Y32.58
G0 X279.95 Y34.34
G0 X273.53 Y36.14
G0 X267.07 Y37.98
G0 X260.59 Y39.87
G0 X254.10 Y41.79
G0 X247.59 Y43.75
G0 X241.07 Y45.75
G0 X234.54 Y47.79
G0 X228.02 Y49.87
G0 X221.50 Y51.98
G0 X215.00 Y54.13
G0 X208.51 Y56.32
G0 X202.04 Y58.55
G0 X195.59 Y60.80
G0 X189.18 Y63.10
G0 X182.81 Y65.42
G0 X176.47 Y67.78
G0 X170.18 Y70.18
G0 X163.94 Y72.60
G0 X157.76 Y75.06
G0 X151.63 Y77.54
G0 X145.57 Y80.06
G0 X139.58 Y82.61
G0 X133.66 Y85.18
G0 X127.82 Y87.79
G0 X122.07 Y90.42
G0 X116.40 Y93.07
G0 X110.82 Y95.75
G0 X105.34 Y98.46
G0 X99.95 Y101.19
G0 X94.68 Y103.95
G0 X89.50 Y106.73
G0 X84.45 Y109.53
G0 X79.50 Y112.35
G0 X74.68 Y115.19
G0 X69.98 Y118.06
G0 X65.41 Y120.94
G0 X60.96 Y123.84
G0 X56.65 Y126.76
G0 X52.48 Y129.69
G0 X48.45 Y132.65
G0 X44.56 Y135.61
G0 X40.82 Y138.59
G0 X37.23 Y141.59
G0 X33.79 Y144.60
G0 X30.50 Y147.62
G0 X27.37 Y150.65
G0 X24.40 Y153.69
G0 X21.59 Y156.74
G0 X18.95 Y159.80
G0 X16.47 Y162.87
G0 X14.16 Y165.94
G0 X12.02 Y169.03
G0 X10.05 Y172.11
G0 X8.25 Y175.21
G0 X6.63 Y178.30
G0 X5.18 Y181.40
G0 X3.91 Y184.50
G0 X2.81 Y187.61
G0 X1.90 Y190.71
G0 X1.16 Y193.81
G0 X0.60 Y196.92
G0 X0.22 Y200.02
G0 X0.03 Y203.12
G0 X0.01 Y206.21
G0 X0.17 Y209.30
G0 X0.52 Y212.39
G0 X1.04 Y215.47
G0 X1.74 Y218.54
G0 X2.62 Y221.60
G0 X3.68 Y224.66
G0 X4.92 Y227.71
G0 X6.34 Y230.74
G0 X7.93 Y233.77
G0 X9.69 Y236.78
G0 X11.63 Y239.79
G0 X13.74 Y242.77
G0 X16.02 Y245.75
G0 X18.46 Y248.71
G0 X21.08 Y251.65
G0 X23.85 Y254.58
G0 X26.79 Y257.49
G0 X29.89 Y260.38
G0 X33.15 Y263.26
G0 X36.56 Y266.11
G0 X40.12 Y268.94
G0 X43.84 Y271.76
G0 X47.70 Y274.55
G0 X51.70 Y277.32
G0 X55.85 Y280.06
G0 X60.13 Y282.78
G0 X64.55 Y285.48
G0 X69.10 Y288.15
G0 X73.77 Y290.79
G0 X78.57 Y293.41
G0 X83.49 Y296.00
G0 X88.53 Y298.56
G0 X93.68 Y301.09
G0 X98.94 Y303.60
G0 X104.30 Y306.07
G0 X109.77 Y308.51
G0 X115.33 Y310.92
G0 X120.98 Y313.30
G0 X126.72 Y315.64
G0 X132.54 Y317.96
G0 X138.45 Y320.23
G0 X144.42 Y322.48
G0 X150.47 Y324.68
G0 X156.58 Y326.85
G0 X162.76 Y328.99
G0 X168.99 Y331.09
G0 X175.27 Y333.15
G0 X181.59 Y335.17
G0 X187.96 Y337.15
G0 X194.37 Y339.09
G0 X200.81 Y341.00
G0 X207.27 Y342.86
G0 X213.76 Y344.68
G0 X220.26 Y346.47
G0 X226.77 Y348.21
G0 X233.30 Y349.90
G0 X239.82 Y351.56
G0 X246.34 Y353.17
G0 X252.86 Y354.74
G0 X259.36 Y356.26
G0 X265.84 Y357.74
G0 X272.30 Y359.18
G0 X278.73 Y360.57
G0 X285.13 Y361.91
G0 X291.49 Y363.21
G0 X297.81 Y364.46
G0 X304.08 Y365.67
G0 X310.30 Y366.83
G0 X316.47 Y367.94
G0 X322.57 Y369.00
G0 X328.61 Y370.02
G0 X334.57 Y370.99
G0 X340.46 Y371.91
G0 X346.27 Y372.78
G0 X351.99 Y373.60
G0 X357.63 Y374.38
G0 X363.18 Y375.10
G0 X368.62 Y375.78
G0 X373.97 Y376.40
G0 X379.21 Y376.98
G0 X384.34 Y377.50
G0 X389.36 Y377.98
G0 X394.26 Y378.41
G0 X399.03 Y378.78
G0 X403.69 Y379.11
G0 X408.21 Y379.38
G0 X412.61 Y379.60
G0 X416.87 Y379.78
G0 X420.99 Y379.90
G0 X424.97 Y379.97
G0 X428.81 Y379.99
G0 X432.49 Y379.97
G0 X436.03 Y379.89
G0 X439.42 Y379.76
G0 X442.65 Y379.57
G0 X445.72 Y379.34
G0 X448.63 Y379.06
G0 X451.38 Y378.73
G0 X453.96 Y378.34
G0 X456.38 Y377.91
G0 X458.63 Y377.43
G0 X460.71 Y376.89
G0 X464.35 Y375.68
G0 X467.29 Y374.26
G0 X469.53 Y372.65
G0 X471.05 Y370.84
G0 X471.86 Y368.84
G0 X471.94 Y366.65
G0 X471.30 Y364.27
G0 X469.95 Y361.71
G0 X467.88 Y358.96
G0 X465.10 Y356.03
G0 X463.44 Y354.50
G0 X461.61 Y352.93
G0 X459.61 Y351.31
G0 X457.44 Y349.65
G0 X455.10 Y347.94
G0 X452.60 Y346.19
G0 X449.92 Y344.41
G0 X447.09 Y342.58
G0 X444.09 Y340.71
G0 X440.93 Y338.80
G0 X437.62 Y336.85
G0 X434.15 Y334.86
G0 X430.53 Y332.83
G0 X426.77 Y330.77
G0 X422.85 Y328.66
G0 X418.80 Y326.52
G0 X414.60 Y324.35
G0 X410.27 Y322.13
G0 X405.80 Y319.88
G0 X401.21 Y317.60
G0 X396.49 Y315.29
G0 X391.64 Y312.94
G0 X386.68 Y310.55
G0 X381.60 Y308.14
G0 X376.41 Y305.69
G0 X371.11 Y303.21
G0 X365.71 Y300.71
G0 X360.21 Y298.17
G0 X354.62 Y295.60
G0 X348.93 Y293.01
G0 X343.16 Y290.39
G0 X337.31 Y287.74
G0 X331.38 Y285.06
G0 X325.38 Y282.36
G0 X319.30 Y279.64
G0 X313.17 Y276.89
G0 X306.97 Y274.12
G0 X300.73 Y271.32
G0 X294.43 Y268.51
G0 X288.08 Y265.67
G0 X281.70 Y262.82
G0 X275.28 Y259.94
G0 X268.84 Y257.04
G0 X262.36 Y254.13
G0 X255.87 Y251.20
G0 X249.36 Y248.25
G0 X242.84 Y245.29
G0 X236.32 Y242.32
G0 X229.80 Y239.32
G0 X223.28 Y236.32
G0 X216.77 Y233.30
G0 X210.27 Y230.28
G0 X203.80 Y227.24
G0 X197.35 Y224.19
G0 X190.93 Y221.13
G0 X184.54 Y218.07
G0 X178.19 Y214.99
G0 X171.89 Y211.91
G0 X165.64 Y208.83
G0 X159.44 Y205.74
G0 X153.30 Y202.64
G0 X147.22 Y199.54
G0 X141.21 Y196.44
G0 X135.27 Y193.34
G0 X129.41 Y190.23
G0 X123.63 Y187.13
G0 X117.93 Y184.03
G0 X112.33 Y180.93
G0 X106.82 Y177.83
G0 X101.41 Y174.73
G0 X96.10 Y171.64
G0 X90.90 Y168.55
G0 X85.81 Y165.47
G0 X80.84 Y162.40
G0 X75.98 Y159.33
G0 X71.25 Y156.27
G0 X66.64 Y153.22
G0 X62.16 Y150.18
G0 X57.82 Y147.15
G0 X53.61 Y144.13
G0 X49.54 Y141.13
G0 X45.61 Y138.13
G0 X41.83 Y135.16
G0 X38.19 Y132.19
G0 X34.71 Y129.24
G0 X31.38 Y126.31
G0 X28.21 Y123.39
G0 X25.19 Y120.50
G0 X22.34 Y117.62
G0 X19.65 Y114.76
G0 X17.13 Y111.92
G0 X14.77 Y109.10
G0 X12.58 Y106.30
G0 X10.57 Y103.52
G0 X8.72 Y100.77
G0 X7.05 Y98.04
G0 X5.56 Y95.34
G0 X4.24 Y92.66
G0 X3.09 Y90.01
G0 X2.13 Y87.38
G0 X1.34 Y84.78
G0 X0.74 Y82.21
G0 X0.31 Y79.67
G0 X0.06 Y77.16
G0 X0.00 Y74.68
G0 X0.11 Y72.23
G0 X0.40 Y69.81
G0 X0.88 Y67.42
G0 X1.53 Y65.06
G0 X2.37 Y62.74
G0 X3.38 Y60.45
G0 X4.57 Y58.20
G0 X5.93 Y55.98
G0 X7.48 Y53.80
G0 X9.19 Y51.65
G0 X11.08 Y49.55
G0 X13.15 Y47.47
G0 X15.38 Y45.44
G0 X17.78 Y43.45
G0 X20.35 Y41.49
G0 X23.08 Y39.57
G0 X25.97 Y37.70
G0 X29.03 Y35.86
G0 X32.24 Y34.07
G0 X35.61 Y32.31
G0 X39.14 Y30.60
G0 X42.81 Y28.94
G0 X46.63 Y27.31
G0 X50.60 Y25.73
G0 X54.70 Y24.19
G0 X58.95 Y22.70
G0 X63.33 Y21.25
G0 X67.84 Y19.85
G0 X72.49 Y18.49
G0 X77.25 Y17.17
G0 X82.14 Y15.91
G0 X87.15 Y14.69
G0 X92.26 Y13.51
G0 X97.49 Y12.39
G0 X102.83 Y11.31
G0 X108.27 Y10.28
G0 X113.80 Y9.29
G0 X119.43 Y8.36
G0 X125.14 Y7.47
G0 X130.95 Y6.63
G0 X136.83 Y5.85
G0 X142.79 Y5.11
G0 X148.81 Y4.42
G0 X154.91 Y3.78
G0 X161.07 Y3.18
G0 X167.28 Y2.64
G0 X173.55 Y2.15
G0 X179.86 Y1.71
G0 X186.22 Y1.32
G0 X192.62 Y0.98
G0 X199.05 Y0.69
G0 X205.50 Y0.45
G0 X211.99 Y0.26
G0 X218.48 Y0.12
G0 X225.00 Y0.03
G0 X231.52 Y0.00
G0 X238.04 Y0.01
G0 X244.56 Y0.07
G0 X251.08 Y0.19
G0 X257.58 Y0.36
G0 X264.07 Y0.57
G0 X270.54 Y0.84
G0 X276.98 Y1.16
G0 X283.39 Y1.52
G0 X289.76 Y1.94
G0 X296.09 Y2.41
G0 X302.38 Y2.93
G0 X308.61 Y3.50
G0 X314.79 Y4.11
G0 X320.91 Y4.78
G0 X326.97 Y5.50
G0 X332.95 Y6.26
G0 X338.86 Y7.08
G0 X344.69 Y7.94
G0 X350.44 Y8.86
G0 X356.10 Y9.82
G0 X361.67 Y10.83
G0 X367.15 Y11.88
G0 X372.52 Y12.99
G0 X377.79 Y14.14
G0 X382.95 Y15.34
G0 X388.00 Y16.58
G0 X392.93 Y17.88
G0 X397.74 Y19.21
G0 X402.43 Y20.60
G0 X406.99 Y22.02
G0 X411.42 Y23.50
G0 X415.72 Y25.01
G0 X419.88 Y26.58
G0 X423.90 Y28.18
G0 X427.77 Y29.83
G0 X431.50 Y31.52
G0 X435.08 Y33.25
G0 X438.51 Y35.03
G0 X441.78 Y36.85
G0 X444.90 Y38.70
G0 X447.85 Y40.60
G0 X450.64 Y42.54
G0 X453.27 Y44.51
G0 X455.74 Y46.53
G0 X458.03 Y48.58
G0 X460.16 Y50.68
G0 X462.11 Y52.81
G0 X463.89 Y54.97
G0 X465.50 Y57.17
G0 X466.93 Y59.41
G0 X468.19 Y61.68
G0 X469.27 Y63.99
G0 X470.17 Y66.33
G0 X470.89 Y68.70
G0 X471.43 Y71.11
G0 X471.79 Y73.54
G0 X471.97 Y76.01
G0 X471.97 Y78.51
G0 X471.79 Y81.04
G0 X471.43 Y83.59
G0 X470.89 Y86.18
G0 X470.17 Y88.79
G0 X469.28 Y91.43
G0 X468.20 Y94.10
G0 X466.95 Y96.79
G0 X465.52 Y99.51
G0 X463.91 Y102.25
G0 X462.13 Y105.02
G0 X460.18 Y107.80
G0 X458.05 Y110.61
G0 X455.76 Y113.44
G0 X453.30 Y116.29
G0 X450.67 Y119.16
G0 X447.88 Y122.05
G0 X444.92 Y124.96
G0 X441.81 Y127.89
G0 X438.54 Y130.83
G0 X435.11 Y133.79
G0 X431.54 Y136.76
G0 X427.81 Y139.74
G0 X423.93 Y142.74
G0 X419.92 Y145.76
G0 X415.76 Y148.78
G0 X411.46 Y151.82
G0 X407.03 Y154.86
G0 X402.47 Y157.92
G0 X397.79 Y160.98
G0 X392.97 Y164.05
G0 X388.04 Y167.13
G0 X383.00 Y170.21
G0 X377.84 Y173.30
G0 X372.57 Y176.40
G0 X367.20 Y179.49
G0 X361.72 Y182.60
G0 X356.15 Y185.70
G0 X350.49 Y188.80
G0 X344.75 Y191.91
G0 X338.91 Y195.01
G0 X333.00 Y198.11
G0 X327.02 Y201.21
G0 X320.97 Y204.31
G0 X314.85 Y207.40
G0 X308.67 Y210.49
G0 X302.43 Y213.57
G0 X296.15 Y216.65
G0 X289.82 Y219.72
G0 X283.45 Y222.78
G0 X277.04 Y225.83
G0 X270.60 Y228.88
G0 X264.13 Y231.91
G0 X257.64 Y234.93
G0 X251.14 Y237.94
G0 X244.62 Y240.94
G0 X238.10 Y243.92
G0 X231.58 Y246.89
G0 X225.06 Y249.84
G0 X218.54 Y252.78
G0 X212.04 Y255.70
G0 X205.56 Y258.60
G0 X199.11 Y261.49
G0 X192.68 Y264.36
G0 X186.28 Y267.20
G0 X179.92 Y270.03
G0 X173.61 Y272.83
G0 X167.34 Y275.61
G0 X161.12 Y278.37
G0 X154.97 Y281.11
G0 X148.87 Y283.82
G0 X142.84 Y286.51
G0 X136.88 Y289.17
G0 X131.00 Y291.80
G0 X125.20 Y294.41
G0 X119.48 Y296.99
G0 X113.85 Y299.54
G0 X108.32 Y302.06
G0 X102.88 Y304.55
G0 X97.54 Y307.01
G0 X92.31 Y309.44
G0 X87.19 Y311.84
G0 X82.18 Y314.21
G0 X77.30 Y316.54
G0 X72.53 Y318.84
G0 X67.88 Y321.10
G0 X63.37 Y323.33
G0 X58.99 Y325.52
G0 X54.74 Y327.68
G0 X50.63 Y329.80
G0 X46.67 Y331.88
G0 X42.84 Y333.93
G0 X39.17 Y335.93
G0 X35.64 Y337.90
G0 X32.27 Y339.83
G0 X29.06 Y341.72
G0 X26.00 Y343.57
G0 X23.10 Y345.37
G0 X20.37 Y347.14
G0 X17.80 Y348.86
G0 X15.40 Y350.55
G0 X13.16 Y352.18
G0 X11.10 Y353.78
G0 X9.21 Y355.33
G0 X7.49 Y356.84
G0 X5.95 Y358.30
G0 X3.39 Y361.09
G0 X1.54 Y363.70
G0 X0.41 Y366.12
G0 X0.00 Y368.35
G0 X0.31 Y370.40
G0 X1.34 Y372.25
G0 X3.08 Y373.91
G0 X5.54 Y375.37
G0 X8.71 Y376.63
G0 X12.57 Y377.69
G0 X14.75 Y378.15
G0 X17.11 Y378.56
G0 X19.63 Y378.91
G0 X22.32 Y379.22
G0 X25.17 Y379.47
G0 X28.18 Y379.68
G0 X31.35 Y379.83
G0 X34.68 Y379.93
G0 X38.16 Y379.99
G0 X41.79 Y379.99
G0 X45.57 Y379.94
G0 X49.50 Y379.84
G0 X53.57 Y379.69
G0 X57.78 Y379.49
G0 X62.12 Y379.24
G0 X66.60 Y378.94
G0 X71.21 Y378.59
G0 X75.94 Y378.18
G0 X80.80 Y377.73
G0 X85.77 Y377.23
G0 X90.86 Y376.67
G0 X96.06 Y376.07
G0 X101.36 Y375.42
G0 X106.77 Y374.72
G0 X112.28 Y373.97
G0 X117.88 Y373.17
G0 X123.58 Y372.32
G0 X129.36 Y371.42
G0 X135.22 Y370.47
G0 X141.15 Y369.48
G0 X147.16 Y368.44
G0 X153.24 Y367.35
G0 X159.38 Y366.21
G0 X165.58 Y365.03
G0 X171.84 Y363.79
G0 X178.14 Y362.52
G0 X184.48 Y361.19
G0 X190.87 Y359.82
G0 X197.29 Y358.41
G0 X203.74 Y356.95
G0 X210.22 Y355.45
G0 X216.71 Y353.90
G0 X223.22 Y352.31
G0 X229.74 Y350.67
G0 X236.26 Y348.99
G0 X242.79 Y347.27
G0 X249.30 Y345.51
G0 X255.81 Y343.71
G0 X262.31 Y341.86
G0 X268.78 Y339.98
G0 X275.23 Y338.05
G0 X281.64 Y336.09
G0 X288.03 Y334.08
G0 X294.37 Y332.04
G0 X300.67 Y329.96
G0 X306.92 Y327.84
G0 X313.11 Y325.69
G0 X319.25 Y323.50
G0 X325.32 Y321.27
G0 X331.33 Y319.01
G0 X337.26 Y316.72
G0 X343.11 Y314.39
G0 X348.88 Y312.02
G0 X354.57 Y309.63
G0 X360.16 Y307.20
G0 X365.66 Y304.74
G0 X371.06 Y302.25
G0 X376.36 Y299.73
G0 X381.55 Y297.19
G0 X386.63 Y294.61
G0 X391.60 Y292.00
G0 X396.44 Y289.37
G0 X401.17 Y286.71
G0 X405.76 Y284.03
G0 X410.23 Y281.32
G0 X414.56 Y278.58
G0 X418.76 Y275.83
G0 X422.82 Y273.05
G0 X426.73 Y270.24
G0 X430.50 Y267.42
G0 X434.12 Y264.58
G0 X437.59 Y261.71
G0 X440.90 Y258.83
G0 X444.06 Y255.93
G0 X447.06 Y253.01
G0 X449.90 Y250.07
G0 X452.57 Y247.12
G0 X455.08 Y244.15
G0 X457.42 Y241.17
G0 X459.60 Y238.17
G0 X461.60 Y235.16
G0 X463.43 Y232.14
G0 X465.08 Y229.11
G0 X466.56 Y226.07
G0 X467.86 Y223.01
G0 X468.99 Y219.95
G0 X469.94 Y216.88
G0 X470.71 Y213.81
G0 X471.30 Y210.73
G0 X471.71 Y207.64
G0 X471.94 Y204.55
G0 X471.99 Y201.45
G0 X471.86 Y198.35
G0 X471.55 Y195.25
G0 X471.06 Y192.14
G0 X470.39 Y189.04
G0 X469.54 Y185.94
G0 X468.51 Y182.83
G0 X467.31 Y179.73
G0 X465.92 Y176.64
G0 X464.37 Y173.54
G0 X462.63 Y170.45
G0 X460.73 Y167.37
G0 X458.65 Y164.29
G0 X456.40 Y161.22
G0 X453.99 Y158.15
G0 X451.40 Y155.10
G0 X448.65 Y152.05
G0 X445.74 Y149.01
G0 X442.67 Y145.99
G0 X439.45 Y142.98
G0 X436.06 Y139.97
G0 X432.53 Y136.99
G0 X428.84 Y134.01
G0 X425.00 Y131.05
G0 X421.03 Y128.11
G0 X416.91 Y125.19
G0 X412.65 Y122.28
G0 X408.25 Y119.39
G0 X403.73 Y116.51
G0 X399.08 Y113.66
G0 X394.30 Y110.83
G0 X389.40 Y108.02
G0 X384.38 Y105.23
G0 X379.25 Y102.46
G0 X374.02 Y99.72
G0 X368.67 Y97.00
G0 X363.23 Y94.31
G0 X357.68 Y91.64
G0 X352.05 Y89.00
G0 X346.32 Y86.38
G0 X340.51 Y83.79
G0 X334.62 Y81.23
G0 X328.66 Y78.70
G0 X322.62 Y76.20
G0 X316.52 Y73.73
G0 X310.36 Y71.29
G0 X304.14 Y68.88
G0 X297.87 Y66.51
G0 X291.55 Y64.17
G0 X285.19 Y61.86
G0 X278.79 Y59.58
G0 X272.36 Y57.34
G0 X265.90 Y55.14
G0 X259.41 Y52.97
G0 X252.91 Y50.84
G0 X246.40 Y48.74
G0 X239.88 Y46.69
G0 X233.36 Y44.67
G0 X226.83 Y42.69
G0 X220.32 Y40.75
G0 X213.81 Y38.85
G0 X207.33 Y36.99
G0 X200.86 Y35.17
G0 X194.43 Y33.39
G0 X188.02 Y31.65
G0 X181.65 Y29.96
G0 X175.32 Y28.31
G0 X169.04 Y26.70
G0 X162.81 Y25.13
G0 X156.64 Y23.61
G0 X150.53 Y22.14
G0 X144.48 Y20.70
G0 X138.50 Y19.32
G0 X132.60 Y17.98
G0 X126.77 Y16.68
G0 X121.03 Y15.43
G0 X115.38 Y14.23
G0 X109.82 Y13.08
G0 X104.35 Y11.97
G0 X98.99 Y10.91
G0 X93.73 Y9.89
G0 X88.58 Y8.93
G0 X83.54 Y8.01
G0 X78.62 Y7.14
G0 X73.82 Y6.33
G0 X69.14 Y5.56
G0 X64.59 Y4.83
G0 X60.17 Y4.16
G0 X55.89 Y3.54
G0 X51.74 Y2.97
G0 X47.73 Y2.45
G0 X43.87 Y1.98
G0 X40.16 Y1.55
G0 X36.59 Y1.18
G0 X33.18 Y0.86
G0 X29.92 Y0.59
G0 X26.82 Y0.37
G0 X23.88 Y0.20
G0 X21.10 Y0.08
G0 X18.48 Y0.01
G0 X16.04 Y0.00
G0 X13.76 Y0.03
G0 X11.65 Y0.11
G0 X7.94 Y0.43
G0 X4.93 Y0.95
G0 X2.63 Y1.68
G0 X0.52 Y3.14
G0 X0.22 Y5.79
G0 X1.89 Y8.29
G0 X3.90 Y10.20
G0 X6.61 Y12.30
G0 X10.03 Y14.60
G0 X12.00 Y15.81
G0 X14.14 Y17.07
G0 X16.45 Y18.38
G0 X18.93 Y19.74
G0 X21.57 Y21.14
G0 X24.37 Y22.58
G0 X27.34 Y24.08
G0 X30.47 Y25.61
G0 X33.76 Y27.19
G0 X37.20 Y28.81
G0 X40.79 Y30.47
G0 X44.53 Y32.18
G0 X48.42 Y33.93
G0 X52.45 Y35.72
G0 X56.62 Y37.55
G0 X60.92 Y39.43
G0 X65.37 Y41.34
G0 X69.94 Y43.29
G0 X74.64 Y45.29
G0 X79.46 Y47.32
G0 X84.40 Y49.38
G0 X89.46 Y51.49
G0 X94.63 Y53.63
G0 X99.91 Y55.81
G0 X105.29 Y58.03
G0 X110.77 Y60.28
G0 X116.35 Y62.56
G0 X122.02 Y64.88
G0 X127.77 Y67.24
G0 X133.61 Y69.62
G0 X139.53 Y72.04
G0 X145.52 Y74.49
G0 X151.58 Y76.97
G0 X157.70 Y79.48
G0 X163.89 Y82.02
G0 X170.12 Y84.59
G0 X176.41 Y87.18
G0 X182.75 Y89.81
G0 X189.13 Y92.46
G0 X195.54 Y95.13
G0 X201.98 Y97.83
G0 X208.45 Y100.56
G0 X214.94 Y103.31
G0 X221.44 Y106.09
G0 X227.96 Y108.88
G0 X234.48 Y111.70
G0 X241.01 Y114.54
G0 X247.53 Y117.40
G0 X254.04 Y120.27
G0 X260.54 Y123.17
G0 X267.02 Y126.08
G0 X273.47 Y129.02
G0 X279.90 Y131.96
G0 X286.29 Y134.93
G0 X292.64 Y137.90
G0 X298.96 Y140.90
G0 X305.22 Y143.90
G0 X311.43 Y146.92
G0 X317.58 Y149.95
G0 X323.67 Y152.99
G0 X329.69 Y156.04
G0 X335.65 Y159.09
G0 X341.52 Y162.16
G0 X347.32 Y165.23
G0 X353.03 Y168.32
G0 X358.65 Y171.40
G0 X364.17 Y174.49
G0 X369.60 Y177.59
G0 X374.93 Y180.69
G0 X380.15 Y183.79
G0 X385.26 Y186.89
G0 X390.25 Y189.99
G0 X395.13 Y193.10
G0 X399.89 Y196.20
G0 X404.52 Y199.30
G0 X409.02 Y202.40
G0 X413.39 Y205.50
G0 X417.63 Y208.59
G0 X421.72 Y211.67
G0 X425.68 Y214.76
G0 X429.49 Y217.83
G0 X433.15 Y220.90
G0 X436.66 Y223.95
G0 X440.02 Y227.00
G0 X443.22 Y230.04
G0 X446.26 Y233.07
G0 X449.14 Y236.09
G0 X451.86 Y239.09
G0 X454.41 Y242.09
G0 X456.80 Y245.06
G0 X459.02 Y248.03
G0 X461.07 Y250.97
G0 X462.94 Y253.91
G0 X464.65 Y256.82
G0 X466.17 Y259.72
G0 X467.53 Y262.59
G0 X468.70 Y265.45
G0 X469.70 Y268.29
G0 X470.52 Y271.11
G0 X471.16 Y273.90
G0 X471.62 Y276.68
G0 X471.90 Y279.43
G0 X471.99 Y282.16
G0 X471.91 Y284.86
G0 X471.65 Y287.53
G0 X471.21 Y290.18
G0 X470.59 Y292.81
G0 X469.79 Y295.40
G0 X468.81 Y297.97
G0 X467.65 Y300.51
G0 X466.32 Y303.02
G0 X464.81 Y305.50
G0 X463.12 Y307.95
G0 X461.26 Y310.37
G0 X459.23 Y312.75
G0 X457.03 Y315.11
G0 X454.66 Y317.43
G0 X452.12 Y319.71
G0 X449.42 Y321.96
G0 X446.55 Y324.18
G0 X443.53 Y326.36
G0 X440.34 Y328.50
G0 X437.00 Y330.61
G0 X433.51 Y332.67
G0 X429.86 Y334.70
G0 X426.07 Y336.70
G0 X422.13 Y338.65
G0 X418.04 Y340.56
G0 X413.82 Y342.44
G0 X409.47 Y344.27
G0 X404.98 Y346.06
G0 X400.36 Y347.81
G0 X395.61 Y349.52
G0 X390.75 Y351.18
G0 X385.76 Y352.80
G0 X380.66 Y354.38
G0 X375.45 Y355.91
G0 X370.14 Y357.41
G0 X364.72 Y358.85
G0 X359.20 Y360.25
G0 X353.59 Y361.61
G0 X347.89 Y362.92
G0 X342.10 Y364.18
G0 X336.24 Y365.39
G0 X330.29 Y366.56
G0 X324.28 Y367.69
G0 X318.19 Y368.76
G0 X312.05 Y369.79
G0 X305.84 Y370.77
G0 X299.58 Y371.70
G0 X293.28 Y372.58
G0 X286.93 Y373.42
G0 X280.54 Y374.20
G0 X274.11 Y374.94
G0 X267.66 Y375.63
G0 X261.18 Y376.26
G0 X254.69 Y376.85
G0 X248.18 Y377.39
G0 X241.66 Y377.87
G0 X235.13 Y378.31
G0 X228.61 Y378.70
G0 X222.09 Y379.04
G0 X215.59 Y379.32
G0 X209.10 Y379.56
G0 X202.62 Y379.74
G0 X196.18 Y379.88
G0 X189.76 Y379.96
G0 X183.38 Y379.99
G0 X177.05 Y379.98
G0 X170.75 Y379.91
G0 X164.51 Y379.79
G0 X158.32 Y379.62
G0 X152.19 Y379.40
G0 X146.12 Y379.13
G0 X140.12 Y378.81
G0 X134.20 Y378.44
G0 X128.35 Y378.01
G0 X122.59 Y377.54
G0 X116.91 Y377.02
G0 X111.32 Y376.45
G0 X105.83 Y375.83
G0 X100.44 Y375.16
G0 X95.15 Y374.43
G0 X89.97 Y373.66
G0 X84.90 Y372.85
G0 X79.95 Y371.98
G0 X75.11 Y371.06
G0 X70.40 Y370.10
G0 X65.82 Y369.08
G0 X61.36 Y368.02
G0 X57.04 Y366.91
G0 X52.86 Y365.76
G0 X48.81 Y364.56
G0 X44.91 Y363.31
G0 X41.15 Y362.01
G0 X37.55 Y360.67
G0 X34.09 Y359.29
G0 X30.79 Y357.85
G0 X27.65 Y356.38
G0 X24.66 Y354.86
G0 X21.84 Y353.29
G0 X19.18 Y351.68
G0 X16.69 Y350.03
G0 X14.36 Y348.34
G0 X12.21 Y346.60
G0 X10.22 Y344.82
G0 X8.41 Y343.00
G0 X6.77 Y341.14
G0 X5.30 Y339.24
G0 X4.02 Y337.30
G0 X2.91 Y335.32
G0 X1.97 Y333.30
G0 X1.22 Y331.25
G0 X0.65 Y329.15
G0 X0.25 Y327.02
G0 X0.04 Y324.85
G0 X0.00 Y322.65
G0 X0.15 Y320.41
G0 X0.48 Y318.13
G0 X0.98 Y315.82
G0 X1.67 Y313.48
G0 X2.54 Y311.11
G0 X3.58 Y308.70
G0 X4.80 Y306.26
G0 X6.20 Y303.79
G0 X7.78 Y301.29
G0 X9.52 Y298.76
G0 X11.45 Y296.20
G0 X13.54 Y293.61
G0 X15.80 Y290.99
G0 X18.23 Y288.35
G0 X20.83 Y285.68
G0 X23.59 Y282.99
G0 X26.52 Y280.27
G0 X29.60 Y277.53
G0 X32.84 Y274.76
G0 X36.24 Y271.97
G0 X39.79 Y269.16
G0 X43.49 Y266.33
G0 X47.34 Y263.48
G0 X51.33 Y260.60
G0 X55.47 Y257.71
G0 X59.74 Y254.80
G0 X64.14 Y251.88
G0 X68.68 Y248.94
G0 X73.34 Y245.98
G0 X78.13 Y243.00
G0 X83.04 Y240.02
G0 X88.07 Y237.01
G0 X93.21 Y234.00
G0 X98.46 Y230.98
G0 X103.81 Y227.94
G0 X109.26 Y224.89
G0 X114.82 Y221.84
G0 X120.46 Y218.77
G0 X126.19 Y215.70
G0 X132.01 Y212.62
G0 X137.91 Y209.54
G0 X143.88 Y206.45
G0 X149.92 Y203.35
G0 X156.03 Y200.26
G0 X162.19 Y197.16
G0 X168.42 Y194.05
G0 X174.69 Y190.95
G0 X181.02 Y187.85
G0 X187.38 Y184.74
G0 X193.79 Y181.64
G0 X200.22 Y178.54
G0 X206.68 Y175.44
G0 X213.17 Y172.35
G0 X219.67 Y169.26
G0 X226.18 Y166.18
G0 X232.70 Y163.11
G0 X239.23 Y160.04
G0 X245.75 Y156.98
G0 X252.26 Y153.92
G0 X258.77 Y150.88
G0 X265.25 Y147.85
G0 X271.71 Y144.83
G0 X278.15 Y141.82
G0 X284.55 Y138.82
G0 X290.92 Y135.84
G0 X297.24 Y132.87
G0 X303.52 Y129.92
G0 X309.74 Y126.98
G0 X315.91 Y124.06
G0 X322.02 Y121.16
G0 X328.06 Y118.28
G0 X334.03 Y115.41
G0 X339.93 Y112.57
G0 X345.74 Y109.75
G0 X351.48 Y106.94
G0 X357.12 Y104.16
G0 X362.68 Y101.41
G0 X368.13 Y98.67
G0 X373.49 Y95.96
G0 X378.74 Y93.28
G0 X383.88 Y90.62
G0 X388.90 Y87.99
G0 X393.81 Y85.38
G0 X398.60 Y82.80
G0 X403.27 Y80.26
G0 X407.81 Y77.74
G0 X412.21 Y75.25
G0 X416.49 Y72.79
G0 X420.62 Y70.36
G0 X424.61 Y67.97
G0 X428.46 Y65.60
G0 X432.16 Y63.27
G0 X435.72 Y60.98
G0 X439.12 Y58.72
G0 X442.36 Y56.49
G0 X445.45 Y54.30
G0 X448.37 Y52.15
G0 X451.14 Y50.03
G0 X453.73 Y47.95
G0 X456.17 Y45.91
G0 X458.43 Y43.90
G0 X460.53 Y41.94
G0 X462.45 Y40.01
G0 X464.20 Y38.13
G0 X465.78 Y36.28
G0 X467.18 Y34.48
G0 X468.40 Y32.72
G0 X469.44 Y31.00
G0 X471.00 Y27.68
G0 X471.84 Y24.54
G0 X471.95 Y21.58
G0 X471.35 Y18.80
G0 X470.02 Y16.20
G0 X467.99 Y13.78
G0 X465.24 Y11.55
G0 X461.79 Y9.52
G0 X459.80 Y8.57
G0 X457.65 Y7.67
G0 X455.32 Y6.82
G0 X452.83 Y6.02
G0 X450.17 Y5.27
G0 X447.35 Y4.57
G0 X444.37 Y3.92
G0 X441.23 Y3.32
G0 X437.93 Y2.76
G0 X434.47 Y2.26
G0 X430.87 Y1.81
G0 X427.11 Y1.40
G0 X423.21 Y1.05
G0 X419.17 Y0.75
G0 X414.99 Y0.50
G0 X410.67 Y0.30
G0 X406.21 Y0.15
G0 X401.63 Y0.05
G0 X396.92 Y0.00
G0 X392.09 Y0.00
G0 X387.13 Y0.06
G0 X382.07 Y0.16
G0 X376.89 Y0.31
G0 X371.60 Y0.52
G0 X366.21 Y0.77
G0 X360.72 Y1.08
G0 X355.13 Y1.43
G0 X349.45 Y1.84
G0 X343.69 Y2.30
G0 X337.85 Y2.80
G0 X331.92 Y3.36
G0 X325.92 Y3.97
G0 X319.86 Y4.62
G0 X313.73 Y5.33
G0 X307.54 Y6.08
G0 X301.30 Y6.89
G0 X295.00 Y7.74
G0 X288.66 Y8.64
G0 X282.28 Y9.59
G0 X275.87 Y10.59
G0 X269.42 Y11.64
G0 X262.95 Y12.73
G0 X256.46 Y13.87
G0 X249.95 Y15.06
G0 X243.44 Y16.29
G0 X236.91 Y17.57
G0 X230.39 Y18.90
G0 X223.87 Y20.27
G0 X217.36 Y21.69
G0 X210.86 Y23.15
G0 X204.39 Y24.66
G0 X197.93 Y26.21
G0 X191.51 Y27.81
G0 X185.12 Y29.44
G0 X178.77 Y31.13
G0 X172.46 Y32.85
G0 X166.20 Y34.62
G0 X160.00 Y36.42
G0 X153.85 Y38.27
G0 X147.77 Y40.16
G0 X141.75 Y42.09
G0 X135.81 Y44.06
G0 X129.94 Y46.06
G0 X124.15 Y48.11
G0 X118.45 Y50.19
G0 X112.84 Y52.31
G0 X107.32 Y54.47
G0 X101.90 Y56.66
G0 X96.58 Y58.89
G0 X91.37 Y61.15
G0 X86.27 Y63.45
G0 X81.29 Y65.78
G0 X76.42 Y68.15
G0 X71.67 Y70.55
G0 X67.05 Y72.98
G0 X62.56 Y75.44
G0 X58.21 Y77.93
G0 X53.98 Y80.45
G0 X49.90 Y83.00
G0 X45.96 Y85.58
G0 X42.16 Y88.19
G0 X38.52 Y90.82
G0 X35.02 Y93.48
G0 X31.68 Y96.17
G0 X28.49 Y98.88
G0 X25.46 Y101.62
G0 X22.59 Y104.38
G0 X19.89 Y107.16
G0 X17.35 Y109.96
G0 X14.98 Y112.79
G0 X12.78 Y115.63
G0 X10.74 Y118.50
G0 X8.88 Y121.39
G0 X7.20 Y124.29
G0 X5.69 Y127.21
G0 X4.35 Y130.15
G0 X3.19 Y133.10
G0 X2.21 Y136.07
G0 X1.41 Y139.05
G0 X0.78 Y142.05
G0 X0.34 Y145.06
G0 X0.08 Y148.08
G0 X0.00 Y151.11
G0 X0.09 Y154.16
G0 X0.37 Y157.21
G0 X0.83 Y160.27
G0 X1.47 Y163.34
G0 X2.28 Y166.42
G0 X3.28 Y169.50
G0 X4.45 Y172.59
G0 X5.80 Y175.68
G0 X7.33 Y178.78
G0 X9.03 Y181.88
G0 X10.90 Y184.98
G0 X12.95 Y188.08
G0 X15.17 Y191.19
G0 X17.55 Y194.29
G0 X20.11 Y197.39
G0 X22.82 Y200.50
G0 X25.70 Y203.59
G0 X28.75 Y206.69
G0 X31.95 Y209.78
G0 X35.30 Y212.86
G0 X38.81 Y215.94
G0 X42.47 Y219.01
G0 X46.28 Y222.07
G0 X50.23 Y225.13
G0 X54.32 Y228.17
G0 X58.56 Y231.21
G0 X62.93 Y234.23
G0 X67.43 Y237.25
G0 X72.06 Y240.25
G0 X76.81 Y243.23
G0 X81.69 Y246.20
G0 X86.69 Y249.16
G0 X91.79 Y252.10
G0 X97.01 Y255.03
G0 X102.34 Y257.94
G0 X107.77 Y260.83
G0 X113.29 Y263.70
G0 X118.91 Y266.55
G0 X124.62 Y269.38
G0 X130.42 Y272.19
G0 X136.29 Y274.97
G0 X142.24 Y277.74
G0 X148.26 Y280.48
G0 X154.35 Y283.20
G0 X160.51 Y285.89
G0 X166.72 Y288.56
G0 X172.98 Y291.20
G0 X179.29 Y293.81
G0 X185.64 Y296.40
G0 X192.04 Y298.95
G0 X198.46 Y301.48
G0 X204.92 Y303.98
G0 X211.40 Y306.45
G0 X217.89 Y308.88
G0 X224.40 Y311.29
G0 X230.92 Y313.66
G0 X237.45 Y316.00
G0 X243.97 Y318.31
G0 X250.49 Y320.58
G0 X256.99 Y322.82
G0 X263.48 Y325.02
G0 X269.95 Y327.18
G0 X276.40 Y329.31
G0 X282.81 Y331.41
G0 X289.18 Y333.46
G0 X295.52 Y335.48
G0 X301.81 Y337.45
G0 X308.05 Y339.39
G0 X314.23 Y341.29
G0 X320.36 Y343.14
G0 X326.42 Y344.96
G0 X332.41 Y346.74
G0 X338.33 Y348.47
G0 X344.17 Y350.16
G0 X349.92 Y351.81
G0 X355.59 Y353.41
G0 X361.17 Y354.98
G0 X366.65 Y356.49
G0 X372.04 Y357.97
G0 X377.31 Y359.39
G0 X382.49 Y360.78
G0 X387.54 Y362.11
G0 X392.49 Y363.41
G0 X397.31 Y364.65
G0 X402.01 Y365.85
G0 X406.58 Y367.00
G0 X411.03 Y368.11
G0 X415.34 Y369.16
G0 X419.51 Y370.17
G0 X423.54 Y371.13
G0 X427.43 Y372.05
G0 X431.17 Y372.91
G0 X434.76 Y373.73
G0 X438.20 Y374.49
G0 X441.49 Y375.21
G0 X444.62 Y375.88
G0 X447.59 Y376.49
G0 X450.40 Y377.06
G0 X453.04 Y377.58
G0 X455.52 Y378.05
G0 X457.83 Y378.47
G0 X459.97 Y378.83
G0 X463.74 Y379.42
G0 X466.81 Y379.80
G0 X469.18 Y379.98
G0 X471.39 Y379.87
G0 X470.25 Y377.84
G0 X468.31 Y376.81
G0 X465.65 Y375.57
G0 X462.30 Y374.14
G0 X460.36 Y373.36
G0 X458.25 Y372.52
G0 X455.97 Y371.63
G0 X453.53 Y370.70
G0 X450.91 Y369.71
G0 X448.14 Y368.68
G0 X445.20 Y367.60
G0 X442.10 Y366.48
G0 X438.84 Y365.30
G0 X435.43 Y364.08
G0 X431.87 Y362.82
G0 X428.15 Y361.50
G0 X424.29 Y360.14
G0 X420.29 Y358.74
G0 X416.14 Y357.29
G0 X411.86 Y355.80
G0 X407.44 Y354.26
G0 X402.89 Y352.68
G0 X398.22 Y351.05
G0 X393.42 Y349.39
G0 X388.50 Y347.68
G0 X383.46 Y345.92
G0 X378.31 Y344.13
G0 X373.05 Y342.29
G0 X367.69 Y340.42
G0 X362.22 Y338.50
G0 X356.66 Y336.54
G0 X351.01 Y334.55
G0 X345.27 Y332.52
G0 X339.45 Y330.44
G0 X333.54 Y328.34
G0 X327.57 Y326.19
G0 X321.52 Y324.01
G0 X315.41 Y321.79
G0 X309.23 Y319.54
G0 X303.00 Y317.25
G0 X296.72 Y314.93
G0 X290.40 Y312.57
G0 X284.03 Y310.18
G0 X277.62 Y307.76
G0 X271.18 Y305.31
G0 X264.72 Y302.83
G0 X258.23 Y300.32
G0 X251.73 Y297.78
G0 X245.22 Y295.21
G0 X238.69 Y292.61
G0 X232.17 Y289.98
G0 X225.65 Y287.33
G0 X219.13 Y284.65
G0 X212.63 Y281.95
G0 X206.15 Y279.22
G0 X199.69 Y276.47
G0 X193.26 Y273.69
G0 X186.86 Y270.89
G0 X180.50 Y268.07
G0 X174.18 Y265.23
G0 X167.91 Y262.37
G0 X161.69 Y259.49
G0 X155.52 Y256.60
G0 X149.42 Y253.68
G0 X143.38 Y250.75
G0 X137.42 Y247.80
G0 X131.53 Y244.83
G0 X125.72 Y241.86
G0 X120.00 Y238.86
G0 X114.36 Y235.86
G0 X108.81 Y232.84
G0 X103.37 Y229.81
G0 X98.02 Y226.77
G0 X92.78 Y223.72
G0 X87.65 Y220.66
G0 X82.63 Y217.59
G0 X77.73 Y214.52
G0 X72.96 Y211.44
G0 X68.30 Y208.35
G0 X63.78 Y205.26
G0 X59.38 Y202.16
G0 X55.12 Y199.06
G0 X51.00 Y195.96
G0 X47.02 Y192.86
G0 X43.18 Y189.76
G0 X39.50 Y186.65
G0 X35.96 Y183.55
G0 X32.57 Y180.45
G0 X29.34 Y177.35
G0 X26.27 Y174.25
G0 X23.36 Y171.16
G0 X20.61 Y168.08
G0 X18.03 Y165.00
G0 X15.61 Y161.92
G0 X13.36 Y158.86
G0 X11.28 Y155.80
G0 X9.37 Y152.75
G0 X7.64 Y149.71
G0 X6.08 Y146.69
G0 X4.70 Y143.67
G0 X3.49 Y140.67
G0 X2.46 Y137.67
G0 X1.61 Y134.70
G0 X0.94 Y131.74
G0 X0.44 Y128.79
G0 X0.13 Y125.86
G0 X0.00 Y122.95
G0 X0.05 Y120.05
G0 X0.28 Y117.17
G0 X0.69 Y114.32
G0 X1.27 Y111.48
G0 X2.04 Y108.67
G0 X2.99 Y105.87
G0 X4.11 Y103.10
G0 X5.42 Y100.35
G0 X6.89 Y97.63
G0 X8.55 Y94.93
G0 X10.38 Y92.25
G0 X12.38 Y89.60
G0 X14.55 Y86.98
G0 X16.89 Y84.39
G0 X19.39 Y81.82
G0 X22.07 Y79.28
G0 X24.90 Y76.78
G0 X27.90 Y74.30
G0 X31.06 Y71.85
G0 X34.37 Y69.44
G0 X37.84 Y67.05
G0 X41.46 Y64.70
G0 X45.22 Y62.39
G0 X49.14 Y60.11
G0 X53.19 Y57.86
G0 X57.39 Y55.64
G0 X61.72 Y53.47
G0 X66.19 Y51.33
G0 X70.78 Y49.22
G0 X75.50 Y47.16
G0 X80.35 Y45.13
G0 X85.31 Y43.14
G0 X90.39 Y41.19
G0 X95.58 Y39.28
G0 X100.88 Y37.41
G0 X106.28 Y35.58
G0 X111.78 Y33.80
G0 X117.37 Y32.05
G0 X123.06 Y30.34
G0 X128.83 Y28.68
G0 X134.68 Y27.06
G0 X140.61 Y25.49
G0 X146.61 Y23.96
G0 X152.69 Y22.47
G0 X158.82 Y21.03
G0 X165.02 Y19.63
G0 X171.26 Y18.28
G0 X177.56 Y16.98
G0 X183.91 Y15.72
G0 X190.29 Y14.50
G0 X196.71 Y13.34
G0 X203.15 Y12.22
G0 X209.63 Y11.15
G0 X216.12 Y10.12
G0 X222.63 Y9.15
G0 X229.15 Y8.22
G0 X235.67 Y7.34
G0 X242.19 Y6.51
G0 X248.71 Y5.73
G0 X255.22 Y5.00
G0 X261.72 Y4.31
G0 X268.19 Y3.68
G0 X274.64 Y3.10
G0 X281.06 Y2.56
G0 X287.45 Y2.08
G0 X293.80 Y1.65
G0 X300.10 Y1.26
G0 X306.35 Y0.93
G0 X312.55 Y0.65
G0 X318.69 Y0.42
G0 X324.77 Y0.23
G0 X330.78 Y0.10
G0 X336.72 Y0.02
G0 X342.58 Y0.00
G0 X348.36 Y0.02
G0 X354.06 Y0.09
G0 X359.66 Y0.21
G0 X365.17 Y0.39
G0 X370.58 Y0.61
G0 X375.89 Y0.88
G0 X381.09 Y1.21
G0 X386.18 Y1.58
G0 X391.15 Y2.01
G0 X396.01 Y2.49
G0 X400.74 Y3.01
G0 X405.35 Y3.59
G0 X409.83 Y4.21
G0 X414.17 Y4.89
G0 X418.38 Y5.61
G0 X422.45 Y6.39
G0 X426.38 Y7.21
G0 X430.16 Y8.08
G0 X433.80 Y9.00
G0 X437.28 Y9.97
G0 X440.61 Y10.99
G0 X443.78 Y12.05
G0 X446.80 Y13.16
G0 X449.65 Y14.32
G0 X452.34 Y15.53
G0 X454.86 Y16.78
G0 X457.22 Y18.08
G0 X459.41 Y19.42
G0 X461.42 Y20.81
G0 X463.27 Y22.25
G0 X464.94 Y23.73
G0 X466.43 Y25.25
G0 X467.75 Y26.82
G0 X469.86 Y30.09
G0 X471.25 Y33.52
G0 X471.93 Y37.13
G0 X471.88 Y40.90
G0 X471.11 Y44.82
G0 X470.46 Y46.84
G0 X469.62 Y48.90
G0 X468.61 Y51.00
G0 X467.42 Y53.14
G0 X466.06 Y55.31
G0 X464.51 Y57.51
G0 X462.80 Y59.76
G0 X460.91 Y62.03
G0 X458.84 Y64.35
G0 X456.61 Y66.69
G0 X454.21 Y69.07
G0 X451.64 Y71.48
G0 X448.91 Y73.92
G0 X446.02 Y76.39
G0 X442.96 Y78.90
G0 X439.75 Y81.43
G0 X436.38 Y83.99
G0 X432.85 Y86.58
G0 X429.18 Y89.20
G0 X425.36 Y91.84
G0 X421.39 Y94.51
G0 X417.29 Y97.21
G0 X413.04 Y99.93
G0 X408.66 Y102.67
G0 X404.15 Y105.44
G0 X399.50 Y108.23
G0 X394.74 Y111.05
G0 X389.85 Y113.88
G0 X384.84 Y116.73
G0 X379.73 Y119.61
G0 X374.50 Y122.50
G0 X369.16 Y125.41
G0 X363.72 Y128.34
G0 X358.19 Y131.28
G0 X352.56 Y134.24
G0 X346.85 Y137.22
G0 X341.04 Y140.20
G0 X335.16 Y143.21
G0 X329.20 Y146.22
G0 X323.18 Y149.25
G0 X317.08 Y152.28
G0 X310.92 Y155.33
G0 X304.71 Y158.39
G0 X298.44 Y161.45
G0 X292.13 Y164.52
G0 X285.77 Y167.60
G0 X279.37 Y170.69
G0 X272.94 Y173.78
G0 X266.49 Y176.87
G0 X260.00 Y179.97
G0 X253.51 Y183.07
G0 X246.99 Y186.18
G0 X240.47 Y189.28
G0 X233.95 Y192.38
G0 X227.43 Y195.49
G0 X220.91 Y198.59
G0 X214.41 Y201.69
G0 X207.92 Y204.78
G0 X201.45 Y207.88
G0 X195.01 Y210.96
G0 X188.60 Y214.05
G0 X182.23 Y217.12
G0 X175.90 Y220.19
G0 X169.61 Y223.25
G0 X163.38 Y226.30
G0 X157.20 Y229.34
G0 X151.08 Y232.37
G0 X145.02 Y235.39
G0 X139.04 Y238.40
G0 X133.13 Y241.40
G0 X127.30 Y244.38
G0 X121.55 Y247.34
G0 X115.89 Y250.30
G0 X110.32 Y253.23
G0 X104.84 Y256.15
G0 X99.47 Y259.05
G0 X94.20 Y261.93
G0 X89.04 Y264.80
G0 X83.99 Y267.64
G0 X79.06 Y270.46
G0 X74.25 Y273.26
G0 X69.56 Y276.04
G0 X65.00 Y278.80
G0 X60.57 Y281.53
G0 X56.27 Y284.24
G0 X52.11 Y286.92
G0 X48.09 Y289.57
G0 X44.22 Y292.20
G0 X40.49 Y294.81
G0 X36.91 Y297.38
G0 X33.48 Y299.93
G0 X30.21 Y302.45
G0 X27.09 Y304.93
G0 X24.14 Y307.39
G0 X21.35 Y309.81
G0 X18.72 Y312.21
G0 X16.25 Y314.57
G0 X13.96 Y316.89
G0 X11.83 Y319.19
G0 X9.88 Y321.44
G0 X8.10 Y323.67
G0 X6.49 Y325.86
G0 X5.06 Y328.01
G0 X3.80 Y330.12
G0 X2.72 Y332.20
G0 X1.82 Y334.24
G0 X1.10 Y336.24
G0 X0.56 Y338.20
G0 X0.02 Y342.01
G0 X0.20 Y345.65
G0 X1.10 Y349.13
G0 X2.71 Y352.43
G0 X5.04 Y355.56
G0 X6.47 Y357.07
G0 X8.08 Y358.52
G0 X9.86 Y359.93
G0 X11.81 Y361.30
G0 X13.94 Y362.62
G0 X16.23 Y363.89
G0 X18.69 Y365.12
G0 X21.32 Y366.30
G0 X24.11 Y367.43
G0 X27.07 Y368.52
G0 X30.18 Y369.56
G0 X33.45 Y370.55
G0 X36.88 Y371.49
G0 X40.45 Y372.38
G0 X44.18 Y373.23
G0 X48.06 Y374.03
G0 X52.07 Y374.77
G0 X56.23 Y375.47
G0 X60.53 Y376.12
G0 X64.96 Y376.72
G0 X69.52 Y377.27
G0 X74.20 Y377.77
G0 X79.02 Y378.22
G0 X83.95 Y378.61
G0 X88.99 Y378.96
G0 X94.15 Y379.26
G0 X99.42 Y379.51
G0 X104.79 Y379.70
G0 X110.27 Y379.85
G0 X115.84 Y379.95
G0 X121.50 Y379.99
G0 X127.24 Y379.99
G0 X133.08 Y379.93
G0 X138.99 Y379.82
G0 X144.97 Y379.66
G0 X151.02 Y379.46
G0 X157.14 Y379.20
G0 X163.32 Y378.89
G0 X169.56 Y378.53
G0 X175.84 Y378.12
G0 X182.17 Y377.66
G0 X188.54 Y377.15
G0 X194.95 Y376.58
G0 X201.39 Y375.97
G0 X207.86 Y375.31
G0 X214.35 Y374.61
G0 X220.85 Y373.85
G0 X227.37 Y373.04
G0 X233.89 Y372.18
G0 X240.41 Y371.28
G0 X246.93 Y370.32
G0 X253.45 Y369.32
G0 X259.95 Y368.27
G0 X266.43 Y367.17
G0 X272.88 Y366.03
G0 X279.31 Y364.84
G0 X285.71 Y363.60
G0 X292.07 Y362.32
G0 X298.38 Y360.99
G0 X304.65 Y359.61
G0 X310.87 Y358.19
G0 X317.02 Y356.72
G0 X323.12 Y355.21
G0 X329.15 Y353.66
G0 X335.11 Y352.06
G0 X340.99 Y350.42
G0 X346.79 Y348.73
G0 X352.51 Y347.01
G0 X358.14 Y345.24
G0 X363.67 Y343.43
G0 X369.11 Y341.58
G0 X374.45 Y339.68
G0 X379.68 Y337.75
G0 X384.80 Y335.78
G0 X389.81 Y333.77
G0 X394.69 Y331.72
G0 X399.46 Y329.64
G0 X404.11 Y327.51
G0 X408.62 Y325.35
G0 X413.00 Y323.16
G0 X417.25 Y320.93
G0 X421.36 Y318.66
G0 X425.32 Y316.36
G0 X429.15 Y314.02
G0 X432.82 Y311.66
G0 X436.35 Y309.26
G0 X439.72 Y306.82
G0 X442.93 Y304.36
G0 X445.99 Y301.87
G0 X448.89 Y299.34
G0 X451.62 Y296.79
G0 X454.19 Y294.21
G0 X456.59 Y291.60
G0 X458.83 Y288.96
G0 X460.89 Y286.30
G0 X462.78 Y283.61
G0 X464.50 Y280.90
G0 X466.04 Y278.16
G0 X467.41 Y275.40
G0 X468.60 Y272.62
G0 X469.62 Y269.81
G0 X470.45 Y266.98
G0 X471.11 Y264.14
G0 X471.58 Y261.27
G0 X471.88 Y258.38
G0 X471.99 Y255.48
G0 X471.93 Y252.55
G0 X471.68 Y249.62
G0 X471.26 Y246.66
G0 X470.65 Y243.69
G0 X469.87 Y240.71
G0 X468.91 Y237.71
G0 X467.76 Y234.70
G0 X466.45 Y231.68
G0 X464.95 Y228.64
G0 X463.28 Y225.60
G0 X461.44 Y222.54
G0 X459.42 Y219.48
G0 X457.24 Y216.41
G0 X454.88 Y213.33
G0 X452.36 Y210.25
G0 X449.67 Y207.16
G0 X446.82 Y204.07
G0 X443.81 Y200.97
G0 X440.64 Y197.87
G0 X437.31 Y194.77
G0 X433.83 Y191.67
G0 X430.20 Y188.56
G0 X426.42 Y185.46
G0 X422.49 Y182.36
G0 X418.42 Y179.26
G0 X414.21 Y176.16
G0 X409.87 Y173.07
G0 X405.39 Y169.98
G0 X400.78 Y166.89
G0 X396.05 Y163.81
G0 X391.19 Y160.74
G0 X386.22 Y157.68
G0 X381.13 Y154.63
G0 X375.93 Y151.58
G0 X370.63 Y148.55
G0 X365.22 Y145.52
G0 X359.71 Y142.51
G0 X354.11 Y139.51
G0 X348.41 Y136.53
G0 X342.63 Y133.56
G0 X336.77 Y130.60
G0 X330.84 Y127.66
G0 X324.83 Y124.74
G0 X318.75 Y121.83
G0 X312.61 Y118.94
G0 X306.41 Y116.07
G0 X300.15 Y113.22
G0 X293.85 Y110.40
G0 X287.51 Y107.59
G0 X281.12 Y104.80
G0 X274.70 Y102.04
G0 X268.25 Y99.30
G0 X261.77 Y96.58
G0 X255.28 Y93.89
G0 X248.77 Y91.23
G0 X242.25 Y88.59
G0 X235.73 Y85.98
G0 X229.20 Y83.40
G0 X222.69 Y80.84
G0 X216.18 Y78.32
G0 X209.68 Y75.82
G0 X203.21 Y73.35
G0 X196.76 Y70.92
G0 X190.35 Y68.52
G0 X183.96 Y66.15
G0 X177.62 Y63.81
G0 X171.32 Y61.51
G0 X165.07 Y59.24
G0 X158.88 Y57.00
G0 X152.74 Y54.80
G0 X146.67 Y52.64
G0 X140.66 Y50.51
G0 X134.73 Y48.43
G0 X128.88 Y46.37
G0 X123.11 Y44.36
G0 X117.42 Y42.39
G0 X111.83 Y40.45
G0 X106.33 Y38.56
G0 X100.93 Y36.70
G0 X95.63 Y34.89
G0 X90.44 Y33.12
G0 X85.36 Y31.39
G0 X80.39 Y29.70
G0 X75.55 Y28.06
G0 X70.82 Y26.45
G0 X66.23 Y24.90
G0 X61.76 Y23.38
G0 X57.43 Y21.91
G0 X53.23 Y20.49
G0 X49.17 Y19.11
G0 X45.26 Y17.77
G0 X41.49 Y16.49
G0 X37.87 Y15.24
G0 X34.40 Y14.05
G0 X31.09 Y12.90
G0 X27.93 Y11.80
G0 X24.93 Y10.75
G0 X22.09 Y9.74
G0 X19.42 Y8.78
G0 X16.91 Y7.88
G0 X14.57 Y7.02
G0 X12.39 Y6.20
G0 X10.39 Y5.44
G0 X6.91 Y4.06
G0 X4.13 Y2.89
G0 X2.05 Y1.91
G0 X0.28 Y0.82
G0 X2.45 Y0.04
G0 X4.68 Y0.27
G0 X7.62 Y0.71
G0 X11.26 Y1.35
G0 X13.34 Y1.74
G0 X15.59 Y2.19
G0 X18.00 Y2.68
G0 X20.59 Y3.23
G0 X23.34 Y3.82
G0 X26.25 Y4.47
G0 X29.32 Y5.16
G0 X32.54 Y5.90
G0 X35.93 Y6.70
G0 X39.46 Y7.54
G0 X43.15 Y8.43
G0 X46.99 Y9.37
G0 X50.96 Y10.36
G0 X55.08 Y11.39
G0 X59.34 Y12.47
G0 X63.74 Y13.60
G0 X68.26 Y14.78
G0 X72.91 Y16.00
G0 X77.69 Y17.27
G0 X82.59 Y18.59
G0 X87.61 Y19.95
G0 X92.74 Y21.36
G0 X97.97 Y22.81
G0 X103.32 Y24.31
G0 X108.76 Y25.85
G0 X114.31 Y27.43
G0 X119.94 Y29.06
G0 X125.67 Y30.73
G0 X131.48 Y32.45
G0 X137.37 Y34.20
G0 X143.33 Y36.00
G0 X149.37 Y37.84
G0 X155.47 Y39.72
G0 X161.63 Y41.64
G0 X167.85 Y43.60
G0 X174.12 Y45.60
G0 X180.44 Y47.63
G0 X186.80 Y49.71
G0 X193.20 Y51.82
G0 X199.63 Y53.97
G0 X206.09 Y56.15
G0 X212.58 Y58.37
G0 X219.08 Y60.63
G0 X225.59 Y62.92
G0 X232.11 Y65.24
G0 X238.63 Y67.60
G0 X245.16 Y69.99
G0 X251.67 Y72.41
G0 X258.18 Y74.87
G0 X264.66 Y77.35
G0 X271.13 Y79.87
G0 X277.56 Y82.41
G0 X283.97 Y84.98
G0 X290.34 Y87.58
G0 X296.67 Y90.21
G0 X302.95 Y92.87
G0 X309.18 Y95.55
G0 X315.35 Y98.25
G0 X321.46 Y100.98
G0 X327.51 Y103.74
G0 X333.49 Y106.51
G0 X339.39 Y109.31
G0 X345.22 Y112.13
G0 X350.96 Y114.98
G0 X356.61 Y117.84
G0 X362.17 Y120.72
G0 X367.64 Y123.62
G0 X373.00 Y126.53
G0 X378.26 Y129.47
G0 X383.41 Y132.42
G0 X388.45 Y135.38
G0 X393.37 Y138.36
G0 X398.17 Y141.36
G0 X402.85 Y144.36
G0 X407.40 Y147.38
G0 X411.82 Y150.41
G0 X416.10 Y153.45
G0 X420.25 Y156.51
G0 X424.26 Y159.57
G0 X428.12 Y162.63
G0 X431.83 Y165.71
G0 X435.40 Y168.79
G0 X438.81 Y171.88
G0 X442.07 Y174.97
G0 X445.17 Y178.06
G0 X448.11 Y181.16
G0 X450.89 Y184.27
G0 X453.51 Y187.37
G0 X455.95 Y190.47
G0 X458.23 Y193.58
G0 X460.34 Y196.68
G0 X462.28 Y199.78
G0 X464.05 Y202.88
G0 X465.64 Y205.97
G0 X467.06 Y209.06
G0 X468.29 Y212.15
G0 X469.36 Y215.23
G0 X470.24 Y218.30
G0 X470.94 Y221.37
G0 X471.47 Y224.42
G0 X471.81 Y227.47
G0 X471.98 Y230.51
G0 X471.96 Y233.54
G0 X471.77 Y236.55
G0 X471.39 Y239.55
G0 X470.84 Y242.54
G0 X470.10 Y245.52
G0 X469.19 Y248.48
G0 X468.09 Y251.43
G0 X466.82 Y254.36
G0 X465.38 Y257.27
G0 X463.76 Y260.16
G0 X461.96 Y263.04
G0 X459.99 Y265.89
G0 X457.85 Y268.73
G0 X455.54 Y271.54
G0 X453.06 Y274.33
G0 X450.42 Y277.10
G0 X447.62 Y279.85
G0 X444.65 Y282.57
G0 X441.52 Y285.27
G0 X438.23 Y287.94
G0 X434.79 Y290.59
G0 X431.20 Y293.21
G0 X427.46 Y295.80
G0 X423.57 Y298.37
G0 X419.54 Y300.90
G0 X415.37 Y303.41
G0 X411.07 Y305.88
G0 X406.62 Y308.32
G0 X402.05 Y310.74
G0 X397.35 Y313.12
G0 X392.53 Y315.47
G0 X387.59 Y317.78
G0 X382.53 Y320.06
G0 X377.36 Y322.30
G0 X372.08 Y324.51
G0 X366.70 Y326.69
G0 X361.22 Y328.83
G0 X355.64 Y330.93
G0 X349.97 Y332.99
G0 X344.22 Y335.01
G0 X338.38 Y337.00
G0 X332.46 Y338.95
G0 X326.47 Y340.85
G0 X320.41 Y342.72
G0 X314.29 Y344.55
G0 X308.10 Y346.33
G0 X301.87 Y348.07
G0 X295.58 Y349.77
G0 X289.24 Y351.43
G0 X282.86 Y353.05
G0 X276.45 Y354.62
G0 X270.01 Y356.15
G0 X263.54 Y357.63
G0 X257.05 Y359.07
G0 X250.55 Y360.46
G0 X244.03 Y361.81
G0 X237.51 Y363.11
G0 X230.98 Y364.37
G0 X224.46 Y365.58
G0 X217.95 Y366.74
G0 X211.45 Y367.86
G0 X204.97 Y368.92
G0 X198.52 Y369.94
G0 X192.09 Y370.92
G0 X185.70 Y371.84
G0 X179.35 Y372.71
G0 X173.03 Y373.54
G0 X166.77 Y374.32
G0 X160.56 Y375.05
G0 X154.41 Y375.73
G0 X148.32 Y376.36
G0 X142.30 Y376.94
G0 X136.34 Y377.47
G0 X130.47 Y377.95
G0 X124.67 Y378.37
G0 X118.96 Y378.75
G0 X113.34 Y379.08
G0 X107.82 Y379.36
G0 X102.39 Y379.59
G0 X97.06 Y379.77
G0 X91.84 Y379.89
G0 X86.73 Y379.97
G0 X81.74 Y380.00

; Custom G-code to execute after the end of the sketch

