; Created using https://markroland.github.io/sand-table-pattern-maker/
;
; 5/22/2023 19:12:6
;
; Machine Specifications:
;
; Units: mm
;
; Min X: 0
; Max X: 472
; Min Y: 0
; Max Y: 380
; Motor Speed (mm/min): 4000
;
; Pattern Specifications:
;
; Name: Circle
;
; Parameters:
; - radius: [object Object]
; - angle: [object Object]
; - reverse: [object Object]
;
; URL: https://markroland.github.io/sand-table-pattern-maker/?pattern=rhodonea
;
; Pattern Distance (mm): 15,234.8
; Pattern Draw Time (minutes): 3.8


; Custom G-code to execute before the start of the sketch

G0 X236.00 Y190.00
G0 X283.24 Y190.59
G0 X327.50 Y192.30
G0 X365.97 Y194.90
G0 X396.21 Y198.06
G0 X416.34 Y201.34
G0 X425.08 Y204.28
G0 X421.91 Y206.39
G0 X407.04 Y207.25
G0 X381.46 Y206.52
G0 X346.79 Y203.99
G0 X305.27 Y199.63
G0 X259.54 Y193.57
G0 X212.50 Y186.12
G0 X167.13 Y177.75
G0 X126.29 Y169.07
G0 X92.55 Y160.76
G0 X67.99 Y153.55
G0 X54.11 Y148.14
G0 X51.75 Y145.15
G0 X60.97 Y145.06
G0 X81.13 Y148.15
G0 X110.87 Y154.49
G0 X148.26 Y163.91
G0 X190.88 Y175.96
G0 X235.99 Y189.99
G0 X280.75 Y205.16
G0 X322.31 Y220.46
G0 X358.09 Y234.82
G0 X385.88 Y247.17
G0 X404.01 Y256.52
G0 X411.41 Y262.01
G0 X407.74 Y263.04
G0 X393.34 Y259.26
G0 X369.23 Y250.66
G0 X337.05 Y237.55
G0 X298.90 Y220.57
G0 X257.28 Y200.67
G0 X214.85 Y179.05
G0 X174.28 Y157.07
G0 X138.13 Y136.19
G0 X108.60 Y117.86
G0 X87.47 Y103.41
G0 X75.95 Y93.98
G0 X74.63 Y90.41
G0 X83.42 Y93.17
G0 X101.64 Y102.34
G0 X127.96 Y117.57
G0 X160.61 Y138.07
G0 X197.42 Y162.70
G0 X235.99 Y189.99
G0 X273.87 Y218.25
G0 X308.67 Y245.64
G0 X338.26 Y270.36
G0 X360.88 Y290.69
G0 X375.23 Y305.18
G0 X380.57 Y312.69
G0 X376.76 Y312.54
G0 X364.24 Y304.49
G0 X343.97 Y288.86
G0 X317.41 Y266.44
G0 X286.38 Y238.51
G0 X252.94 Y206.73
G0 X219.26 Y173.05
G0 X187.48 Y139.61
G0 X159.55 Y108.58
G0 X137.13 Y82.02
G0 X121.50 Y61.75
G0 X113.45 Y49.23
G0 X113.30 Y45.42
G0 X120.81 Y50.76
G0 X135.30 Y65.11
G0 X155.63 Y87.73
G0 X180.35 Y117.32
G0 X207.74 Y152.12
G0 X235.99 Y189.99
G0 X263.29 Y228.57
G0 X287.92 Y265.38
G0 X308.42 Y298.03
G0 X323.65 Y324.35
G0 X332.82 Y342.57
G0 X335.58 Y351.36
G0 X332.01 Y350.04
G0 X322.58 Y338.52
G0 X308.13 Y317.39
G0 X289.80 Y287.86
G0 X268.92 Y251.71
G0 X246.94 Y211.14
G0 X225.32 Y168.71
G0 X205.42 Y127.09
G0 X188.44 Y88.94
G0 X175.33 Y56.76
G0 X166.73 Y32.65
G0 X162.95 Y18.25
G0 X163.98 Y14.58
G0 X169.47 Y21.98
G0 X178.82 Y40.11
G0 X191.17 Y67.90
G0 X205.53 Y103.68
G0 X220.83 Y145.24
G0 X235.99 Y189.99
G0 X250.03 Y235.11
G0 X262.08 Y277.73
G0 X271.50 Y315.12
G0 X277.84 Y344.86
G0 X280.93 Y365.02
G0 X280.84 Y374.24
G0 X277.85 Y371.88
G0 X272.44 Y358.00
G0 X265.23 Y333.44
G0 X256.92 Y299.70
G0 X248.24 Y258.86
G0 X239.87 Y213.49
G0 X232.42 Y166.45
G0 X226.36 Y120.72
G0 X222.00 Y79.20
G0 X219.47 Y44.53
G0 X218.74 Y18.95
G0 X219.60 Y4.08
G0 X221.71 Y0.91
G0 X224.65 Y9.65
G0 X227.93 Y29.78
G0 X231.09 Y60.02
G0 X233.69 Y98.49
G0 X235.40 Y142.75
G0 X236.00 Y189.99
G0 X235.40 Y237.24
G0 X233.69 Y281.50
G0 X231.09 Y319.97
G0 X227.93 Y350.21
G0 X224.65 Y370.34
G0 X221.71 Y379.08
G0 X219.60 Y375.91
G0 X218.74 Y361.04
G0 X219.47 Y335.46
G0 X222.00 Y300.79
G0 X226.36 Y259.27
G0 X232.42 Y213.54
G0 X239.87 Y166.50
G0 X248.24 Y121.13
G0 X256.92 Y80.29
G0 X265.23 Y46.55
G0 X272.44 Y21.99
G0 X277.85 Y8.11
G0 X280.84 Y5.75
G0 X280.93 Y14.97
G0 X277.84 Y35.13
G0 X271.50 Y64.87
G0 X262.08 Y102.26
G0 X250.03 Y144.88
G0 X236.00 Y189.99
G0 X220.83 Y234.75
G0 X205.53 Y276.31
G0 X191.17 Y312.09
G0 X178.82 Y339.88
G0 X169.47 Y358.01
G0 X163.98 Y365.41
G0 X162.95 Y361.74
G0 X166.73 Y347.34
G0 X175.33 Y323.23
G0 X188.44 Y291.05
G0 X205.42 Y252.90
G0 X225.32 Y211.28
G0 X246.94 Y168.85
G0 X268.92 Y128.28
G0 X289.80 Y92.13
G0 X308.13 Y62.60
G0 X322.58 Y41.47
G0 X332.01 Y29.95
G0 X335.58 Y28.63
G0 X332.82 Y37.42
G0 X323.65 Y55.64
G0 X308.42 Y81.96
G0 X287.92 Y114.61
G0 X263.29 Y151.42
G0 X236.00 Y189.99
G0 X207.74 Y227.87
G0 X180.35 Y262.67
G0 X155.63 Y292.26
G0 X135.30 Y314.88
G0 X120.81 Y329.23
G0 X113.30 Y334.57
G0 X113.45 Y330.76
G0 X121.50 Y318.24
G0 X137.13 Y297.97
G0 X159.55 Y271.41
G0 X187.48 Y240.38
G0 X219.26 Y206.94
G0 X252.94 Y173.26
G0 X286.38 Y141.48
G0 X317.41 Y113.55
G0 X343.97 Y91.13
G0 X364.24 Y75.50
G0 X376.76 Y67.45
G0 X380.57 Y67.30
G0 X375.23 Y74.81
G0 X360.88 Y89.30
G0 X338.26 Y109.63
G0 X308.67 Y134.35
G0 X273.87 Y161.74
G0 X236.00 Y189.99
G0 X197.42 Y217.29
G0 X160.61 Y241.92
G0 X127.96 Y262.42
G0 X101.64 Y277.65
G0 X83.42 Y286.82
G0 X74.63 Y289.58
G0 X75.95 Y286.01
G0 X87.47 Y276.58
G0 X108.60 Y262.13
G0 X138.13 Y243.80
G0 X174.28 Y222.92
G0 X214.85 Y200.94
G0 X257.28 Y179.32
G0 X298.90 Y159.42
G0 X337.05 Y142.44
G0 X369.23 Y129.33
G0 X393.34 Y120.73
G0 X407.74 Y116.95
G0 X411.41 Y117.98
G0 X404.01 Y123.47
G0 X385.88 Y132.82
G0 X358.09 Y145.17
G0 X322.31 Y159.53
G0 X280.75 Y174.83
G0 X236.00 Y189.99
G0 X190.88 Y204.03
G0 X148.26 Y216.08
G0 X110.87 Y225.50
G0 X81.13 Y231.84
G0 X60.97 Y234.93
G0 X51.75 Y234.84
G0 X54.11 Y231.85
G0 X67.99 Y226.44
G0 X92.55 Y219.23
G0 X126.29 Y210.92
G0 X167.13 Y202.24
G0 X212.50 Y193.87
G0 X259.54 Y186.42
G0 X305.27 Y180.36
G0 X346.79 Y176.00
G0 X381.46 Y173.47
G0 X407.04 Y172.74
G0 X421.91 Y173.60
G0 X425.08 Y175.71
G0 X416.34 Y178.65
G0 X396.21 Y181.93
G0 X365.97 Y185.09
G0 X327.50 Y187.69
G0 X283.24 Y189.40
G0 X236.00 Y190.00
G0 X188.75 Y189.40
G0 X144.49 Y187.69
G0 X106.02 Y185.09
G0 X75.78 Y181.93
G0 X55.65 Y178.65
G0 X46.91 Y175.71
G0 X50.08 Y173.60
G0 X64.95 Y172.74
G0 X90.53 Y173.47
G0 X125.20 Y176.00
G0 X166.72 Y180.36
G0 X212.45 Y186.42
G0 X259.49 Y193.87
G0 X304.86 Y202.24
G0 X345.70 Y210.92
G0 X379.44 Y219.23
G0 X404.00 Y226.44
G0 X417.88 Y231.85
G0 X420.24 Y234.84
G0 X411.02 Y234.93
G0 X390.86 Y231.84
G0 X361.12 Y225.50
G0 X323.73 Y216.08
G0 X281.11 Y204.03
G0 X235.99 Y189.99
G0 X191.24 Y174.83
G0 X149.68 Y159.53
G0 X113.90 Y145.17
G0 X86.11 Y132.82
G0 X67.98 Y123.47
G0 X60.58 Y117.98
G0 X64.25 Y116.95
G0 X78.65 Y120.73
G0 X102.76 Y129.33
G0 X134.94 Y142.44
G0 X173.09 Y159.42
G0 X214.71 Y179.32
G0 X257.14 Y200.94
G0 X297.71 Y222.92
G0 X333.86 Y243.80
G0 X363.39 Y262.13
G0 X384.52 Y276.58
G0 X396.04 Y286.01
G0 X397.36 Y289.58
G0 X388.57 Y286.82
G0 X370.35 Y277.65
G0 X344.03 Y262.42
G0 X311.38 Y241.92
G0 X274.57 Y217.29
G0 X236.00 Y190.00
G0 X198.12 Y161.74
G0 X163.32 Y134.35
G0 X133.73 Y109.63
G0 X111.11 Y89.30
G0 X96.76 Y74.81
G0 X91.42 Y67.30
G0 X95.23 Y67.45
G0 X107.75 Y75.50
G0 X128.02 Y91.13
G0 X154.58 Y113.55
G0 X185.61 Y141.48
G0 X219.05 Y173.26
G0 X252.73 Y206.94
G0 X284.51 Y240.38
G0 X312.44 Y271.41
G0 X334.86 Y297.97
G0 X350.49 Y318.24
G0 X358.54 Y330.76
G0 X358.69 Y334.57
G0 X351.18 Y329.23
G0 X336.69 Y314.88
G0 X316.36 Y292.26
G0 X291.64 Y262.67
G0 X264.25 Y227.87
G0 X235.99 Y189.99
G0 X208.70 Y151.42
G0 X184.07 Y114.61
G0 X163.57 Y81.96
G0 X148.34 Y55.64
G0 X139.17 Y37.42
G0 X136.41 Y28.63
G0 X139.98 Y29.95
G0 X149.41 Y41.47
G0 X163.86 Y62.60
G0 X182.19 Y92.13
G0 X203.07 Y128.28
G0 X225.05 Y168.85
G0 X246.67 Y211.28
G0 X266.57 Y252.90
G0 X283.55 Y291.05
G0 X296.66 Y323.23
G0 X305.26 Y347.34
G0 X309.04 Y361.74
G0 X308.01 Y365.41
G0 X302.52 Y358.01
G0 X293.17 Y339.88
G0 X280.82 Y312.09
G0 X266.46 Y276.31
G0 X251.16 Y234.75
G0 X236.00 Y190.00
G0 X221.96 Y144.88
G0 X209.91 Y102.26
G0 X200.49 Y64.87
G0 X194.15 Y35.13
G0 X191.06 Y14.97
G0 X191.15 Y5.75
G0 X194.14 Y8.11
G0 X199.55 Y21.99
G0 X206.76 Y46.55
G0 X215.07 Y80.29
G0 X223.75 Y121.13
G0 X232.12 Y166.50
G0 X239.57 Y213.54
G0 X245.63 Y259.27
G0 X249.99 Y300.79
G0 X252.52 Y335.46
G0 X253.25 Y361.04
G0 X252.39 Y375.91
G0 X250.28 Y379.08
G0 X247.34 Y370.34
G0 X244.06 Y350.21
G0 X240.90 Y319.97
G0 X238.30 Y281.50
G0 X236.59 Y237.24
G0 X236.00 Y190.00
G0 X236.59 Y142.75
G0 X238.30 Y98.49
G0 X240.90 Y60.02
G0 X244.06 Y29.78
G0 X247.34 Y9.65
G0 X250.28 Y0.91
G0 X252.39 Y4.08
G0 X253.25 Y18.95
G0 X252.52 Y44.53
G0 X249.99 Y79.20
G0 X245.63 Y120.72
G0 X239.57 Y166.45
G0 X232.12 Y213.49
G0 X223.75 Y258.86
G0 X215.07 Y299.70
G0 X206.76 Y333.44
G0 X199.55 Y358.00
G0 X194.14 Y371.88
G0 X191.15 Y374.24
G0 X191.06 Y365.02
G0 X194.15 Y344.86
G0 X200.49 Y315.12
G0 X209.91 Y277.73
G0 X221.96 Y235.11
G0 X235.99 Y190.00
G0 X251.16 Y145.24
G0 X266.46 Y103.68
G0 X280.82 Y67.90
G0 X293.17 Y40.11
G0 X302.52 Y21.98
G0 X308.01 Y14.58
G0 X309.04 Y18.25
G0 X305.26 Y32.65
G0 X296.66 Y56.76
G0 X283.55 Y88.94
G0 X266.57 Y127.09
G0 X246.67 Y168.71
G0 X225.05 Y211.14
G0 X203.07 Y251.71
G0 X182.19 Y287.86
G0 X163.86 Y317.39
G0 X149.41 Y338.52
G0 X139.98 Y350.04
G0 X136.41 Y351.36
G0 X139.17 Y342.57
G0 X148.34 Y324.35
G0 X163.57 Y298.03
G0 X184.07 Y265.38
G0 X208.70 Y228.57
G0 X236.00 Y189.99
G0 X264.25 Y152.12
G0 X291.64 Y117.32
G0 X316.36 Y87.73
G0 X336.69 Y65.11
G0 X351.18 Y50.76
G0 X358.69 Y45.42
G0 X358.54 Y49.23
G0 X350.49 Y61.75
G0 X334.86 Y82.02
G0 X312.44 Y108.58
G0 X284.51 Y139.61
G0 X252.73 Y173.05
G0 X219.05 Y206.73
G0 X185.61 Y238.51
G0 X154.58 Y266.44
G0 X128.02 Y288.86
G0 X107.75 Y304.49
G0 X95.23 Y312.54
G0 X91.42 Y312.69
G0 X96.76 Y305.18
G0 X111.11 Y290.69
G0 X133.73 Y270.36
G0 X163.32 Y245.64
G0 X198.12 Y218.25
G0 X235.99 Y190.00
G0 X274.57 Y162.70
G0 X311.38 Y138.07
G0 X344.03 Y117.57
G0 X370.35 Y102.34
G0 X388.57 Y93.17
G0 X397.36 Y90.41
G0 X396.04 Y93.98
G0 X384.52 Y103.41
G0 X363.39 Y117.86
G0 X333.86 Y136.19
G0 X297.71 Y157.07
G0 X257.14 Y179.05
G0 X214.71 Y200.67
G0 X173.09 Y220.57
G0 X134.94 Y237.55
G0 X102.76 Y250.66
G0 X78.65 Y259.26
G0 X64.25 Y263.04
G0 X60.58 Y262.01
G0 X67.98 Y256.52
G0 X86.11 Y247.17
G0 X113.90 Y234.82
G0 X149.68 Y220.46
G0 X191.24 Y205.16
G0 X235.99 Y190.00
G0 X281.11 Y175.96
G0 X323.73 Y163.91
G0 X361.12 Y154.49
G0 X390.86 Y148.15
G0 X411.02 Y145.06
G0 X420.24 Y145.15
G0 X417.88 Y148.14
G0 X404.00 Y153.55
G0 X379.44 Y160.76
G0 X345.70 Y169.07
G0 X304.86 Y177.75
G0 X259.49 Y186.12
G0 X212.45 Y193.57
G0 X166.72 Y199.63
G0 X125.20 Y203.99
G0 X90.53 Y206.52
G0 X64.95 Y207.25
G0 X50.08 Y206.39
G0 X46.91 Y204.28
G0 X55.65 Y201.34
G0 X75.78 Y198.06
G0 X106.02 Y194.90
G0 X144.49 Y192.30
G0 X188.75 Y190.59
G0 X235.99 Y190.00

; Custom G-code to execute after the end of the sketch

