; Created using https://markroland.github.io/sand-table-pattern-maker/
;
; 5/22/2023 19:13:46
;
; Machine Specifications:
;
; Units: mm
;
; Min X: 0
; Max X: 472
; Min Y: 0
; Max Y: 380
; Motor Speed (mm/min): 4000
;
; Pattern Specifications:
;
; Name: Circle
;
; Parameters:
; - radius: [object Object]
; - angle: [object Object]
; - reverse: [object Object]
;
; URL: https://markroland.github.io/sand-table-pattern-maker/?pattern=spokes
;
; Pattern Distance (mm): 9,590.9
; Pattern Draw Time (minutes): 2.3


; Custom G-code to execute before the start of the sketch

G0 X236.00 Y190.00
G0 X240.75 Y193.09
G0 X245.50 Y195.87
G0 X250.25 Y198.09
G0 X255.00 Y199.51
G0 X259.75 Y200.00
G0 X264.50 Y199.51
G0 X269.25 Y198.09
G0 X274.00 Y195.87
G0 X278.75 Y193.09
G0 X283.50 Y190.00
G0 X288.25 Y186.90
G0 X293.00 Y184.12
G0 X297.75 Y181.90
G0 X302.50 Y180.48
G0 X307.25 Y180.00
G0 X312.00 Y180.48
G0 X316.75 Y181.90
G0 X321.50 Y184.12
G0 X326.25 Y186.90
G0 X331.00 Y190.00
G0 X335.75 Y193.09
G0 X340.50 Y195.87
G0 X345.25 Y198.09
G0 X350.00 Y199.51
G0 X354.75 Y200.00
G0 X359.50 Y199.51
G0 X364.25 Y198.09
G0 X369.00 Y195.87
G0 X373.75 Y193.09
G0 X378.50 Y190.00
G0 X383.25 Y186.90
G0 X388.00 Y184.12
G0 X392.75 Y181.90
G0 X397.50 Y180.48
G0 X402.25 Y180.00
G0 X407.00 Y180.48
G0 X411.75 Y181.90
G0 X416.50 Y184.12
G0 X421.25 Y186.90
G0 X426.00 Y190.00
G0 X423.87 Y218.31
G0 X419.64 Y214.55
G0 X415.36 Y211.08
G0 X410.99 Y208.19
G0 X406.50 Y206.08
G0 X401.88 Y204.88
G0 X397.11 Y204.66
G0 X392.20 Y205.36
G0 X387.17 Y206.84
G0 X382.06 Y208.89
G0 X376.90 Y211.23
G0 X371.75 Y213.58
G0 X366.63 Y215.63
G0 X361.61 Y217.11
G0 X356.70 Y217.81
G0 X351.93 Y217.58
G0 X347.30 Y216.39
G0 X342.82 Y214.28
G0 X338.45 Y211.38
G0 X334.17 Y207.92
G0 X329.93 Y204.15
G0 X325.70 Y200.39
G0 X321.42 Y196.93
G0 X317.05 Y194.03
G0 X312.56 Y191.92
G0 X307.94 Y190.73
G0 X303.17 Y190.50
G0 X298.26 Y191.20
G0 X293.23 Y192.68
G0 X288.12 Y194.73
G0 X282.96 Y197.07
G0 X277.81 Y199.42
G0 X272.69 Y201.47
G0 X267.67 Y202.95
G0 X262.76 Y203.65
G0 X257.99 Y203.42
G0 X253.37 Y202.23
G0 X248.88 Y200.12
G0 X244.51 Y197.22
G0 X240.23 Y193.76
G0 X236.00 Y190.00
G0 X236.00 Y190.00
G0 X239.62 Y194.35
G0 X243.34 Y198.41
G0 X247.23 Y201.93
G0 X251.35 Y204.68
G0 X255.74 Y206.55
G0 X260.43 Y207.48
G0 X265.38 Y207.53
G0 X270.57 Y206.81
G0 X275.93 Y205.55
G0 X281.38 Y204.00
G0 X286.83 Y202.44
G0 X292.20 Y201.18
G0 X297.39 Y200.47
G0 X302.34 Y200.51
G0 X307.03 Y201.44
G0 X311.42 Y203.31
G0 X315.54 Y206.07
G0 X319.43 Y209.58
G0 X323.15 Y213.64
G0 X326.77 Y218.00
G0 X330.40 Y222.35
G0 X334.12 Y226.41
G0 X338.01 Y229.93
G0 X342.13 Y232.69
G0 X346.52 Y234.55
G0 X351.20 Y235.49
G0 X356.16 Y235.53
G0 X361.35 Y234.81
G0 X366.71 Y233.55
G0 X372.16 Y232.00
G0 X377.61 Y230.44
G0 X382.97 Y229.18
G0 X388.17 Y228.47
G0 X393.12 Y228.51
G0 X397.81 Y229.44
G0 X402.20 Y231.31
G0 X406.32 Y234.07
G0 X410.21 Y237.58
G0 X413.93 Y241.65
G0 X417.55 Y246.00
G0 X407.18 Y272.43
G0 X404.24 Y267.59
G0 X401.17 Y263.02
G0 X397.85 Y258.96
G0 X394.19 Y255.62
G0 X390.12 Y253.12
G0 X385.63 Y251.50
G0 X380.73 Y250.72
G0 X375.49 Y250.65
G0 X370.00 Y251.10
G0 X364.38 Y251.82
G0 X358.76 Y252.55
G0 X353.27 Y253.00
G0 X348.03 Y252.93
G0 X343.14 Y252.15
G0 X338.65 Y250.53
G0 X334.58 Y248.03
G0 X330.92 Y244.69
G0 X327.60 Y240.63
G0 X324.53 Y236.06
G0 X321.59 Y231.21
G0 X318.65 Y226.37
G0 X315.58 Y221.80
G0 X312.26 Y217.74
G0 X308.60 Y214.40
G0 X304.53 Y211.90
G0 X300.04 Y210.28
G0 X295.14 Y209.50
G0 X289.90 Y209.43
G0 X284.41 Y209.88
G0 X278.79 Y210.60
G0 X273.17 Y211.33
G0 X267.68 Y211.78
G0 X262.44 Y211.71
G0 X257.55 Y210.93
G0 X253.05 Y209.31
G0 X248.99 Y206.81
G0 X245.32 Y203.47
G0 X242.00 Y199.41
G0 X238.93 Y194.84
G0 X236.00 Y190.00
G0 X236.00 Y190.00
G0 X238.18 Y195.22
G0 X240.53 Y200.20
G0 X243.21 Y204.71
G0 X246.34 Y208.56
G0 X249.98 Y211.64
G0 X254.19 Y213.91
G0 X258.91 Y215.41
G0 X264.08 Y216.26
G0 X269.58 Y216.63
G0 X275.24 Y216.75
G0 X280.91 Y216.88
G0 X286.40 Y217.25
G0 X291.57 Y218.10
G0 X296.30 Y219.60
G0 X300.50 Y221.87
G0 X304.15 Y224.95
G0 X307.27 Y228.80
G0 X309.95 Y233.30
G0 X312.30 Y238.28
G0 X314.49 Y243.51
G0 X316.67 Y248.74
G0 X319.03 Y253.72
G0 X321.70 Y258.22
G0 X324.83 Y262.07
G0 X328.48 Y265.15
G0 X332.68 Y267.42
G0 X337.40 Y268.93
G0 X342.57 Y269.77
G0 X348.07 Y270.15
G0 X353.73 Y270.27
G0 X359.40 Y270.39
G0 X364.89 Y270.76
G0 X370.07 Y271.61
G0 X374.79 Y273.11
G0 X378.99 Y275.38
G0 X382.64 Y278.46
G0 X385.76 Y282.31
G0 X388.44 Y286.82
G0 X390.80 Y291.80
G0 X392.98 Y297.03
G0 X375.27 Y319.23
G0 X373.89 Y313.73
G0 X372.31 Y308.46
G0 X370.33 Y303.60
G0 X367.82 Y299.33
G0 X364.67 Y295.74
G0 X360.85 Y292.87
G0 X356.40 Y290.68
G0 X351.42 Y289.07
G0 X346.04 Y287.89
G0 X340.45 Y286.92
G0 X334.87 Y285.95
G0 X329.49 Y284.77
G0 X324.51 Y283.16
G0 X320.06 Y280.97
G0 X316.24 Y278.10
G0 X313.09 Y274.51
G0 X310.58 Y270.23
G0 X308.60 Y265.38
G0 X307.02 Y260.11
G0 X305.63 Y254.61
G0 X304.25 Y249.12
G0 X302.67 Y243.84
G0 X300.69 Y238.99
G0 X298.18 Y234.72
G0 X295.03 Y231.13
G0 X291.21 Y228.25
G0 X286.76 Y226.07
G0 X281.78 Y224.46
G0 X276.40 Y223.27
G0 X270.81 Y222.30
G0 X265.23 Y221.34
G0 X259.85 Y220.15
G0 X254.87 Y218.54
G0 X250.42 Y216.35
G0 X246.60 Y213.48
G0 X243.45 Y209.89
G0 X240.94 Y205.62
G0 X238.96 Y200.77
G0 X237.38 Y195.49
G0 X236.00 Y190.00
G0 X236.00 Y190.00
G0 X236.54 Y195.64
G0 X237.32 Y201.09
G0 X238.55 Y206.18
G0 X240.41 Y210.78
G0 X242.98 Y214.80
G0 X246.33 Y218.21
G0 X250.40 Y221.04
G0 X255.09 Y223.37
G0 X260.23 Y225.34
G0 X265.61 Y227.13
G0 X270.99 Y228.92
G0 X276.13 Y230.89
G0 X280.82 Y233.23
G0 X284.89 Y236.06
G0 X288.24 Y239.47
G0 X290.82 Y243.48
G0 X292.67 Y248.08
G0 X293.90 Y253.18
G0 X294.68 Y258.63
G0 X295.23 Y264.27
G0 X295.77 Y269.91
G0 X296.55 Y275.36
G0 X297.79 Y280.45
G0 X299.64 Y285.05
G0 X302.22 Y289.07
G0 X305.56 Y292.48
G0 X309.63 Y295.31
G0 X314.32 Y297.64
G0 X319.46 Y299.62
G0 X324.84 Y301.41
G0 X330.22 Y303.19
G0 X335.36 Y305.17
G0 X340.05 Y307.50
G0 X344.12 Y310.33
G0 X347.47 Y313.74
G0 X350.05 Y317.76
G0 X351.90 Y322.36
G0 X353.13 Y327.45
G0 X353.91 Y332.90
G0 X354.46 Y338.54
G0 X331.00 Y354.54
G0 X331.30 Y348.88
G0 X331.34 Y343.37
G0 X330.88 Y338.15
G0 X329.73 Y333.33
G0 X327.78 Y328.97
G0 X324.98 Y325.10
G0 X321.38 Y321.70
G0 X317.09 Y318.69
G0 X312.30 Y315.97
G0 X307.25 Y313.40
G0 X302.19 Y310.84
G0 X297.40 Y308.12
G0 X293.11 Y305.11
G0 X289.51 Y301.70
G0 X286.71 Y297.84
G0 X284.76 Y293.48
G0 X283.61 Y288.65
G0 X283.15 Y283.43
G0 X283.19 Y277.93
G0 X283.50 Y272.27
G0 X283.80 Y266.61
G0 X283.84 Y261.10
G0 X283.38 Y255.88
G0 X282.23 Y251.06
G0 X280.28 Y246.70
G0 X277.48 Y242.83
G0 X273.88 Y239.43
G0 X269.59 Y236.42
G0 X264.80 Y233.70
G0 X259.75 Y231.13
G0 X254.69 Y228.56
G0 X249.90 Y225.84
G0 X245.61 Y222.84
G0 X242.01 Y219.43
G0 X239.21 Y215.56
G0 X237.26 Y211.20
G0 X236.11 Y206.38
G0 X235.65 Y201.16
G0 X235.69 Y195.65
G0 X236.00 Y190.00
G0 X236.00 Y190.00
G0 X234.85 Y195.55
G0 X233.99 Y200.99
G0 X233.67 Y206.22
G0 X234.08 Y211.16
G0 X235.36 Y215.76
G0 X237.55 Y220.00
G0 X240.61 Y223.90
G0 X244.41 Y227.52
G0 X248.74 Y230.92
G0 X253.35 Y234.21
G0 X257.96 Y237.50
G0 X262.29 Y240.91
G0 X266.09 Y244.52
G0 X269.14 Y248.42
G0 X271.33 Y252.67
G0 X272.61 Y257.27
G0 X273.03 Y262.21
G0 X272.70 Y267.44
G0 X271.84 Y272.88
G0 X270.70 Y278.43
G0 X269.56 Y283.98
G0 X268.70 Y289.42
G0 X268.38 Y294.65
G0 X268.79 Y299.59
G0 X270.07 Y304.19
G0 X272.26 Y308.43
G0 X275.32 Y312.34
G0 X279.11 Y315.95
G0 X283.44 Y319.35
G0 X288.06 Y322.64
G0 X292.67 Y325.94
G0 X297.00 Y329.34
G0 X300.79 Y332.95
G0 X303.85 Y336.86
G0 X306.04 Y341.10
G0 X307.32 Y345.70
G0 X307.73 Y350.64
G0 X307.41 Y355.87
G0 X306.55 Y361.31
G0 X305.41 Y366.86
G0 X278.27 Y375.23
G0 X280.23 Y369.91
G0 X281.89 Y364.66
G0 X282.99 Y359.54
G0 X283.32 Y354.59
G0 X282.74 Y349.85
G0 X281.20 Y345.33
G0 X278.76 Y341.01
G0 X275.55 Y336.88
G0 X271.77 Y332.87
G0 X267.70 Y328.92
G0 X263.63 Y324.98
G0 X259.86 Y320.97
G0 X256.65 Y316.83
G0 X254.20 Y312.51
G0 X252.67 Y307.99
G0 X252.09 Y303.25
G0 X252.42 Y298.31
G0 X253.52 Y293.18
G0 X255.18 Y287.93
G0 X257.13 Y282.61
G0 X259.09 Y277.29
G0 X260.75 Y272.04
G0 X261.85 Y266.92
G0 X262.18 Y261.97
G0 X261.60 Y257.23
G0 X260.06 Y252.71
G0 X257.62 Y248.40
G0 X254.41 Y244.26
G0 X250.63 Y240.25
G0 X246.56 Y236.30
G0 X242.50 Y232.36
G0 X238.72 Y228.35
G0 X235.51 Y224.21
G0 X233.06 Y219.90
G0 X231.53 Y215.37
G0 X230.95 Y210.63
G0 X231.28 Y205.69
G0 X232.38 Y200.56
G0 X234.04 Y195.31
G0 X236.00 Y190.00
G0 X236.00 Y190.00
G0 X233.27 Y194.96
G0 X230.84 Y199.91
G0 X228.99 Y204.81
G0 X227.93 Y209.65
G0 X227.80 Y214.43
G0 X228.64 Y219.13
G0 X230.41 Y223.76
G0 X232.97 Y228.33
G0 X236.11 Y232.86
G0 X239.54 Y237.36
G0 X242.98 Y241.87
G0 X246.12 Y246.40
G0 X248.68 Y250.97
G0 X250.45 Y255.60
G0 X251.29 Y260.30
G0 X251.16 Y265.07
G0 X250.10 Y269.91
G0 X248.25 Y274.82
G0 X245.82 Y279.76
G0 X243.09 Y284.73
G0 X240.37 Y289.70
G0 X237.94 Y294.64
G0 X236.09 Y299.54
G0 X235.03 Y304.39
G0 X234.90 Y309.16
G0 X235.74 Y313.86
G0 X237.51 Y318.49
G0 X240.07 Y323.06
G0 X243.21 Y327.59
G0 X246.64 Y332.10
G0 X250.08 Y336.60
G0 X253.22 Y341.13
G0 X255.78 Y345.70
G0 X257.55 Y350.33
G0 X258.39 Y355.03
G0 X258.26 Y359.81
G0 X257.20 Y364.65
G0 X255.35 Y369.55
G0 X252.92 Y374.50
G0 X250.19 Y379.46
G0 X221.80 Y379.46
G0 X225.23 Y374.96
G0 X228.37 Y370.43
G0 X230.93 Y365.86
G0 X232.70 Y361.23
G0 X233.54 Y356.53
G0 X233.41 Y351.75
G0 X232.35 Y346.91
G0 X230.50 Y342.01
G0 X228.07 Y337.06
G0 X225.35 Y332.10
G0 X222.62 Y327.13
G0 X220.19 Y322.18
G0 X218.34 Y317.28
G0 X217.28 Y312.44
G0 X217.15 Y307.67
G0 X217.99 Y302.97
G0 X219.76 Y298.33
G0 X222.32 Y293.76
G0 X225.46 Y289.24
G0 X228.90 Y284.73
G0 X232.33 Y280.22
G0 X235.47 Y275.70
G0 X238.03 Y271.12
G0 X239.80 Y266.49
G0 X240.64 Y261.79
G0 X240.51 Y257.02
G0 X239.45 Y252.18
G0 X237.60 Y247.27
G0 X235.17 Y242.33
G0 X232.45 Y237.36
G0 X229.72 Y232.39
G0 X227.29 Y227.45
G0 X225.44 Y222.55
G0 X224.38 Y217.70
G0 X224.25 Y212.93
G0 X225.09 Y208.23
G0 X226.86 Y203.60
G0 X229.42 Y199.03
G0 X232.56 Y194.50
G0 X236.00 Y190.00
G0 X236.00 Y190.00
G0 X231.93 Y193.94
G0 X228.15 Y197.95
G0 X224.94 Y202.09
G0 X222.49 Y206.40
G0 X220.96 Y210.92
G0 X220.38 Y215.66
G0 X220.71 Y220.61
G0 X221.81 Y225.73
G0 X223.47 Y230.99
G0 X225.43 Y236.30
G0 X227.38 Y241.62
G0 X229.04 Y246.87
G0 X230.14 Y252.00
G0 X230.47 Y256.94
G0 X229.89 Y261.68
G0 X228.36 Y266.21
G0 X225.91 Y270.52
G0 X222.70 Y274.66
G0 X218.93 Y278.67
G0 X214.86 Y282.61
G0 X210.79 Y286.56
G0 X207.01 Y290.57
G0 X203.80 Y294.71
G0 X201.36 Y299.02
G0 X199.82 Y303.54
G0 X199.24 Y308.28
G0 X199.57 Y313.23
G0 X200.67 Y318.35
G0 X202.33 Y323.60
G0 X204.29 Y328.92
G0 X206.24 Y334.24
G0 X207.90 Y339.49
G0 X209.00 Y344.62
G0 X209.33 Y349.56
G0 X208.75 Y354.30
G0 X207.22 Y358.82
G0 X204.77 Y363.14
G0 X201.56 Y367.28
G0 X197.79 Y371.29
G0 X193.72 Y375.23
G0 X166.58 Y366.86
G0 X171.19 Y363.57
G0 X175.52 Y360.17
G0 X179.32 Y356.55
G0 X182.37 Y352.65
G0 X184.57 Y348.41
G0 X185.85 Y343.81
G0 X186.26 Y338.87
G0 X185.93 Y333.64
G0 X185.08 Y328.20
G0 X183.93 Y322.64
G0 X182.79 Y317.09
G0 X181.93 Y311.65
G0 X181.61 Y306.42
G0 X182.02 Y301.48
G0 X183.30 Y296.88
G0 X185.49 Y292.64
G0 X188.55 Y288.74
G0 X192.35 Y285.12
G0 X196.68 Y281.72
G0 X201.29 Y278.43
G0 X205.90 Y275.14
G0 X210.23 Y271.73
G0 X214.02 Y268.12
G0 X217.08 Y264.22
G0 X219.27 Y259.97
G0 X220.55 Y255.37
G0 X220.97 Y250.43
G0 X220.64 Y245.20
G0 X219.78 Y239.76
G0 X218.64 Y234.21
G0 X217.50 Y228.66
G0 X216.64 Y223.22
G0 X216.32 Y217.99
G0 X216.73 Y213.05
G0 X218.01 Y208.45
G0 X220.20 Y204.21
G0 X223.26 Y200.30
G0 X227.05 Y196.69
G0 X231.38 Y193.29
G0 X236.00 Y190.00
G0 X236.00 Y190.00
G0 X230.94 Y192.56
G0 X226.15 Y195.28
G0 X221.86 Y198.29
G0 X218.26 Y201.69
G0 X215.46 Y205.56
G0 X213.51 Y209.92
G0 X212.36 Y214.75
G0 X211.90 Y219.97
G0 X211.94 Y225.47
G0 X212.25 Y231.13
G0 X212.55 Y236.79
G0 X212.59 Y242.30
G0 X212.13 Y247.52
G0 X210.98 Y252.34
G0 X209.03 Y256.70
G0 X206.23 Y260.57
G0 X202.63 Y263.97
G0 X198.34 Y266.98
G0 X193.55 Y269.70
G0 X188.49 Y272.27
G0 X183.44 Y274.84
G0 X178.65 Y277.56
G0 X174.36 Y280.56
G0 X170.76 Y283.97
G0 X167.96 Y287.84
G0 X166.01 Y292.19
G0 X164.86 Y297.02
G0 X164.40 Y302.24
G0 X164.44 Y307.74
G0 X164.74 Y313.40
G0 X165.05 Y319.06
G0 X165.09 Y324.57
G0 X164.63 Y329.79
G0 X163.48 Y334.61
G0 X161.53 Y338.97
G0 X158.73 Y342.84
G0 X155.13 Y346.24
G0 X150.84 Y349.25
G0 X146.05 Y351.97
G0 X140.99 Y354.54
G0 X117.53 Y338.54
G0 X122.91 Y336.76
G0 X128.05 Y334.78
G0 X132.74 Y332.45
G0 X136.81 Y329.62
G0 X140.16 Y326.21
G0 X142.74 Y322.19
G0 X144.59 Y317.59
G0 X145.82 Y312.50
G0 X146.60 Y307.05
G0 X147.15 Y301.41
G0 X147.69 Y295.77
G0 X148.48 Y290.31
G0 X149.71 Y285.22
G0 X151.56 Y280.62
G0 X154.14 Y276.60
G0 X157.48 Y273.19
G0 X161.55 Y270.37
G0 X166.24 Y268.03
G0 X171.39 Y266.06
G0 X176.76 Y264.27
G0 X182.14 Y262.48
G0 X187.28 Y260.51
G0 X191.97 Y258.17
G0 X196.05 Y255.34
G0 X199.39 Y251.94
G0 X201.97 Y247.92
G0 X203.82 Y243.32
G0 X205.05 Y238.22
G0 X205.83 Y232.77
G0 X206.38 Y227.13
G0 X206.92 Y221.49
G0 X207.71 Y216.04
G0 X208.94 Y210.95
G0 X210.79 Y206.35
G0 X213.37 Y202.33
G0 X216.71 Y198.92
G0 X220.79 Y196.09
G0 X225.48 Y193.76
G0 X230.62 Y191.78
G0 X236.00 Y190.00
G0 X236.00 Y190.00
G0 X230.41 Y190.96
G0 X225.03 Y192.15
G0 X220.05 Y193.76
G0 X215.60 Y195.95
G0 X211.78 Y198.82
G0 X208.63 Y202.41
G0 X206.12 Y206.68
G0 X204.14 Y211.53
G0 X202.56 Y216.81
G0 X201.18 Y222.30
G0 X199.79 Y227.80
G0 X198.21 Y233.07
G0 X196.23 Y237.93
G0 X193.72 Y242.20
G0 X190.57 Y245.79
G0 X186.75 Y248.66
G0 X182.30 Y250.85
G0 X177.32 Y252.46
G0 X171.94 Y253.65
G0 X166.36 Y254.61
G0 X160.77 Y255.58
G0 X155.39 Y256.76
G0 X150.41 Y258.37
G0 X145.96 Y260.56
G0 X142.14 Y263.43
G0 X138.99 Y267.02
G0 X136.48 Y271.30
G0 X134.50 Y276.15
G0 X132.92 Y281.42
G0 X131.54 Y286.92
G0 X130.15 Y292.42
G0 X128.57 Y297.69
G0 X126.59 Y302.54
G0 X124.08 Y306.81
G0 X120.93 Y310.40
G0 X117.11 Y313.28
G0 X112.66 Y315.47
G0 X107.68 Y317.07
G0 X102.30 Y318.26
G0 X96.72 Y319.23
G0 X79.01 Y297.03
G0 X84.68 Y296.90
G0 X90.17 Y296.53
G0 X95.34 Y295.68
G0 X100.07 Y294.18
G0 X104.27 Y291.91
G0 X107.91 Y288.83
G0 X111.04 Y284.98
G0 X113.72 Y280.48
G0 X116.07 Y275.50
G0 X118.26 Y270.27
G0 X120.44 Y265.04
G0 X122.79 Y260.06
G0 X125.47 Y255.56
G0 X128.60 Y251.71
G0 X132.25 Y248.63
G0 X136.45 Y246.36
G0 X141.17 Y244.85
G0 X146.34 Y244.01
G0 X151.84 Y243.63
G0 X157.50 Y243.51
G0 X163.17 Y243.39
G0 X168.66 Y243.02
G0 X173.83 Y242.17
G0 X178.56 Y240.67
G0 X182.76 Y238.39
G0 X186.41 Y235.31
G0 X189.53 Y231.46
G0 X192.21 Y226.96
G0 X194.56 Y221.98
G0 X196.75 Y216.75
G0 X198.93 Y211.52
G0 X201.29 Y206.54
G0 X203.97 Y202.04
G0 X207.09 Y198.19
G0 X210.74 Y195.11
G0 X214.94 Y192.84
G0 X219.66 Y191.34
G0 X224.83 Y190.49
G0 X230.33 Y190.12
G0 X236.00 Y190.00
G0 X236.00 Y190.00
G0 X230.37 Y189.27
G0 X224.89 Y188.82
G0 X219.65 Y188.89
G0 X214.75 Y189.67
G0 X210.26 Y191.29
G0 X206.19 Y193.79
G0 X202.53 Y197.13
G0 X199.21 Y201.19
G0 X196.14 Y205.76
G0 X193.20 Y210.60
G0 X190.26 Y215.45
G0 X187.19 Y220.02
G0 X183.87 Y224.08
G0 X180.21 Y227.42
G0 X176.14 Y229.92
G0 X171.65 Y231.54
G0 X166.75 Y232.32
G0 X161.51 Y232.39
G0 X156.02 Y231.94
G0 X150.40 Y231.21
G0 X144.78 Y230.49
G0 X139.29 Y230.04
G0 X134.05 Y230.11
G0 X129.16 Y230.89
G0 X124.67 Y232.51
G0 X120.60 Y235.01
G0 X116.94 Y238.35
G0 X113.62 Y242.41
G0 X110.55 Y246.98
G0 X107.61 Y251.82
G0 X104.67 Y256.67
G0 X101.60 Y261.24
G0 X98.28 Y265.30
G0 X94.62 Y268.64
G0 X90.55 Y271.14
G0 X86.06 Y272.76
G0 X81.16 Y273.54
G0 X75.92 Y273.61
G0 X70.43 Y273.16
G0 X64.81 Y272.43
G0 X54.44 Y246.00
G0 X59.89 Y247.55
G0 X65.25 Y248.82
G0 X70.44 Y249.53
G0 X75.40 Y249.49
G0 X80.08 Y248.55
G0 X84.47 Y246.69
G0 X88.59 Y243.93
G0 X92.48 Y240.41
G0 X96.20 Y236.35
G0 X99.83 Y232.00
G0 X103.45 Y227.64
G0 X107.17 Y223.58
G0 X111.06 Y220.07
G0 X115.18 Y217.31
G0 X119.57 Y215.44
G0 X124.26 Y214.51
G0 X129.21 Y214.47
G0 X134.41 Y215.18
G0 X139.77 Y216.44
G0 X145.22 Y218.00
G0 X150.67 Y219.55
G0 X156.03 Y220.81
G0 X161.22 Y221.53
G0 X166.17 Y221.48
G0 X170.86 Y220.55
G0 X175.25 Y218.68
G0 X179.37 Y215.93
G0 X183.26 Y212.41
G0 X186.98 Y208.35
G0 X190.61 Y204.00
G0 X194.23 Y199.64
G0 X197.95 Y195.58
G0 X201.84 Y192.06
G0 X205.96 Y189.31
G0 X210.35 Y187.44
G0 X215.04 Y186.51
G0 X219.99 Y186.46
G0 X225.18 Y187.18
G0 X230.55 Y188.44
G0 X236.00 Y190.00
G0 X236.00 Y190.00
G0 X230.84 Y187.65
G0 X225.73 Y185.60
G0 X220.70 Y184.12
G0 X215.79 Y183.42
G0 X211.02 Y183.65
G0 X206.40 Y184.84
G0 X201.91 Y186.95
G0 X197.54 Y189.85
G0 X193.26 Y193.31
G0 X189.03 Y197.07
G0 X184.79 Y200.84
G0 X180.51 Y204.30
G0 X176.14 Y207.20
G0 X171.66 Y209.31
G0 X167.03 Y210.50
G0 X162.26 Y210.73
G0 X157.35 Y210.03
G0 X152.33 Y208.55
G0 X147.21 Y206.50
G0 X142.06 Y204.15
G0 X136.90 Y201.81
G0 X131.79 Y199.76
G0 X126.76 Y198.28
G0 X121.85 Y197.58
G0 X117.08 Y197.81
G0 X112.46 Y199.00
G0 X107.97 Y201.11
G0 X103.60 Y204.01
G0 X99.32 Y207.47
G0 X95.09 Y211.23
G0 X90.85 Y215.00
G0 X86.57 Y218.46
G0 X82.20 Y221.36
G0 X77.72 Y223.47
G0 X73.09 Y224.66
G0 X68.32 Y224.89
G0 X63.41 Y224.19
G0 X58.39 Y222.71
G0 X53.27 Y220.66
G0 X48.12 Y218.31
G0 X46.00 Y190.00
G0 X50.75 Y193.09
G0 X55.50 Y195.87
G0 X60.25 Y198.09
G0 X65.00 Y199.51
G0 X69.75 Y200.00
G0 X74.50 Y199.51
G0 X79.25 Y198.09
G0 X84.00 Y195.87
G0 X88.75 Y193.09
G0 X93.50 Y190.00
G0 X98.25 Y186.90
G0 X103.00 Y184.12
G0 X107.75 Y181.90
G0 X112.50 Y180.48
G0 X117.25 Y180.00
G0 X122.00 Y180.48
G0 X126.75 Y181.90
G0 X131.50 Y184.12
G0 X136.25 Y186.90
G0 X141.00 Y190.00
G0 X145.75 Y193.09
G0 X150.50 Y195.87
G0 X155.25 Y198.09
G0 X160.00 Y199.51
G0 X164.75 Y200.00
G0 X169.50 Y199.51
G0 X174.25 Y198.09
G0 X179.00 Y195.87
G0 X183.75 Y193.09
G0 X188.50 Y190.00
G0 X193.25 Y186.90
G0 X198.00 Y184.12
G0 X202.75 Y181.90
G0 X207.50 Y180.48
G0 X212.25 Y180.00
G0 X217.00 Y180.48
G0 X221.75 Y181.90
G0 X226.50 Y184.12
G0 X231.25 Y186.90
G0 X236.00 Y190.00
G0 X236.00 Y190.00
G0 X231.76 Y186.23
G0 X227.48 Y182.77
G0 X223.11 Y179.87
G0 X218.62 Y177.76
G0 X214.00 Y176.57
G0 X209.23 Y176.34
G0 X204.32 Y177.04
G0 X199.30 Y178.52
G0 X194.18 Y180.57
G0 X189.03 Y182.92
G0 X183.87 Y185.26
G0 X178.76 Y187.31
G0 X173.73 Y188.79
G0 X168.82 Y189.49
G0 X164.05 Y189.26
G0 X159.43 Y188.07
G0 X154.94 Y185.96
G0 X150.57 Y183.06
G0 X146.29 Y179.60
G0 X142.06 Y175.84
G0 X137.82 Y172.07
G0 X133.54 Y168.61
G0 X129.17 Y165.71
G0 X124.69 Y163.60
G0 X120.06 Y162.41
G0 X115.29 Y162.18
G0 X110.38 Y162.88
G0 X105.36 Y164.36
G0 X100.24 Y166.41
G0 X95.09 Y168.76
G0 X89.93 Y171.10
G0 X84.82 Y173.15
G0 X79.79 Y174.63
G0 X74.88 Y175.33
G0 X70.11 Y175.11
G0 X65.49 Y173.91
G0 X61.00 Y171.80
G0 X56.63 Y168.91
G0 X52.35 Y165.44
G0 X48.12 Y161.68
G0 X54.44 Y133.99
G0 X58.06 Y138.34
G0 X61.78 Y142.41
G0 X65.67 Y145.92
G0 X69.79 Y148.68
G0 X74.18 Y150.55
G0 X78.87 Y151.48
G0 X83.82 Y151.52
G0 X89.02 Y150.81
G0 X94.38 Y149.55
G0 X99.83 Y147.99
G0 X105.28 Y146.44
G0 X110.64 Y145.18
G0 X115.83 Y144.46
G0 X120.79 Y144.50
G0 X125.47 Y145.44
G0 X129.86 Y147.30
G0 X133.98 Y150.06
G0 X137.87 Y153.58
G0 X141.59 Y157.64
G0 X145.22 Y161.99
G0 X148.84 Y166.35
G0 X152.56 Y170.41
G0 X156.45 Y173.92
G0 X160.57 Y176.68
G0 X164.96 Y178.55
G0 X169.65 Y179.48
G0 X174.60 Y179.52
G0 X179.79 Y178.81
G0 X185.16 Y177.55
G0 X190.61 Y175.99
G0 X196.06 Y174.44
G0 X201.42 Y173.18
G0 X206.61 Y172.46
G0 X211.56 Y172.51
G0 X216.25 Y173.44
G0 X220.64 Y175.31
G0 X224.76 Y178.06
G0 X228.65 Y181.58
G0 X232.37 Y185.64
G0 X236.00 Y190.00
G0 X236.00 Y190.00
G0 X233.06 Y185.15
G0 X229.99 Y180.58
G0 X226.67 Y176.52
G0 X223.00 Y173.18
G0 X218.94 Y170.68
G0 X214.44 Y169.06
G0 X209.55 Y168.28
G0 X204.31 Y168.21
G0 X198.82 Y168.66
G0 X193.20 Y169.39
G0 X187.58 Y170.11
G0 X182.09 Y170.56
G0 X176.85 Y170.49
G0 X171.95 Y169.71
G0 X167.46 Y168.09
G0 X163.39 Y165.59
G0 X159.73 Y162.25
G0 X156.41 Y158.19
G0 X153.34 Y153.62
G0 X150.40 Y148.78
G0 X147.46 Y143.93
G0 X144.39 Y139.36
G0 X141.07 Y135.30
G0 X137.41 Y131.96
G0 X133.34 Y129.46
G0 X128.85 Y127.84
G0 X123.96 Y127.06
G0 X118.72 Y126.99
G0 X113.23 Y127.44
G0 X107.61 Y128.17
G0 X101.99 Y128.89
G0 X96.50 Y129.34
G0 X91.26 Y129.27
G0 X86.36 Y128.49
G0 X81.87 Y126.87
G0 X77.80 Y124.37
G0 X74.14 Y121.03
G0 X70.82 Y116.97
G0 X67.75 Y112.40
G0 X64.81 Y107.56
G0 X79.01 Y82.96
G0 X81.19 Y88.19
G0 X83.55 Y93.17
G0 X86.23 Y97.68
G0 X89.35 Y101.53
G0 X93.00 Y104.61
G0 X97.20 Y106.88
G0 X101.92 Y108.38
G0 X107.10 Y109.23
G0 X112.59 Y109.60
G0 X118.26 Y109.72
G0 X123.92 Y109.84
G0 X129.42 Y110.22
G0 X134.59 Y111.06
G0 X139.31 Y112.57
G0 X143.51 Y114.84
G0 X147.16 Y117.92
G0 X150.29 Y121.77
G0 X152.96 Y126.27
G0 X155.32 Y131.25
G0 X157.50 Y136.48
G0 X159.69 Y141.71
G0 X162.04 Y146.69
G0 X164.72 Y151.19
G0 X167.84 Y155.04
G0 X171.49 Y158.12
G0 X175.69 Y160.39
G0 X180.42 Y161.89
G0 X185.59 Y162.74
G0 X191.08 Y163.11
G0 X196.75 Y163.24
G0 X202.41 Y163.36
G0 X207.91 Y163.73
G0 X213.08 Y164.58
G0 X217.80 Y166.08
G0 X222.01 Y168.35
G0 X225.65 Y171.43
G0 X228.78 Y175.28
G0 X231.46 Y179.79
G0 X233.81 Y184.77
G0 X236.00 Y190.00
G0 X236.00 Y190.00
G0 X234.61 Y184.50
G0 X233.03 Y179.22
G0 X231.05 Y174.37
G0 X228.54 Y170.10
G0 X225.39 Y166.51
G0 X221.57 Y163.64
G0 X217.12 Y161.45
G0 X212.14 Y159.84
G0 X206.76 Y158.65
G0 X201.18 Y157.69
G0 X195.59 Y156.72
G0 X190.21 Y155.53
G0 X185.23 Y153.92
G0 X180.78 Y151.74
G0 X176.96 Y148.86
G0 X173.81 Y145.27
G0 X171.30 Y141.00
G0 X169.32 Y136.15
G0 X167.74 Y130.87
G0 X166.36 Y125.38
G0 X164.97 Y119.88
G0 X163.39 Y114.61
G0 X161.41 Y109.76
G0 X158.90 Y105.48
G0 X155.75 Y101.89
G0 X151.93 Y99.02
G0 X147.48 Y96.83
G0 X142.50 Y95.22
G0 X137.12 Y94.04
G0 X131.54 Y93.07
G0 X125.95 Y92.10
G0 X120.57 Y90.92
G0 X115.59 Y89.31
G0 X111.14 Y87.12
G0 X107.32 Y84.25
G0 X104.17 Y80.66
G0 X101.66 Y76.39
G0 X99.68 Y71.53
G0 X98.10 Y66.26
G0 X96.72 Y60.76
G0 X117.53 Y41.45
G0 X118.08 Y47.09
G0 X118.86 Y52.54
G0 X120.09 Y57.63
G0 X121.94 Y62.23
G0 X124.52 Y66.25
G0 X127.87 Y69.66
G0 X131.94 Y72.49
G0 X136.63 Y74.82
G0 X141.77 Y76.80
G0 X147.15 Y78.58
G0 X152.53 Y80.37
G0 X157.67 Y82.35
G0 X162.36 Y84.68
G0 X166.43 Y87.51
G0 X169.77 Y90.92
G0 X172.35 Y94.94
G0 X174.20 Y99.54
G0 X175.44 Y104.63
G0 X176.22 Y110.08
G0 X176.76 Y115.72
G0 X177.31 Y121.36
G0 X178.09 Y126.81
G0 X179.32 Y131.91
G0 X181.17 Y136.51
G0 X183.75 Y140.52
G0 X187.10 Y143.93
G0 X191.17 Y146.76
G0 X195.86 Y149.10
G0 X201.00 Y151.07
G0 X206.38 Y152.86
G0 X211.76 Y154.65
G0 X216.90 Y156.62
G0 X221.59 Y158.95
G0 X225.66 Y161.78
G0 X229.01 Y165.19
G0 X231.58 Y169.21
G0 X233.44 Y173.81
G0 X234.67 Y178.90
G0 X235.45 Y184.35
G0 X236.00 Y190.00
G0 X236.00 Y190.00
G0 X236.30 Y184.34
G0 X236.34 Y178.83
G0 X235.88 Y173.61
G0 X234.73 Y168.79
G0 X232.78 Y164.43
G0 X229.98 Y160.56
G0 X226.38 Y157.15
G0 X222.09 Y154.15
G0 X217.30 Y151.43
G0 X212.25 Y148.86
G0 X207.19 Y146.29
G0 X202.40 Y143.57
G0 X198.11 Y140.56
G0 X194.51 Y137.16
G0 X191.71 Y133.29
G0 X189.76 Y128.93
G0 X188.61 Y124.11
G0 X188.15 Y118.89
G0 X188.19 Y113.38
G0 X188.50 Y107.72
G0 X188.80 Y102.06
G0 X188.84 Y96.56
G0 X188.38 Y91.34
G0 X187.23 Y86.51
G0 X185.28 Y82.15
G0 X182.48 Y78.29
G0 X178.88 Y74.88
G0 X174.59 Y71.87
G0 X169.80 Y69.15
G0 X164.75 Y66.59
G0 X159.69 Y64.02
G0 X154.90 Y61.30
G0 X150.61 Y58.29
G0 X147.01 Y54.89
G0 X144.21 Y51.02
G0 X142.26 Y46.66
G0 X141.11 Y41.84
G0 X140.65 Y36.62
G0 X140.69 Y31.11
G0 X141.00 Y25.45
G0 X166.58 Y13.13
G0 X165.44 Y18.68
G0 X164.58 Y24.12
G0 X164.26 Y29.35
G0 X164.67 Y34.29
G0 X165.95 Y38.89
G0 X168.14 Y43.13
G0 X171.20 Y47.04
G0 X174.99 Y50.65
G0 X179.32 Y54.05
G0 X183.93 Y57.35
G0 X188.55 Y60.64
G0 X192.88 Y64.04
G0 X196.67 Y67.65
G0 X199.73 Y71.56
G0 X201.92 Y75.80
G0 X203.20 Y80.40
G0 X203.61 Y85.34
G0 X203.29 Y90.57
G0 X202.43 Y96.01
G0 X201.29 Y101.56
G0 X200.15 Y107.11
G0 X199.29 Y112.55
G0 X198.96 Y117.78
G0 X199.38 Y122.72
G0 X200.66 Y127.32
G0 X202.85 Y131.57
G0 X205.90 Y135.47
G0 X209.70 Y139.08
G0 X214.03 Y142.49
G0 X218.64 Y145.78
G0 X223.25 Y149.07
G0 X227.58 Y152.47
G0 X231.38 Y156.09
G0 X234.44 Y159.99
G0 X236.63 Y164.23
G0 X237.91 Y168.83
G0 X238.32 Y173.77
G0 X238.00 Y179.00
G0 X237.14 Y184.44
G0 X236.00 Y190.00
G0 X236.00 Y190.00
G0 X237.95 Y184.68
G0 X239.61 Y179.43
G0 X240.71 Y174.30
G0 X241.04 Y169.36
G0 X240.46 Y164.62
G0 X238.93 Y160.09
G0 X236.48 Y155.78
G0 X233.27 Y151.64
G0 X229.49 Y147.63
G0 X225.43 Y143.69
G0 X221.36 Y139.74
G0 X217.58 Y135.73
G0 X214.37 Y131.59
G0 X211.93 Y127.28
G0 X210.39 Y122.76
G0 X209.81 Y118.02
G0 X210.14 Y113.07
G0 X211.24 Y107.95
G0 X212.90 Y102.70
G0 X214.86 Y97.38
G0 X216.81 Y92.06
G0 X218.47 Y86.81
G0 X219.57 Y81.68
G0 X219.90 Y76.74
G0 X219.32 Y72.00
G0 X217.79 Y67.48
G0 X215.34 Y63.16
G0 X212.13 Y59.02
G0 X208.36 Y55.01
G0 X204.29 Y51.07
G0 X200.22 Y47.12
G0 X196.44 Y43.11
G0 X193.23 Y38.98
G0 X190.79 Y34.66
G0 X189.25 Y30.14
G0 X188.67 Y25.40
G0 X189.00 Y20.45
G0 X190.10 Y15.33
G0 X191.76 Y10.08
G0 X193.72 Y4.76
G0 X221.80 Y0.53
G0 X219.07 Y5.49
G0 X216.64 Y10.44
G0 X214.79 Y15.34
G0 X213.73 Y20.18
G0 X213.60 Y24.96
G0 X214.44 Y29.66
G0 X216.21 Y34.29
G0 X218.77 Y38.86
G0 X221.91 Y43.39
G0 X225.35 Y47.89
G0 X228.78 Y52.40
G0 X231.92 Y56.93
G0 X234.48 Y61.50
G0 X236.25 Y66.13
G0 X237.09 Y70.83
G0 X236.96 Y75.60
G0 X235.90 Y80.45
G0 X234.05 Y85.35
G0 X231.62 Y90.29
G0 X228.90 Y95.26
G0 X226.17 Y100.23
G0 X223.74 Y105.17
G0 X221.89 Y110.08
G0 X220.83 Y114.92
G0 X220.70 Y119.69
G0 X221.54 Y124.39
G0 X223.31 Y129.02
G0 X225.87 Y133.59
G0 X229.01 Y138.12
G0 X232.45 Y142.63
G0 X235.88 Y147.13
G0 X239.02 Y151.66
G0 X241.58 Y156.23
G0 X243.35 Y160.86
G0 X244.19 Y165.56
G0 X244.06 Y170.34
G0 X243.00 Y175.18
G0 X241.15 Y180.08
G0 X238.72 Y185.03
G0 X236.00 Y190.00
G0 X236.00 Y190.00
G0 X239.43 Y185.49
G0 X242.57 Y180.96
G0 X245.13 Y176.39
G0 X246.90 Y171.76
G0 X247.74 Y167.06
G0 X247.61 Y162.29
G0 X246.55 Y157.44
G0 X244.70 Y152.54
G0 X242.27 Y147.60
G0 X239.54 Y142.63
G0 X236.82 Y137.66
G0 X234.39 Y132.72
G0 X232.54 Y127.81
G0 X231.48 Y122.97
G0 X231.35 Y118.20
G0 X232.19 Y113.50
G0 X233.96 Y108.87
G0 X236.52 Y104.29
G0 X239.66 Y99.77
G0 X243.09 Y95.26
G0 X246.53 Y90.75
G0 X249.67 Y86.23
G0 X252.23 Y81.66
G0 X254.00 Y77.02
G0 X254.84 Y72.32
G0 X254.71 Y67.55
G0 X253.65 Y62.71
G0 X251.80 Y57.81
G0 X249.37 Y52.86
G0 X246.64 Y47.89
G0 X243.92 Y42.93
G0 X241.49 Y37.98
G0 X239.64 Y33.08
G0 X238.58 Y28.24
G0 X238.45 Y23.46
G0 X239.29 Y18.76
G0 X241.06 Y14.13
G0 X243.62 Y9.56
G0 X246.76 Y5.03
G0 X250.19 Y0.53
G0 X278.27 Y4.76
G0 X274.20 Y8.70
G0 X270.43 Y12.71
G0 X267.22 Y16.85
G0 X264.77 Y21.17
G0 X263.24 Y25.69
G0 X262.66 Y30.43
G0 X262.99 Y35.37
G0 X264.09 Y40.50
G0 X265.75 Y45.75
G0 X267.70 Y51.07
G0 X269.66 Y56.39
G0 X271.32 Y61.64
G0 X272.42 Y66.76
G0 X272.75 Y71.71
G0 X272.17 Y76.45
G0 X270.63 Y80.97
G0 X268.19 Y85.28
G0 X264.98 Y89.42
G0 X261.20 Y93.43
G0 X257.13 Y97.38
G0 X253.06 Y101.32
G0 X249.29 Y105.33
G0 X246.08 Y109.47
G0 X243.63 Y113.78
G0 X242.10 Y118.31
G0 X241.52 Y123.05
G0 X241.85 Y127.99
G0 X242.95 Y133.12
G0 X244.61 Y138.37
G0 X246.56 Y143.69
G0 X248.52 Y149.00
G0 X250.18 Y154.26
G0 X251.28 Y159.38
G0 X251.61 Y164.33
G0 X251.03 Y169.07
G0 X249.50 Y173.59
G0 X247.05 Y177.90
G0 X243.84 Y182.04
G0 X240.06 Y186.05
G0 X236.00 Y190.00
G0 X236.00 Y190.00
G0 X240.61 Y186.70
G0 X244.94 Y183.30
G0 X248.73 Y179.69
G0 X251.79 Y175.78
G0 X253.98 Y171.54
G0 X255.26 Y166.94
G0 X255.67 Y162.00
G0 X255.35 Y156.77
G0 X254.49 Y151.33
G0 X253.35 Y145.78
G0 X252.21 Y140.23
G0 X251.35 Y134.79
G0 X251.02 Y129.56
G0 X251.44 Y124.62
G0 X252.72 Y120.02
G0 X254.91 Y115.77
G0 X257.97 Y111.87
G0 X261.76 Y108.26
G0 X266.09 Y104.85
G0 X270.70 Y101.56
G0 X275.31 Y98.27
G0 X279.64 Y94.87
G0 X283.44 Y91.25
G0 X286.50 Y87.35
G0 X288.69 Y83.11
G0 X289.97 Y78.51
G0 X290.38 Y73.57
G0 X290.06 Y68.34
G0 X289.20 Y62.90
G0 X288.06 Y57.35
G0 X286.91 Y51.79
G0 X286.06 Y46.35
G0 X285.73 Y41.12
G0 X286.14 Y36.18
G0 X287.42 Y31.58
G0 X289.62 Y27.34
G0 X292.67 Y23.44
G0 X296.47 Y19.82
G0 X300.80 Y16.42
G0 X305.41 Y13.13
G0 X331.00 Y25.45
G0 X325.94 Y28.02
G0 X321.15 Y30.74
G0 X316.86 Y33.75
G0 X313.26 Y37.15
G0 X310.46 Y41.02
G0 X308.51 Y45.38
G0 X307.36 Y50.20
G0 X306.90 Y55.42
G0 X306.94 Y60.93
G0 X307.25 Y66.59
G0 X307.55 Y72.25
G0 X307.59 Y77.75
G0 X307.13 Y82.97
G0 X305.98 Y87.80
G0 X304.03 Y92.15
G0 X301.23 Y96.02
G0 X297.63 Y99.43
G0 X293.34 Y102.43
G0 X288.55 Y105.15
G0 X283.50 Y107.72
G0 X278.44 Y110.29
G0 X273.65 Y113.01
G0 X269.36 Y116.02
G0 X265.76 Y119.42
G0 X262.96 Y123.29
G0 X261.01 Y127.65
G0 X259.86 Y132.47
G0 X259.40 Y137.69
G0 X259.44 Y143.20
G0 X259.75 Y148.86
G0 X260.05 Y154.52
G0 X260.09 Y160.02
G0 X259.63 Y165.24
G0 X258.48 Y170.07
G0 X256.53 Y174.43
G0 X253.73 Y178.30
G0 X250.13 Y181.70
G0 X245.84 Y184.71
G0 X241.05 Y187.43
G0 X236.00 Y190.00
G0 X236.00 Y190.00
G0 X241.37 Y188.21
G0 X246.51 Y186.23
G0 X251.20 Y183.90
G0 X255.28 Y181.07
G0 X258.62 Y177.66
G0 X261.20 Y173.64
G0 X263.05 Y169.04
G0 X264.28 Y163.95
G0 X265.07 Y158.50
G0 X265.61 Y152.86
G0 X266.16 Y147.22
G0 X266.94 Y141.77
G0 X268.17 Y136.67
G0 X270.02 Y132.07
G0 X272.60 Y128.05
G0 X275.94 Y124.65
G0 X280.02 Y121.82
G0 X284.71 Y119.48
G0 X289.85 Y117.51
G0 X295.23 Y115.72
G0 X300.60 Y113.93
G0 X305.75 Y111.96
G0 X310.44 Y109.62
G0 X314.51 Y106.80
G0 X317.85 Y103.39
G0 X320.43 Y99.37
G0 X322.28 Y94.77
G0 X323.51 Y89.68
G0 X324.30 Y84.22
G0 X324.84 Y78.58
G0 X325.39 Y72.94
G0 X326.17 Y67.49
G0 X327.40 Y62.40
G0 X329.25 Y57.80
G0 X331.83 Y53.78
G0 X335.18 Y50.37
G0 X339.25 Y47.54
G0 X343.94 Y45.21
G0 X349.08 Y43.23
G0 X354.46 Y41.45
G0 X375.27 Y60.76
G0 X369.69 Y61.73
G0 X364.31 Y62.92
G0 X359.33 Y64.52
G0 X354.88 Y66.71
G0 X351.06 Y69.59
G0 X347.91 Y73.18
G0 X345.40 Y77.45
G0 X343.42 Y82.30
G0 X341.84 Y87.57
G0 X340.45 Y93.07
G0 X339.07 Y98.57
G0 X337.49 Y103.84
G0 X335.51 Y108.69
G0 X333.00 Y112.97
G0 X329.85 Y116.56
G0 X326.03 Y119.43
G0 X321.58 Y121.62
G0 X316.60 Y123.23
G0 X311.22 Y124.41
G0 X305.63 Y125.38
G0 X300.05 Y126.34
G0 X294.67 Y127.53
G0 X289.69 Y129.14
G0 X285.24 Y131.33
G0 X281.42 Y134.20
G0 X278.27 Y137.79
G0 X275.76 Y142.06
G0 X273.78 Y146.92
G0 X272.20 Y152.19
G0 X270.81 Y157.69
G0 X269.43 Y163.18
G0 X267.85 Y168.46
G0 X265.87 Y173.31
G0 X263.36 Y177.58
G0 X260.21 Y181.17
G0 X256.39 Y184.04
G0 X251.94 Y186.23
G0 X246.96 Y187.84
G0 X241.58 Y189.03
G0 X236.00 Y190.00
G0 X236.00 Y190.00
G0 X241.66 Y189.87
G0 X247.16 Y189.50
G0 X252.33 Y188.65
G0 X257.05 Y187.15
G0 X261.25 Y184.88
G0 X264.90 Y181.80
G0 X268.02 Y177.95
G0 X270.70 Y173.45
G0 X273.06 Y168.47
G0 X275.24 Y163.24
G0 X277.43 Y158.01
G0 X279.78 Y153.03
G0 X282.46 Y148.53
G0 X285.58 Y144.68
G0 X289.23 Y141.60
G0 X293.43 Y139.32
G0 X298.16 Y137.82
G0 X303.33 Y136.97
G0 X308.82 Y136.60
G0 X314.49 Y136.48
G0 X320.15 Y136.36
G0 X325.65 Y135.98
G0 X330.82 Y135.14
G0 X335.54 Y133.63
G0 X339.74 Y131.36
G0 X343.39 Y128.28
G0 X346.52 Y124.43
G0 X349.20 Y119.93
G0 X351.55 Y114.95
G0 X353.73 Y109.72
G0 X355.92 Y104.49
G0 X358.27 Y99.51
G0 X360.95 Y95.01
G0 X364.08 Y91.16
G0 X367.72 Y88.08
G0 X371.92 Y85.81
G0 X376.65 Y84.31
G0 X381.82 Y83.46
G0 X387.31 Y83.09
G0 X392.98 Y82.96
G0 X407.18 Y107.56
G0 X401.56 Y106.83
G0 X396.07 Y106.38
G0 X390.83 Y106.45
G0 X385.93 Y107.23
G0 X381.44 Y108.85
G0 X377.37 Y111.35
G0 X373.71 Y114.69
G0 X370.39 Y118.75
G0 X367.32 Y123.32
G0 X364.38 Y128.17
G0 X361.44 Y133.01
G0 X358.37 Y137.58
G0 X355.05 Y141.64
G0 X351.39 Y144.98
G0 X347.32 Y147.48
G0 X342.83 Y149.10
G0 X337.94 Y149.88
G0 X332.70 Y149.95
G0 X327.21 Y149.50
G0 X321.59 Y148.78
G0 X315.97 Y148.05
G0 X310.48 Y147.60
G0 X305.24 Y147.67
G0 X300.34 Y148.45
G0 X295.85 Y150.07
G0 X291.78 Y152.57
G0 X288.12 Y155.91
G0 X284.80 Y159.97
G0 X281.73 Y164.54
G0 X278.79 Y169.39
G0 X275.85 Y174.23
G0 X272.78 Y178.80
G0 X269.46 Y182.86
G0 X265.80 Y186.20
G0 X261.73 Y188.70
G0 X257.24 Y190.32
G0 X252.34 Y191.10
G0 X247.10 Y191.17
G0 X241.62 Y190.72
G0 X236.00 Y190.00
G0 X236.00 Y190.00
G0 X241.44 Y191.55
G0 X246.81 Y192.81
G0 X252.00 Y193.53
G0 X256.95 Y193.48
G0 X261.64 Y192.55
G0 X266.03 Y190.68
G0 X270.15 Y187.93
G0 X274.04 Y184.41
G0 X277.76 Y180.35
G0 X281.38 Y175.99
G0 X285.01 Y171.64
G0 X288.73 Y167.58
G0 X292.62 Y164.06
G0 X296.74 Y161.31
G0 X301.13 Y159.44
G0 X305.82 Y158.51
G0 X310.77 Y158.46
G0 X315.96 Y159.18
G0 X321.32 Y160.44
G0 X326.77 Y161.99
G0 X332.22 Y163.55
G0 X337.58 Y164.81
G0 X342.78 Y165.52
G0 X347.73 Y165.48
G0 X352.42 Y164.55
G0 X356.81 Y162.68
G0 X360.93 Y159.92
G0 X364.82 Y156.41
G0 X368.54 Y152.35
G0 X372.16 Y147.99
G0 X375.79 Y143.64
G0 X379.51 Y139.58
G0 X383.40 Y136.06
G0 X387.52 Y133.30
G0 X391.91 Y131.44
G0 X396.59 Y130.50
G0 X401.55 Y130.46
G0 X406.74 Y131.17
G0 X412.10 Y132.44
G0 X417.55 Y133.99
G0 X423.87 Y161.68
G0 X418.72 Y159.33
G0 X413.60 Y157.28
G0 X408.58 Y155.80
G0 X403.67 Y155.10
G0 X398.90 Y155.33
G0 X394.27 Y156.52
G0 X389.79 Y158.63
G0 X385.42 Y161.53
G0 X381.14 Y164.99
G0 X376.90 Y168.76
G0 X372.67 Y172.52
G0 X368.39 Y175.98
G0 X364.02 Y178.88
G0 X359.53 Y180.99
G0 X354.91 Y182.18
G0 X350.14 Y182.41
G0 X345.23 Y181.71
G0 X340.20 Y180.23
G0 X335.09 Y178.18
G0 X329.93 Y175.84
G0 X324.78 Y173.49
G0 X319.66 Y171.44
G0 X314.64 Y169.96
G0 X309.73 Y169.26
G0 X304.96 Y169.49
G0 X300.33 Y170.68
G0 X295.85 Y172.79
G0 X291.48 Y175.69
G0 X287.20 Y179.15
G0 X282.96 Y182.92
G0 X278.73 Y186.68
G0 X274.45 Y190.14
G0 X270.08 Y193.04
G0 X265.59 Y195.15
G0 X260.97 Y196.34
G0 X256.20 Y196.57
G0 X251.29 Y195.87
G0 X246.26 Y194.39
G0 X241.15 Y192.34
G0 X236.00 Y190.00
G0 X236.00 Y190.00
G0 X240.75 Y193.09
G0 X245.50 Y195.87
G0 X250.25 Y198.09
G0 X255.00 Y199.51
G0 X259.75 Y200.00
G0 X264.50 Y199.51
G0 X269.25 Y198.09
G0 X274.00 Y195.87
G0 X278.75 Y193.09
G0 X283.50 Y190.00
G0 X288.25 Y186.90
G0 X293.00 Y184.12
G0 X297.75 Y181.90
G0 X302.50 Y180.48
G0 X307.25 Y179.99
G0 X312.00 Y180.48
G0 X316.75 Y181.90
G0 X321.50 Y184.12
G0 X326.25 Y186.90
G0 X331.00 Y189.99
G0 X335.75 Y193.09
G0 X340.50 Y195.87
G0 X345.25 Y198.09
G0 X350.00 Y199.51
G0 X354.75 Y199.99
G0 X359.50 Y199.51
G0 X364.25 Y198.09
G0 X369.00 Y195.87
G0 X373.75 Y193.09
G0 X378.50 Y189.99
G0 X383.25 Y186.90
G0 X388.00 Y184.12
G0 X392.75 Y181.90
G0 X397.50 Y180.48
G0 X402.25 Y179.99
G0 X407.00 Y180.48
G0 X411.75 Y181.90
G0 X416.50 Y184.12
G0 X421.25 Y186.90
G0 X426.00 Y189.99

; Custom G-code to execute after the end of the sketch

