; Created using https://markroland.github.io/sand-table-pattern-maker/
;
; 5/22/2023 19:14:27
;
; Machine Specifications:
;
; Units: mm
;
; Min X: 0
; Max X: 472
; Min Y: 0
; Max Y: 380
; Motor Speed (mm/min): 4000
;
; Pattern Specifications:
;
; Name: Circle
;
; Parameters:
; - radius: [object Object]
; - angle: [object Object]
; - reverse: [object Object]
;
; URL: https://markroland.github.io/sand-table-pattern-maker/?pattern=star
;
; Pattern Distance (mm): 14,253.8
; Pattern Draw Time (minutes): 3.5


; Custom G-code to execute before the start of the sketch

G0 X236.00 Y190.00
G0 X235.54 Y189.88
G0 X235.16 Y189.30
G0 X235.40 Y188.73
G0 X236.00 Y187.82
G0 X236.99 Y187.89
G0 X238.51 Y187.93
G0 X239.16 Y189.19
G0 X240.26 Y190.83
G0 X239.38 Y192.48
G0 X238.58 Y194.77
G0 X236.29 Y195.12
G0 X233.56 Y196.04
G0 X231.54 Y194.12
G0 X228.75 Y192.29
G0 X229.05 Y189.06
G0 X228.70 Y185.28
G0 X231.80 Y183.26
G0 X234.86 Y180.29
G0 X238.82 Y181.59
G0 X243.51 Y182.16
G0 X245.15 Y186.49
G0 X247.90 Y190.89
G0 X245.34 Y195.28
G0 X243.52 Y200.63
G0 X238.03 Y201.49
G0 X232.29 Y203.62
G0 X227.82 Y199.59
G0 X222.15 Y196.26
G0 X222.46 Y189.78
G0 X221.37 Y182.82
G0 X226.96 Y178.69
G0 X231.97 Y173.10
G0 X239.15 Y174.92
G0 X247.12 Y175.26
G0 X250.46 Y182.39
G0 X255.52 Y189.15
G0 X251.93 Y196.67
G0 X249.81 Y205.32
G0 X241.26 Y207.43
G0 X232.81 Y211.47
G0 X225.38 Y205.93
G0 X216.47 Y201.77
G0 X216.03 Y192.05
G0 X213.46 Y182.08
G0 X221.03 Y175.25
G0 X227.38 Y166.56
G0 X237.93 Y168.14
G0 X249.13 Y167.49
G0 X254.85 Y177.04
G0 X262.78 Y185.63
G0 X258.89 Y196.55
G0 X257.23 Y208.59
G0 X245.89 Y212.68
G0 X235.14 Y219.30
G0 X224.38 Y212.89
G0 X212.00 Y208.66
G0 X210.03 Y195.82
G0 X205.27 Y183.13
G0 X214.24 Y173.10
G0 X221.23 Y160.96
G0 X235.14 Y161.53
G0 X249.42 Y159.13
G0 X258.11 Y170.60
G0 X269.39 Y180.40
G0 X265.95 Y194.85
G0 X265.54 Y210.26
G0 X251.79 Y216.99
G0 X239.28 Y226.76
G0 X224.91 Y220.24
G0 X208.96 Y216.70
G0 X204.73 Y201.01
G0 X197.11 Y186.03
G0 X206.80 Y172.42
G0 X213.70 Y156.58
G0 X230.83 Y155.36
G0 X247.88 Y150.49
G0 X260.04 Y163.27
G0 X275.03 Y173.59
G0 X272.84 Y191.56
G0 X274.46 Y210.16
G0 X258.81 Y220.16
G0 X245.15 Y233.56
G0 X227.04 Y227.70
G0 X207.55 Y225.64
G0 X200.38 Y207.50
G0 X189.32 Y190.77
G0 X198.97 Y173.29
G0 X204.98 Y153.66
G0 X225.06 Y149.91
G0 X244.46 Y141.88
G0 X260.49 Y155.28
G0 X279.44 Y165.36
G0 X279.29 Y186.72
G0 X283.67 Y208.20
G0 X266.73 Y221.97
G0 X252.65 Y239.38
G0 X230.80 Y234.98
G0 X207.94 Y235.20
G0 X197.21 Y215.13
G0 X182.20 Y197.28
G0 X191.03 Y175.80
G0 X195.33 Y152.41
G0 X217.96 Y145.42
G0 X239.16 Y133.63
G0 X259.34 Y146.89
G0 X282.35 Y155.91
G0 X285.01 Y180.38
G0 X292.85 Y204.31
G0 X275.34 Y222.27
G0 X261.61 Y243.93
G0 X236.15 Y241.82
G0 X210.25 Y245.07
G0 X195.41 Y223.70
G0 X176.08 Y205.47
G0 X183.25 Y179.98
G0 X185.04 Y153.00
G0 X209.69 Y142.12
G0 X232.02 Y126.06
G0 X256.51 Y138.37
G0 X283.56 Y145.49
G0 X289.76 Y172.66
G0 X301.68 Y198.48
G0 X284.37 Y220.93
G0 X271.84 Y246.97
G0 X243.05 Y247.92
G0 X214.53 Y254.94
G0 X195.17 Y232.99
G0 X171.23 Y215.18
G0 X175.92 Y185.81
G0 X174.40 Y155.55
G0 X200.43 Y140.24
G0 X223.15 Y119.50
G0 X251.97 Y129.99
G0 X282.88 Y134.38
G0 X293.28 Y163.72
G0 X309.82 Y190.76
G0 X293.57 Y217.86
G0 X283.08 Y248.26
G0 X251.38 Y253.04
G0 X220.82 Y264.46
G0 X196.61 Y242.74
G0 X167.94 Y226.21
G0 X169.31 Y193.24
G0 X163.74 Y160.15
G0 X190.41 Y139.95
G0 X212.70 Y114.24
G0 X245.71 Y122.06
G0 X280.18 Y122.90
G0 X295.37 Y153.75
G0 X316.95 Y181.24
G0 X302.63 Y213.02
G0 X295.06 Y247.61
G0 X260.99 Y256.91
G0 X229.07 Y273.31
G0 X199.83 Y252.67
G0 X166.44 Y238.31
G0 X163.72 Y202.16
G0 X153.41 Y166.82
G0 X179.89 Y141.39
G0 X200.86 Y110.56
G0 X237.79 Y114.85
G0 X275.37 Y111.36
G0 X295.82 Y142.97
G0 X322.76 Y170.06
G0 X311.26 Y206.39
G0 X307.47 Y244.88
G0 X271.69 Y259.31
G0 X239.20 Y281.14
G0 X204.89 Y262.51
G0 X166.94 Y251.21
G0 X159.38 Y212.43
G0 X143.75 Y175.54
G0 X169.15 Y144.67
G0 X187.87 Y108.72
G0 X228.31 Y108.66
G0 X268.41 Y100.12
G0 X294.49 Y131.63
G0 X326.96 Y157.41
G0 X319.17 Y198.04
G0 X319.97 Y239.96
G0 X283.27 Y260.04
G0 X251.08 Y287.64
G0 X211.81 Y271.93
G0 X169.58 Y264.60
G0 X156.55 Y223.87
G0 X135.09 Y186.23
G0 X158.47 Y149.86
G0 X174.01 Y108.92
G0 X217.40 Y103.74
G0 X259.31 Y89.52
G0 X291.25 Y120.01
G0 X329.29 Y143.53
G0 X326.08 Y188.04
G0 X332.21 Y232.81
G0 X295.46 Y258.93
G0 X264.52 Y292.50
G0 X220.53 Y280.66
G0 X174.48 Y278.14
G0 X155.42 Y236.25
G0 X127.78 Y198.76
G0 X148.16 Y156.98
G0 X159.59 Y111.34
G0 X205.24 Y100.35
G0 X248.14 Y79.92
G0 X286.04 Y108.41
G0 X329.52 Y128.69
G0 X331.69 Y176.52
G0 X343.85 Y223.42
G0 X307.99 Y255.85
G0 X279.29 Y295.45
G0 X230.99 Y288.37
G0 X181.71 Y291.48
G0 X156.19 Y249.32
G0 X122.11 Y212.95
G0 X138.53 Y165.99
G0 X144.95 Y116.10
G0 X192.06 Y98.71
G0 X235.02 Y71.66
G0 X278.81 Y97.15
G0 X327.47 Y113.21
G0 X335.76 Y163.67
G0 X354.51 Y211.85
G0 X320.56 Y250.72
G0 X295.11 Y296.26
G0 X243.06 Y294.80
G0 X191.28 Y304.24
G0 X158.99 Y262.80
G0 X118.39 Y228.58
G0 X129.90 Y176.84
G0 X130.45 Y123.28
G0 X178.09 Y99.01
G0 X220.12 Y65.06
G0 X269.59 Y86.54
G0 X322.99 Y97.43
G0 X338.04 Y149.70
G0 X363.84 Y198.22
G0 X332.85 Y243.49
G0 X311.67 Y294.71
G0 X256.57 Y299.66
G0 X203.14 Y316.07
G0 X163.92 Y276.39
G0 X116.87 Y245.37
G0 X122.55 Y189.40
G0 X116.47 Y132.91
G0 X163.64 Y101.41
G0 X203.67 Y60.42
G0 X258.44 Y76.89
G0 X315.99 Y81.71
G0 X338.33 Y134.85
G0 X371.51 Y182.69
G0 X344.53 Y234.17
G0 X328.63 Y290.65
G0 X271.30 Y302.71
G0 X217.19 Y326.59
G0 X171.04 Y289.76
G0 X117.76 Y263.02
G0 X116.78 Y203.51
G0 X103.38 Y144.95
G0 X149.00 Y106.01
G0 X185.93 Y58.03
G0 X245.46 Y68.51
G0 X306.43 Y66.43
G0 X336.47 Y119.42
G0 X377.20 Y165.47
G0 X355.28 Y222.80
G0 X345.62 Y283.98
G0 X287.02 Y303.73
G0 X233.28 Y335.46
G0 X180.35 Y302.58
G0 X121.24 Y281.17
G0 X112.84 Y218.97
G0 X91.56 Y159.31
G0 X134.51 Y112.90
G0 X167.21 Y58.11
G0 X230.81 Y61.71
G0 X294.34 Y51.99
G0 X332.32 Y103.71
G0 X380.60 Y146.83
G0 X364.78 Y209.49
G0 X362.25 Y274.64
G0 X303.42 Y302.53
G0 X251.19 Y342.32
G0 X191.82 Y314.51
G0 X127.43 Y299.46
G0 X110.97 Y235.51
G0 X81.38 Y175.86
G0 X120.49 Y122.08
G0 X147.86 Y60.86
G0 X214.70 Y56.76
G0 X279.78 Y38.78
G0 X325.80 Y88.06
G0 X381.48 Y127.07
G0 X372.71 Y194.39
G0 X378.11 Y262.63
G0 X320.21 Y298.97
G0 X270.68 Y346.89
G0 X205.36 Y325.22
G0 X136.41 Y317.48
G0 X111.37 Y252.88
G0 X73.20 Y194.38
G0 X107.31 Y133.54
G0 X128.26 Y66.42
G0 X197.36 Y53.92
G0 X262.89 Y27.17
G0 X316.87 Y72.80
G0 X379.63 Y106.54
G0 X378.79 Y177.69
G0 X392.81 Y248.01
G0 X337.04 Y292.95
G0 X291.43 Y348.89
G0 X220.83 Y334.39
G0 X148.19 Y334.83
G0 X114.20 Y270.74
G0 X67.33 Y214.63
G0 X95.30 Y147.20
G0 X108.82 Y74.88
G0 X179.08 Y53.38
G0 X243.86 Y17.55
G0 X305.55 Y58.31
G0 X374.86 Y85.63
G0 X382.75 Y159.62
G0 X405.94 Y230.91
G0 X353.57 Y284.42
G0 X313.10 Y348.08
G0 X238.04 Y341.71
G0 X162.72 Y351.08
G0 X119.58 Y288.76
G0 X64.07 Y236.32
G0 X84.80 Y162.92
G0 X89.94 Y86.26
G0 X160.17 Y55.35
G0 X222.94 Y10.24
G0 X291.90 Y44.93
G0 X367.09 Y64.74
G0 X384.34 Y140.47
G0 X417.12 Y211.49
G0 X369.42 Y273.36
G0 X335.31 Y344.28
G0 X256.76 Y346.89
G0 X179.91 Y365.84
G0 X127.58 Y306.57
G0 X63.67 Y259.08
G0 X76.14 Y180.54
G0 X72.06 Y100.56
G0 X140.97 Y59.95
G0 X200.40 Y5.57
G0 X276.03 Y33.02
G0 X356.26 Y44.30
G0 X383.38 Y120.54
G0 X426.00 Y190.00

; Custom G-code to execute after the end of the sketch

