; Created using https://markroland.github.io/sand-table-pattern-maker/
;
; 5/22/2023 19:12:45
;
; Machine Specifications:
;
; Units: mm
;
; Min X: 0
; Max X: 472
; Min Y: 0
; Max Y: 380
; Motor Speed (mm/min): 4000
;
; Pattern Specifications:
;
; Name: Circle
;
; Parameters:
; - radius: [object Object]
; - angle: [object Object]
; - reverse: [object Object]
;
; URL: https://markroland.github.io/sand-table-pattern-maker/?pattern=spiral
;
; Pattern Distance (mm): 16,709.5
; Pattern Draw Time (minutes): 4.1


; Custom G-code to execute before the start of the sketch

G0 X426.00 Y190.00
G0 X424.92 Y170.83
G0 X421.91 Y151.88
G0 X417.01 Y133.34
G0 X410.27 Y115.40
G0 X401.75 Y98.25
G0 X391.55 Y82.05
G0 X379.78 Y66.97
G0 X366.55 Y53.16
G0 X352.01 Y40.77
G0 X336.29 Y29.91
G0 X319.58 Y20.70
G0 X302.02 Y13.23
G0 X283.82 Y7.58
G0 X265.14 Y3.79
G0 X246.19 Y1.91
G0 X227.16 Y1.95
G0 X208.24 Y3.91
G0 X189.63 Y7.77
G0 X171.51 Y13.48
G0 X154.07 Y20.99
G0 X137.49 Y30.21
G0 X121.93 Y41.06
G0 X107.55 Y53.41
G0 X94.50 Y67.15
G0 X82.92 Y82.12
G0 X72.90 Y98.18
G0 X64.57 Y115.15
G0 X57.99 Y132.87
G0 X53.24 Y151.15
G0 X50.37 Y169.81
G0 X49.38 Y188.65
G0 X50.31 Y207.48
G0 X53.13 Y226.11
G0 X57.81 Y244.35
G0 X64.31 Y262.02
G0 X72.55 Y278.93
G0 X82.46 Y294.91
G0 X93.91 Y309.80
G0 X106.81 Y323.45
G0 X121.01 Y335.72
G0 X136.36 Y346.49
G0 X152.71 Y355.65
G0 X169.90 Y363.11
G0 X187.74 Y368.79
G0 X206.05 Y372.64
G0 X224.65 Y374.62
G0 X243.34 Y374.72
G0 X261.93 Y372.92
G0 X280.23 Y369.27
G0 X298.07 Y363.78
G0 X315.24 Y356.53
G0 X331.59 Y347.59
G0 X346.95 Y337.05
G0 X361.15 Y325.02
G0 X374.06 Y311.62
G0 X385.54 Y297.00
G0 X395.48 Y281.31
G0 X403.78 Y264.70
G0 X410.36 Y247.35
G0 X415.15 Y229.43
G0 X418.11 Y211.13
G0 X419.21 Y192.64
G0 X418.43 Y174.14
G0 X415.79 Y155.83
G0 X411.32 Y137.89
G0 X405.06 Y120.50
G0 X397.09 Y103.84
G0 X387.48 Y88.08
G0 X376.33 Y73.38
G0 X363.77 Y59.89
G0 X349.92 Y47.74
G0 X334.92 Y37.06
G0 X318.93 Y27.96
G0 X302.11 Y20.51
G0 X284.63 Y14.81
G0 X266.69 Y10.90
G0 X248.44 Y8.83
G0 X230.10 Y8.61
G0 X211.83 Y10.24
G0 X193.84 Y13.70
G0 X176.30 Y18.96
G0 X159.38 Y25.96
G0 X143.27 Y34.62
G0 X128.13 Y44.86
G0 X114.10 Y56.57
G0 X101.34 Y69.63
G0 X89.97 Y83.90
G0 X80.10 Y99.24
G0 X71.83 Y115.48
G0 X65.25 Y132.47
G0 X60.43 Y150.02
G0 X57.40 Y167.96
G0 X56.19 Y186.10
G0 X56.83 Y204.26
G0 X59.29 Y222.25
G0 X63.55 Y239.89
G0 X69.57 Y257.00
G0 X77.28 Y273.41
G0 X86.60 Y288.94
G0 X97.44 Y303.45
G0 X109.67 Y316.78
G0 X123.18 Y328.79
G0 X137.83 Y339.38
G0 X153.46 Y348.43
G0 X169.91 Y355.85
G0 X187.02 Y361.57
G0 X204.61 Y365.53
G0 X222.49 Y367.69
G0 X240.50 Y368.04
G0 X258.43 Y366.56
G0 X276.11 Y363.29
G0 X293.37 Y358.25
G0 X310.01 Y351.50
G0 X325.88 Y343.11
G0 X340.81 Y333.17
G0 X354.65 Y321.78
G0 X367.27 Y309.06
G0 X378.53 Y295.13
G0 X388.32 Y280.15
G0 X396.54 Y264.27
G0 X403.12 Y247.65
G0 X407.98 Y230.46
G0 X411.07 Y212.88
G0 X412.38 Y195.09
G0 X411.89 Y177.27
G0 X409.60 Y159.60
G0 X405.54 Y142.26
G0 X399.75 Y125.43
G0 X392.30 Y109.28
G0 X383.26 Y93.98
G0 X372.74 Y79.67
G0 X360.82 Y66.51
G0 X347.65 Y54.63
G0 X333.36 Y44.14
G0 X318.09 Y35.15
G0 X302.00 Y27.76
G0 X285.25 Y22.03
G0 X268.03 Y18.02
G0 X250.50 Y15.78
G0 X232.84 Y15.31
G0 X215.24 Y16.63
G0 X197.87 Y19.72
G0 X180.91 Y24.54
G0 X164.54 Y31.04
G0 X148.91 Y39.16
G0 X134.20 Y48.81
G0 X120.54 Y59.89
G0 X108.08 Y72.28
G0 X96.93 Y85.86
G0 X87.23 Y100.48
G0 X79.05 Y116.00
G0 X72.49 Y132.26
G0 X67.60 Y149.08
G0 X64.44 Y166.31
G0 X63.03 Y183.75
G0 X63.39 Y201.23
G0 X65.52 Y218.58
G0 X69.38 Y235.61
G0 X74.94 Y252.15
G0 X82.13 Y268.04
G0 X90.89 Y283.12
G0 X101.11 Y297.22
G0 X112.70 Y310.21
G0 X125.54 Y321.96
G0 X139.48 Y332.34
G0 X154.39 Y341.26
G0 X170.12 Y348.63
G0 X186.50 Y354.36
G0 X203.36 Y358.41
G0 X220.54 Y360.73
G0 X237.85 Y361.31
G0 X255.12 Y360.14
G0 X272.17 Y357.24
G0 X288.84 Y352.63
G0 X304.94 Y346.36
G0 X320.32 Y338.51
G0 X334.81 Y329.15
G0 X348.28 Y318.38
G0 X360.59 Y306.32
G0 X371.61 Y293.08
G0 X381.22 Y278.81
G0 X389.35 Y263.65
G0 X395.90 Y247.76
G0 X400.81 Y231.30
G0 X404.03 Y214.44
G0 X405.53 Y197.35
G0 X405.29 Y180.20
G0 X403.33 Y163.18
G0 X399.67 Y146.46
G0 X394.33 Y130.20
G0 X387.39 Y114.57
G0 X378.91 Y99.73
G0 X368.98 Y85.83
G0 X357.71 Y73.02
G0 X345.21 Y61.41
G0 X331.62 Y51.14
G0 X317.06 Y42.29
G0 X301.69 Y34.96
G0 X285.68 Y29.23
G0 X269.17 Y25.14
G0 X252.35 Y22.74
G0 X235.39 Y22.05
G0 X218.45 Y23.08
G0 X201.72 Y25.81
G0 X185.35 Y30.21
G0 X169.53 Y36.24
G0 X154.40 Y43.83
G0 X140.13 Y52.90
G0 X126.85 Y63.36
G0 X114.70 Y75.10
G0 X103.81 Y88.00
G0 X94.29 Y101.92
G0 X86.22 Y116.72
G0 X79.69 Y132.25
G0 X74.76 Y148.35
G0 X71.49 Y164.85
G0 X69.90 Y181.59
G0 X70.01 Y198.39
G0 X71.82 Y215.09
G0 X75.29 Y231.50
G0 X80.41 Y247.47
G0 X87.10 Y262.84
G0 X95.31 Y277.44
G0 X104.94 Y291.12
G0 X115.89 Y303.76
G0 X128.06 Y315.22
G0 X141.31 Y325.39
G0 X155.52 Y334.16
G0 X170.52 Y341.44
G0 X186.18 Y347.17
G0 X202.32 Y351.29
G0 X218.78 Y353.76
G0 X235.40 Y354.55
G0 X252.00 Y353.66
G0 X268.42 Y351.10
G0 X284.48 Y346.90
G0 X300.03 Y341.11
G0 X314.90 Y333.78
G0 X328.95 Y324.99
G0 X342.03 Y314.83
G0 X354.01 Y303.42
G0 X364.77 Y290.86
G0 X374.20 Y277.28
G0 X382.21 Y262.84
G0 X388.71 Y247.67
G0 X393.65 Y231.93
G0 X396.97 Y215.79
G0 X398.64 Y199.40
G0 X398.65 Y182.94
G0 X397.00 Y166.58
G0 X393.71 Y150.47
G0 X388.81 Y134.79
G0 X382.36 Y119.69
G0 X374.42 Y105.34
G0 X365.09 Y91.86
G0 X354.44 Y79.41
G0 X342.60 Y68.10
G0 X329.69 Y58.05
G0 X315.84 Y49.36
G0 X301.19 Y42.12
G0 X285.90 Y36.40
G0 X270.12 Y32.25
G0 X254.01 Y29.72
G0 X237.74 Y28.83
G0 X221.47 Y29.59
G0 X205.38 Y31.98
G0 X189.62 Y35.98
G0 X174.35 Y41.55
G0 X159.73 Y48.63
G0 X145.91 Y57.14
G0 X133.03 Y66.99
G0 X121.22 Y78.09
G0 X110.60 Y90.31
G0 X101.27 Y103.54
G0 X93.33 Y117.63
G0 X86.85 Y132.44
G0 X81.91 Y147.81
G0 X78.55 Y163.60
G0 X76.80 Y179.63
G0 X76.67 Y195.75
G0 X78.18 Y211.79
G0 X81.29 Y227.58
G0 X85.98 Y242.97
G0 X92.19 Y257.79
G0 X99.86 Y271.91
G0 X108.91 Y285.16
G0 X119.24 Y297.43
G0 X130.76 Y308.59
G0 X143.33 Y318.51
G0 X156.83 Y327.12
G0 X171.12 Y334.31
G0 X186.05 Y340.01
G0 X201.47 Y344.18
G0 X217.22 Y346.77
G0 X233.15 Y347.76
G0 X249.08 Y347.13
G0 X264.85 Y344.90
G0 X280.31 Y341.09
G0 X295.29 Y335.75
G0 X309.65 Y328.92
G0 X323.23 Y320.69
G0 X335.91 Y311.13
G0 X347.55 Y300.35
G0 X358.03 Y288.46
G0 X367.26 Y275.57
G0 X375.13 Y261.84
G0 X381.57 Y247.39
G0 X386.51 Y232.37
G0 X389.91 Y216.94
G0 X391.74 Y201.26
G0 X391.97 Y185.49
G0 X390.61 Y169.78
G0 X387.67 Y154.30
G0 X383.19 Y139.21
G0 X377.22 Y124.66
G0 X369.81 Y110.79
G0 X361.04 Y97.76
G0 X351.01 Y85.68
G0 X339.82 Y74.68
G0 X327.59 Y64.88
G0 X314.44 Y56.37
G0 X300.50 Y49.23
G0 X285.93 Y43.54
G0 X270.87 Y39.36
G0 X255.47 Y36.72
G0 X239.90 Y35.64
G0 X224.31 Y36.15
G0 X208.86 Y38.22
G0 X193.70 Y41.84
G0 X179.01 Y46.96
G0 X164.91 Y53.54
G0 X151.56 Y61.51
G0 X139.09 Y70.77
G0 X127.63 Y81.24
G0 X117.29 Y92.80
G0 X108.18 Y105.34
G0 X100.38 Y118.72
G0 X93.98 Y132.82
G0 X89.04 Y147.47
G0 X85.61 Y162.54
G0 X83.71 Y177.87
G0 X83.38 Y193.30
G0 X84.60 Y208.68
G0 X87.36 Y223.84
G0 X91.64 Y238.63
G0 X97.39 Y252.91
G0 X104.54 Y266.52
G0 X113.02 Y279.34
G0 X122.75 Y291.22
G0 X133.62 Y302.05
G0 X145.52 Y311.73
G0 X158.33 Y320.14
G0 X171.91 Y327.22
G0 X186.12 Y332.89
G0 X200.82 Y337.08
G0 X215.86 Y339.77
G0 X231.09 Y340.93
G0 X246.34 Y340.55
G0 X261.47 Y338.63
G0 X276.31 Y335.19
G0 X290.72 Y330.28
G0 X304.55 Y323.94
G0 X317.66 Y316.25
G0 X329.92 Y307.27
G0 X341.20 Y297.12
G0 X351.39 Y285.88
G0 X360.39 Y273.68
G0 X368.11 Y260.65
G0 X374.46 Y246.91
G0 X379.39 Y232.61
G0 X382.86 Y217.90
G0 X384.81 Y202.92
G0 X385.25 Y187.84
G0 X384.16 Y172.80
G0 X381.56 Y157.95
G0 X377.48 Y143.46
G0 X371.96 Y129.46
G0 X365.06 Y116.10
G0 X356.85 Y103.51
G0 X347.43 Y91.83
G0 X336.87 Y81.16
G0 X325.31 Y71.62
G0 X312.85 Y63.30
G0 X299.62 Y56.29
G0 X285.76 Y50.66
G0 X271.42 Y46.45
G0 X256.73 Y43.72
G0 X241.86 Y42.48
G0 X226.94 Y42.75
G0 X212.15 Y44.52
G0 X197.61 Y47.78
G0 X183.49 Y52.48
G0 X169.93 Y58.58
G0 X157.06 Y66.01
G0 X145.02 Y74.70
G0 X133.92 Y84.55
G0 X123.88 Y95.46
G0 X115.00 Y107.32
G0 X107.37 Y120.01
G0 X101.07 Y133.39
G0 X96.15 Y147.33
G0 X92.66 Y161.69
G0 X90.64 Y176.31
G0 X90.11 Y191.05
G0 X91.07 Y205.76
G0 X93.51 Y220.28
G0 X97.40 Y234.47
G0 X102.70 Y248.19
G0 X109.35 Y261.30
G0 X117.28 Y273.65
G0 X126.41 Y285.14
G0 X136.65 Y295.63
G0 X147.89 Y305.03
G0 X160.01 Y313.25
G0 X172.88 Y320.19
G0 X186.38 Y325.79
G0 X200.37 Y330.00
G0 X214.70 Y332.77
G0 X229.23 Y334.08
G0 X243.80 Y333.92
G0 X258.27 Y332.29
G0 X272.49 Y329.21
G0 X286.32 Y324.71
G0 X299.61 Y318.85
G0 X312.23 Y311.68
G0 X324.06 Y303.27
G0 X334.97 Y293.73
G0 X344.85 Y283.14
G0 X353.61 Y271.61
G0 X361.15 Y259.27
G0 X367.40 Y246.24
G0 X372.30 Y232.66
G0 X375.81 Y218.66
G0 X377.88 Y204.39
G0 X378.50 Y189.99
G0 X377.66 Y175.62
G0 X375.38 Y161.42
G0 X371.68 Y147.53
G0 X366.60 Y134.09
G0 X360.19 Y121.25
G0 X352.53 Y109.13
G0 X343.69 Y97.85
G0 X333.76 Y87.53
G0 X322.85 Y78.27
G0 X311.07 Y70.16
G0 X298.55 Y63.30
G0 X285.40 Y57.73
G0 X271.77 Y53.53
G0 X257.80 Y50.72
G0 X243.62 Y49.34
G0 X229.39 Y49.40
G0 X215.25 Y50.89
G0 X201.34 Y53.80
G0 X187.81 Y58.10
G0 X174.79 Y63.73
G0 X162.41 Y70.65
G0 X150.81 Y78.77
G0 X140.09 Y88.02
G0 X130.37 Y98.29
G0 X121.74 Y109.48
G0 X114.30 Y121.48
G0 X108.10 Y134.16
G0 X103.22 Y147.38
G0 X99.71 Y161.03
G0 X97.59 Y174.94
G0 X96.88 Y188.99
G0 X97.60 Y203.03
G0 X99.73 Y216.91
G0 X103.25 Y230.49
G0 X108.11 Y243.64
G0 X114.28 Y256.22
G0 X121.67 Y268.11
G0 X130.23 Y279.18
G0 X139.84 Y289.32
G0 X150.43 Y298.43
G0 X161.87 Y306.42
G0 X174.05 Y313.21
G0 X186.84 Y318.74
G0 X200.12 Y322.93
G0 X213.74 Y325.77
G0 X227.56 Y327.21
G0 X241.45 Y327.25
G0 X255.26 Y325.89
G0 X268.85 Y323.15
G0 X282.09 Y319.05
G0 X294.83 Y313.64
G0 X306.96 Y306.98
G0 X318.34 Y299.13
G0 X328.86 Y290.18
G0 X338.41 Y280.22
G0 X346.91 Y269.36
G0 X354.26 Y257.71
G0 X360.39 Y245.38
G0 X365.24 Y232.51
G0 X368.76 Y219.22
G0 X370.93 Y205.66
G0 X371.71 Y191.96
G0 X371.11 Y178.26
G0 X369.12 Y164.70
G0 X365.79 Y151.42
G0 X361.13 Y138.56
G0 X355.20 Y126.24
G0 X348.07 Y114.60
G0 X339.80 Y103.74
G0 X330.49 Y93.78
G0 X320.23 Y84.82
G0 X309.12 Y76.95
G0 X297.29 Y70.24
G0 X284.85 Y64.77
G0 X271.93 Y60.58
G0 X258.66 Y57.72
G0 X245.19 Y56.22
G0 X231.64 Y56.08
G0 X218.16 Y57.31
G0 X204.89 Y59.90
G0 X191.95 Y63.81
G0 X179.48 Y69.00
G0 X167.61 Y75.41
G0 X156.46 Y82.99
G0 X146.14 Y91.64
G0 X136.75 Y101.29
G0 X128.40 Y111.82
G0 X121.15 Y123.13
G0 X115.09 Y135.11
G0 X110.27 Y147.63
G0 X106.74 Y160.56
G0 X104.54 Y173.77
G0 X103.68 Y187.13
G0 X104.18 Y200.49
G0 X106.02 Y213.72
G0 X109.18 Y226.69
G0 X113.63 Y239.26
G0 X119.33 Y251.31
G0 X126.20 Y262.71
G0 X134.19 Y273.35
G0 X143.20 Y283.13
G0 X153.14 Y291.93
G0 X163.91 Y299.68
G0 X175.40 Y306.30
G0 X187.49 Y311.72
G0 X200.06 Y315.89
G0 X212.97 Y318.77
G0 X226.09 Y320.33
G0 X239.30 Y320.55
G0 X252.44 Y319.44
G0 X265.40 Y317.02
G0 X278.04 Y313.29
G0 X290.22 Y308.32
G0 X301.83 Y302.15
G0 X312.75 Y294.84
G0 X322.87 Y286.48
G0 X332.08 Y277.14
G0 X340.30 Y266.94
G0 X347.44 Y255.96
G0 X353.43 Y244.33
G0 X358.21 Y232.16
G0 X361.74 Y219.58
G0 X363.97 Y206.73
G0 X364.90 Y193.72
G0 X364.51 Y180.70
G0 X362.81 Y167.79
G0 X359.81 Y155.13
G0 X355.56 Y142.86
G0 X350.10 Y131.08
G0 X343.47 Y119.92
G0 X335.77 Y109.50
G0 X327.05 Y99.92
G0 X317.43 Y91.27
G0 X306.99 Y83.64
G0 X295.84 Y77.12
G0 X284.10 Y71.76
G0 X271.89 Y67.61
G0 X259.33 Y64.72
G0 X246.56 Y63.11
G0 X233.70 Y62.80
G0 X220.88 Y63.79
G0 X208.25 Y66.07
G0 X195.91 Y69.61
G0 X184.01 Y74.37
G0 X172.66 Y80.30
G0 X161.98 Y87.34
G0 X152.07 Y95.42
G0 X143.03 Y104.45
G0 X134.96 Y114.33
G0 X127.93 Y124.97
G0 X122.02 Y136.26
G0 X117.28 Y148.08
G0 X113.76 Y160.30
G0 X111.49 Y172.80
G0 X110.50 Y185.46
G0 X110.79 Y198.14
G0 X112.36 Y210.72
G0 X115.19 Y223.07
G0 X119.25 Y235.05
G0 X124.49 Y246.56
G0 X130.86 Y257.46
G0 X138.29 Y267.66
G0 X146.71 Y277.05
G0 X156.02 Y285.53
G0 X166.14 Y293.03
G0 X176.95 Y299.46
G0 X188.34 Y304.76
G0 X200.20 Y308.88
G0 X212.40 Y311.78
G0 X224.82 Y313.43
G0 X237.34 Y313.82
G0 X249.82 Y312.94
G0 X262.13 Y310.81
G0 X274.16 Y307.45
G0 X285.78 Y302.90
G0 X296.86 Y297.20
G0 X307.31 Y290.42
G0 X317.01 Y282.63
G0 X325.87 Y273.90
G0 X333.79 Y264.34
G0 X340.70 Y254.03
G0 X346.53 Y243.09
G0 X351.22 Y231.62
G0 X354.73 Y219.75
G0 X357.02 Y207.60
G0 X358.07 Y195.29
G0 X357.87 Y182.95
G0 X356.43 Y170.70
G0 X353.76 Y158.67
G0 X349.90 Y146.98
G0 X344.87 Y135.75
G0 X338.75 Y125.10
G0 X331.59 Y115.12
G0 X323.47 Y105.93
G0 X314.46 Y97.62
G0 X304.68 Y90.26
G0 X294.21 Y83.93
G0 X283.16 Y78.70
G0 X271.65 Y74.61
G0 X259.80 Y71.71
G0 X247.73 Y70.02
G0 X235.56 Y69.55
G0 X223.42 Y70.32
G0 X211.42 Y72.31
G0 X199.70 Y75.49
G0 X188.37 Y79.84
G0 X177.55 Y85.31
G0 X167.35 Y91.83
G0 X157.86 Y99.34
G0 X149.19 Y107.77
G0 X141.42 Y117.02
G0 X134.63 Y126.99
G0 X128.88 Y137.59
G0 X124.24 Y148.71
G0 X120.75 Y160.23
G0 X118.45 Y172.03
G0 X117.34 Y183.99
G0 X117.45 Y195.99
G0 X118.77 Y207.91
G0 X121.28 Y219.62
G0 X124.96 Y231.01
G0 X129.77 Y241.96
G0 X135.65 Y252.36
G0 X142.54 Y262.11
G0 X150.38 Y271.10
G0 X159.07 Y279.24
G0 X168.54 Y286.46
G0 X178.67 Y292.68
G0 X189.37 Y297.84
G0 X200.53 Y301.89
G0 X212.03 Y304.80
G0 X223.75 Y306.52
G0 X235.57 Y307.05
G0 X247.38 Y306.39
G0 X259.05 Y304.54
G0 X270.46 Y301.52
G0 X281.50 Y297.37
G0 X292.05 Y292.14
G0 X302.01 Y285.87
G0 X311.28 Y278.63
G0 X319.76 Y270.50
G0 X327.38 Y261.57
G0 X334.04 Y251.92
G0 X339.69 Y241.66
G0 X344.28 Y230.89
G0 X347.75 Y219.72
G0 X350.07 Y208.27
G0 X351.22 Y196.66
G0 X351.20 Y185.00
G0 X350.00 Y173.41
G0 X347.63 Y162.02
G0 X344.14 Y150.93
G0 X339.54 Y140.26
G0 X333.90 Y130.12
G0 X327.27 Y120.61
G0 X319.72 Y111.82
G0 X311.33 Y103.85
G0 X302.19 Y96.78
G0 X292.39 Y90.67
G0 X282.03 Y85.58
G0 X271.22 Y81.57
G0 X260.08 Y78.68
G0 X248.71 Y76.93
G0 X237.23 Y76.33
G0 X225.76 Y76.89
G0 X214.41 Y78.61
G0 X203.31 Y81.46
G0 X192.57 Y85.42
G0 X182.29 Y90.43
G0 X172.57 Y96.45
G0 X163.52 Y103.42
G0 X155.23 Y111.25
G0 X147.78 Y119.87
G0 X141.25 Y129.19
G0 X135.69 Y139.12
G0 X131.17 Y149.54
G0 X127.73 Y160.35
G0 X125.39 Y171.45
G0 X124.20 Y182.72
G0 X124.14 Y194.04
G0 X125.23 Y205.29
G0 X127.45 Y216.37
G0 X130.76 Y227.15
G0 X135.15 Y237.54
G0 X140.56 Y247.42
G0 X146.93 Y256.69
G0 X154.20 Y265.27
G0 X162.28 Y273.06
G0 X171.11 Y279.98
G0 X180.58 Y285.98
G0 X190.59 Y290.98
G0 X201.05 Y294.95
G0 X211.85 Y297.83
G0 X222.87 Y299.61
G0 X234.00 Y300.26
G0 X245.14 Y299.79
G0 X256.15 Y298.20
G0 X266.94 Y295.51
G0 X277.39 Y291.75
G0 X287.40 Y286.95
G0 X296.86 Y281.18
G0 X305.69 Y274.48
G0 X313.78 Y266.94
G0 X321.06 Y258.63
G0 X327.47 Y249.63
G0 X332.92 Y240.04
G0 X337.38 Y229.97
G0 X340.79 Y219.50
G0 X343.12 Y208.75
G0 X344.36 Y197.83
G0 X344.49 Y186.86
G0 X343.51 Y175.94
G0 X341.44 Y165.18
G0 X338.29 Y154.70
G0 X334.11 Y144.60
G0 X328.93 Y134.99
G0 X322.82 Y125.95
G0 X315.83 Y117.59
G0 X308.04 Y109.98
G0 X299.53 Y103.21
G0 X290.39 Y97.33
G0 X280.71 Y92.41
G0 X270.60 Y88.50
G0 X260.15 Y85.63
G0 X249.48 Y83.84
G0 X238.70 Y83.13
G0 X227.90 Y83.51
G0 X217.22 Y84.98
G0 X206.74 Y87.51
G0 X196.59 Y91.09
G0 X186.86 Y95.67
G0 X177.65 Y101.20
G0 X169.05 Y107.63
G0 X161.16 Y114.89
G0 X154.04 Y122.89
G0 X147.78 Y131.57
G0 X142.43 Y140.82
G0 X138.04 Y150.56
G0 X134.67 Y160.68
G0 X132.33 Y171.07
G0 X131.06 Y181.64
G0 X130.86 Y192.27
G0 X131.74 Y202.86
G0 X133.68 Y213.29
G0 X136.65 Y223.47
G0 X140.64 Y233.28
G0 X145.59 Y242.63
G0 X151.45 Y251.42
G0 X158.17 Y259.57
G0 X165.66 Y266.99
G0 X173.85 Y273.60
G0 X182.67 Y279.36
G0 X192.01 Y284.18
G0 X201.77 Y288.04
G0 X211.87 Y290.89
G0 X222.19 Y292.70
G0 X232.63 Y293.46
G0 X243.08 Y293.16
G0 X253.44 Y291.81
G0 X263.60 Y289.42
G0 X273.46 Y286.03
G0 X282.91 Y281.66
G0 X291.86 Y276.36
G0 X300.23 Y270.20
G0 X307.92 Y263.23
G0 X314.86 Y255.52
G0 X320.98 Y247.17
G0 X326.22 Y238.25
G0 X330.53 Y228.85
G0 X333.86 Y219.08
G0 X336.19 Y209.03
G0 X337.49 Y198.81
G0 X337.75 Y188.53
G0 X336.98 Y178.27
G0 X335.17 Y168.16
G0 X332.36 Y158.30
G0 X328.57 Y148.78
G0 X323.84 Y139.70
G0 X318.23 Y131.15
G0 X311.78 Y123.23
G0 X304.58 Y116.00
G0 X296.70 Y109.54
G0 X288.21 Y103.92
G0 X279.21 Y99.18
G0 X269.79 Y95.39
G0 X260.04 Y92.57
G0 X250.07 Y90.75
G0 X239.97 Y89.94
G0 X229.86 Y90.16
G0 X219.83 Y91.40
G0 X209.99 Y93.64
G0 X200.44 Y96.86
G0 X191.27 Y101.02
G0 X182.57 Y106.08
G0 X174.44 Y111.99
G0 X166.96 Y118.68
G0 X160.20 Y126.08
G0 X154.22 Y134.12
G0 X149.10 Y142.71
G0 X144.87 Y151.77
G0 X141.58 Y161.19
G0 X139.26 Y170.89
G0 X137.93 Y180.76
G0 X137.61 Y190.71
G0 X138.30 Y200.62
G0 X139.97 Y210.40
G0 X142.63 Y219.96
G0 X146.23 Y229.19
G0 X150.74 Y237.99
G0 X156.11 Y246.29
G0 X162.28 Y254.00
G0 X169.19 Y261.03
G0 X176.77 Y267.32
G0 X184.94 Y272.81
G0 X193.60 Y277.45
G0 X202.68 Y281.18
G0 X212.08 Y283.97
G0 X221.71 Y285.79
G0 X231.46 Y286.64
G0 X241.23 Y286.49
G0 X250.92 Y285.36
G0 X260.45 Y283.26
G0 X269.70 Y280.22
G0 X278.58 Y276.26
G0 X287.01 Y271.42
G0 X294.91 Y265.77
G0 X302.18 Y259.36
G0 X308.76 Y252.25
G0 X314.58 Y244.53
G0 X319.59 Y236.27
G0 X323.73 Y227.55
G0 X326.97 Y218.47
G0 X329.27 Y209.12
G0 X330.62 Y199.59
G0 X331.00 Y190.00
G0 X330.40 Y180.42
G0 X328.85 Y170.96
G0 X326.35 Y161.72
G0 X322.93 Y152.78
G0 X318.63 Y144.25
G0 X313.51 Y136.21
G0 X307.60 Y128.73
G0 X300.97 Y121.89
G0 X293.70 Y115.77
G0 X285.85 Y110.42
G0 X277.52 Y105.89
G0 X268.78 Y102.23
G0 X259.73 Y99.47
G0 X250.45 Y97.65
G0 X241.05 Y96.77
G0 X231.62 Y96.84
G0 X222.26 Y97.87
G0 X213.05 Y99.83
G0 X204.11 Y102.71
G0 X195.51 Y106.47
G0 X187.34 Y111.08
G0 X179.69 Y116.48
G0 X172.63 Y122.62
G0 X166.24 Y129.43
G0 X160.57 Y136.84
G0 X155.69 Y144.78
G0 X151.63 Y153.16
G0 X148.45 Y161.90
G0 X146.17 Y170.90
G0 X144.81 Y180.08
G0 X144.38 Y189.33
G0 X144.89 Y198.57
G0 X146.33 Y207.70
G0 X148.68 Y216.63
G0 X151.92 Y225.27
G0 X156.00 Y233.52
G0 X160.89 Y241.31
G0 X166.54 Y248.56
G0 X172.88 Y255.19
G0 X179.85 Y261.14
G0 X187.38 Y266.36
G0 X195.38 Y270.78
G0 X203.78 Y274.36
G0 X212.49 Y277.07
G0 X221.42 Y278.89
G0 X230.48 Y279.80
G0 X239.56 Y279.79
G0 X248.59 Y278.86
G0 X257.47 Y277.03
G0 X266.11 Y274.32
G0 X274.42 Y270.75
G0 X282.32 Y266.36
G0 X289.73 Y261.21
G0 X296.57 Y255.34
G0 X302.77 Y248.82
G0 X308.28 Y241.72
G0 X313.04 Y234.11
G0 X317.00 Y226.06
G0 X320.12 Y217.66
G0 X322.38 Y209.01
G0 X323.74 Y200.18
G0 X324.22 Y191.27
G0 X323.78 Y182.37
G0 X322.46 Y173.57
G0 X320.25 Y164.95
G0 X317.20 Y156.62
G0 X313.32 Y148.64
G0 X308.66 Y141.11
G0 X303.27 Y134.10
G0 X297.21 Y127.67
G0 X290.53 Y121.89
G0 X283.32 Y116.83
G0 X275.65 Y112.52
G0 X267.58 Y109.02
G0 X259.22 Y106.35
G0 X250.64 Y104.54
G0 X241.93 Y103.61
G0 X233.18 Y103.56
G0 X224.49 Y104.39
G0 X215.93 Y106.10
G0 X207.60 Y108.65
G0 X199.58 Y112.03
G0 X191.96 Y116.20
G0 X184.80 Y121.11
G0 X178.18 Y126.71
G0 X172.17 Y132.94
G0 X166.82 Y139.74
G0 X162.20 Y147.03
G0 X158.34 Y154.75
G0 X155.28 Y162.80
G0 X153.05 Y171.11
G0 X151.68 Y179.59
G0 X151.17 Y188.16
G0 X151.53 Y196.72
G0 X152.74 Y205.19
G0 X154.81 Y213.49
G0 X157.70 Y221.52
G0 X161.37 Y229.21
G0 X165.80 Y236.48
G0 X170.94 Y243.26
G0 X176.73 Y249.48
G0 X183.10 Y255.07
G0 X190.00 Y259.99
G0 X197.35 Y264.18
G0 X205.08 Y267.60
G0 X213.10 Y270.22
G0 X221.33 Y272.01
G0 X229.69 Y272.96
G0 X238.10 Y273.07
G0 X246.46 Y272.32
G0 X254.69 Y270.74
G0 X262.71 Y268.34
G0 X270.43 Y265.14
G0 X277.79 Y261.19
G0 X284.69 Y256.52
G0 X291.09 Y251.18
G0 X296.90 Y245.23
G0 X302.08 Y238.74
G0 X306.57 Y231.76
G0 X310.32 Y224.38
G0 X313.31 Y216.67
G0 X315.50 Y208.70
G0 X316.88 Y200.57
G0 X317.42 Y192.35
G0 X317.13 Y184.12
G0 X316.02 Y175.98
G0 X314.09 Y168.01
G0 X311.37 Y160.28
G0 X307.89 Y152.87
G0 X303.68 Y145.86
G0 X298.80 Y139.33
G0 X293.29 Y133.32
G0 X287.20 Y127.91
G0 X280.61 Y123.15
G0 X273.59 Y119.09
G0 X266.20 Y115.75
G0 X258.52 Y113.19
G0 X250.63 Y111.42
G0 X242.62 Y110.45
G0 X234.56 Y110.30
G0 X226.53 Y110.96
G0 X218.63 Y112.42
G0 X210.92 Y114.67
G0 X203.49 Y117.69
G0 X196.41 Y121.43
G0 X189.76 Y125.87
G0 X183.59 Y130.95
G0 X177.98 Y136.61
G0 X172.98 Y142.80
G0 X168.63 Y149.46
G0 X164.98 Y156.52
G0 X162.07 Y163.89
G0 X159.91 Y171.51
G0 X158.55 Y179.30
G0 X157.97 Y187.18
G0 X158.19 Y195.06
G0 X159.21 Y202.87
G0 X161.01 Y210.52
G0 X163.56 Y217.95
G0 X166.85 Y225.07
G0 X170.84 Y231.81
G0 X175.48 Y238.10
G0 X180.72 Y243.89
G0 X186.51 Y249.11
G0 X192.79 Y253.71
G0 X199.50 Y257.65
G0 X206.55 Y260.89
G0 X213.89 Y263.39
G0 X221.43 Y265.14
G0 X229.10 Y266.12
G0 X236.82 Y266.32
G0 X244.51 Y265.74
G0 X252.09 Y264.38
G0 X259.48 Y262.28
G0 X266.61 Y259.44
G0 X273.41 Y255.90
G0 X279.81 Y251.69
G0 X285.74 Y246.87
G0 X291.15 Y241.49
G0 X295.98 Y235.59
G0 X300.18 Y229.25
G0 X303.72 Y222.52
G0 X306.55 Y215.48
G0 X308.66 Y208.20
G0 X310.01 Y200.76
G0 X310.61 Y193.23
G0 X310.45 Y185.69
G0 X309.53 Y178.21
G0 X307.86 Y170.88
G0 X305.46 Y163.76
G0 X302.36 Y156.93
G0 X298.59 Y150.46
G0 X294.19 Y144.41
G0 X289.22 Y138.85
G0 X283.71 Y133.82
G0 X277.74 Y129.38
G0 X271.35 Y125.57
G0 X264.63 Y122.43
G0 X257.63 Y119.99
G0 X250.43 Y118.27
G0 X243.11 Y117.29
G0 X235.73 Y117.05
G0 X228.38 Y117.56
G0 X221.13 Y118.81
G0 X214.06 Y120.77
G0 X207.22 Y123.44
G0 X200.71 Y126.78
G0 X194.57 Y130.76
G0 X188.87 Y135.32
G0 X183.67 Y140.43
G0 X179.02 Y146.03
G0 X174.97 Y152.07
G0 X171.55 Y158.47
G0 X168.80 Y165.17
G0 X166.74 Y172.11
G0 X165.40 Y179.21
G0 X164.78 Y186.39
G0 X164.89 Y193.59
G0 X165.72 Y200.73
G0 X167.27 Y207.75
G0 X169.52 Y214.55
G0 X172.43 Y221.09
G0 X175.99 Y227.29
G0 X180.15 Y233.09
G0 X184.86 Y238.43
G0 X190.08 Y243.26
G0 X195.76 Y247.53
G0 X201.82 Y251.21
G0 X208.22 Y254.24
G0 X214.88 Y256.61
G0 X221.73 Y258.30
G0 X228.71 Y259.28
G0 X235.74 Y259.55
G0 X242.76 Y259.11
G0 X249.68 Y257.97
G0 X256.43 Y256.14
G0 X262.96 Y253.64
G0 X269.20 Y250.49
G0 X275.07 Y246.74
G0 X280.53 Y242.43
G0 X285.52 Y237.59
G0 X289.98 Y232.28
G0 X293.88 Y226.56
G0 X297.18 Y220.48
G0 X299.84 Y214.11
G0 X301.84 Y207.51
G0 X303.17 Y200.76
G0 X303.80 Y193.92
G0 X303.74 Y187.06
G0 X302.99 Y180.25
G0 X301.56 Y173.56
G0 X299.46 Y167.07
G0 X296.73 Y160.83
G0 X293.38 Y154.90
G0 X289.46 Y149.35
G0 X285.00 Y144.24
G0 X280.06 Y139.61
G0 X274.69 Y135.51
G0 X268.94 Y131.98
G0 X262.87 Y129.05
G0 X256.54 Y126.75
G0 X250.03 Y125.11
G0 X243.40 Y124.13
G0 X236.71 Y123.83
G0 X230.04 Y124.20
G0 X223.45 Y125.25
G0 X217.01 Y126.95
G0 X210.78 Y129.29
G0 X204.84 Y132.24
G0 X199.23 Y135.77
G0 X194.01 Y139.84
G0 X189.24 Y144.41
G0 X184.96 Y149.43
G0 X181.22 Y154.85
G0 X178.05 Y160.60
G0 X175.48 Y166.64
G0 X173.54 Y172.90
G0 X172.24 Y179.31
G0 X171.60 Y185.80
G0 X171.61 Y192.32
G0 X172.28 Y198.79
G0 X173.60 Y205.15
G0 X175.55 Y211.34
G0 X178.12 Y217.28
G0 X181.26 Y222.93
G0 X184.95 Y228.22
G0 X189.15 Y233.10
G0 X193.81 Y237.53
G0 X198.89 Y241.46
G0 X204.33 Y244.84
G0 X210.07 Y247.66
G0 X216.06 Y249.88
G0 X222.23 Y251.48
G0 X228.52 Y252.45
G0 X234.86 Y252.77
G0 X241.19 Y252.46
G0 X247.45 Y251.51
G0 X253.57 Y249.93
G0 X259.49 Y247.75
G0 X265.15 Y244.99
G0 X270.49 Y241.67
G0 X275.46 Y237.84
G0 X280.01 Y233.54
G0 X284.10 Y228.80
G0 X287.68 Y223.69
G0 X290.72 Y218.25
G0 X293.19 Y212.54
G0 X295.07 Y206.63
G0 X296.34 Y200.56
G0 X296.99 Y194.41
G0 X297.01 Y188.23
G0 X296.41 Y182.10
G0 X295.20 Y176.06
G0 X293.39 Y170.19
G0 X291.00 Y164.55
G0 X288.05 Y159.18
G0 X284.59 Y154.15
G0 X280.64 Y149.50
G0 X276.25 Y145.28
G0 X271.47 Y141.54
G0 X266.34 Y138.30
G0 X260.92 Y135.60
G0 X255.27 Y133.46
G0 X249.44 Y131.91
G0 X243.50 Y130.96
G0 X237.50 Y130.61
G0 X231.50 Y130.87
G0 X225.58 Y131.74
G0 X219.78 Y133.19
G0 X214.17 Y135.22
G0 X208.80 Y137.80
G0 X203.73 Y140.90
G0 X199.01 Y144.49
G0 X194.68 Y148.53
G0 X190.79 Y152.99
G0 X187.38 Y157.80
G0 X184.48 Y162.92
G0 X182.11 Y168.30
G0 X180.30 Y173.88
G0 X179.06 Y179.60
G0 X178.41 Y185.41
G0 X178.35 Y191.24
G0 X178.88 Y197.04
G0 X179.99 Y202.75
G0 X181.67 Y208.30
G0 X183.89 Y213.64
G0 X186.64 Y218.73
G0 X189.88 Y223.50
G0 X193.58 Y227.91
G0 X197.70 Y231.92
G0 X202.19 Y235.48
G0 X207.01 Y238.57
G0 X212.11 Y241.15
G0 X217.43 Y243.19
G0 X222.92 Y244.69
G0 X228.52 Y245.62
G0 X234.17 Y245.98
G0 X239.83 Y245.77
G0 X245.42 Y244.99
G0 X250.89 Y243.65
G0 X256.19 Y241.78
G0 X261.27 Y239.37
G0 X266.06 Y236.48
G0 X270.53 Y233.12
G0 X274.63 Y229.34
G0 X278.32 Y225.17
G0 X281.57 Y220.65
G0 X284.33 Y215.85
G0 X286.59 Y210.79
G0 X288.33 Y205.55
G0 X289.53 Y200.17
G0 X290.17 Y194.70
G0 X290.26 Y189.21
G0 X289.79 Y183.75
G0 X288.78 Y178.38
G0 X287.24 Y173.14
G0 X285.17 Y168.10
G0 X282.62 Y163.30
G0 X279.60 Y158.80
G0 X276.14 Y154.63
G0 X272.29 Y150.83
G0 X268.09 Y147.46
G0 X263.58 Y144.53
G0 X258.80 Y142.08
G0 X253.81 Y140.12
G0 X248.66 Y138.68
G0 X243.40 Y137.78
G0 X238.09 Y137.40
G0 X232.77 Y137.57
G0 X227.52 Y138.27
G0 X222.37 Y139.50
G0 X217.38 Y141.23
G0 X212.60 Y143.46
G0 X208.08 Y146.15
G0 X203.87 Y149.28
G0 X200.00 Y152.81
G0 X196.51 Y156.70
G0 X193.44 Y160.92
G0 X190.82 Y165.41
G0 X188.67 Y170.14
G0 X187.01 Y175.05
G0 X185.86 Y180.09
G0 X185.23 Y185.21
G0 X185.11 Y190.36
G0 X185.52 Y195.48
G0 X186.44 Y200.53
G0 X187.86 Y205.44
G0 X189.76 Y210.18
G0 X192.13 Y214.69
G0 X194.94 Y218.93
G0 X198.15 Y222.85
G0 X201.73 Y226.43
G0 X205.65 Y229.61
G0 X209.86 Y232.38
G0 X214.32 Y234.70
G0 X218.98 Y236.56
G0 X223.80 Y237.93
G0 X228.71 Y238.81
G0 X233.68 Y239.19
G0 X238.66 Y239.06
G0 X243.58 Y238.43
G0 X248.40 Y237.32
G0 X253.07 Y235.72
G0 X257.55 Y233.66
G0 X261.79 Y231.17
G0 X265.75 Y228.27
G0 X269.39 Y224.99
G0 X272.67 Y221.37
G0 X275.56 Y217.45
G0 X278.03 Y213.26
G0 X280.06 Y208.86
G0 X281.64 Y204.28
G0 X282.74 Y199.58
G0 X283.36 Y194.80
G0 X283.50 Y189.99
G0 X283.14 Y185.21
G0 X282.31 Y180.50
G0 X281.01 Y175.90
G0 X279.26 Y171.48
G0 X277.08 Y167.26
G0 X274.48 Y163.29
G0 X271.51 Y159.61
G0 X268.18 Y156.26
G0 X264.55 Y153.27
G0 X260.63 Y150.67
G0 X256.49 Y148.48
G0 X252.16 Y146.73
G0 X247.68 Y145.42
G0 X243.10 Y144.58
G0 X238.48 Y144.20
G0 X233.85 Y144.29
G0 X229.26 Y144.85
G0 X224.77 Y145.87
G0 X220.41 Y147.33
G0 X216.23 Y149.22
G0 X212.27 Y151.51
G0 X208.57 Y154.19
G0 X205.17 Y157.22
G0 X202.11 Y160.57
G0 X199.40 Y164.21
G0 X197.08 Y168.08
G0 X195.17 Y172.17
G0 X193.68 Y176.41
G0 X192.63 Y180.78
G0 X192.03 Y185.21
G0 X191.88 Y189.68
G0 X192.18 Y194.12
G0 X192.93 Y198.50
G0 X194.11 Y202.77
G0 X195.72 Y206.89
G0 X197.72 Y210.82
G0 X200.11 Y214.51
G0 X202.85 Y217.94
G0 X205.92 Y221.06
G0 X209.28 Y223.86
G0 X212.89 Y226.29
G0 X216.72 Y228.34
G0 X220.73 Y229.98
G0 X224.87 Y231.22
G0 X229.11 Y232.02
G0 X233.39 Y232.39
G0 X237.68 Y232.33
G0 X241.93 Y231.84
G0 X246.09 Y230.92
G0 X250.14 Y229.59
G0 X254.01 Y227.86
G0 X257.69 Y225.75
G0 X261.12 Y223.29
G0 X264.28 Y220.51
G0 X267.13 Y217.42
G0 X269.65 Y214.08
G0 X271.82 Y210.50
G0 X273.60 Y206.74
G0 X275.00 Y202.82
G0 X275.99 Y198.80
G0 X276.56 Y194.70
G0 X276.72 Y190.58
G0 X276.46 Y186.48
G0 X275.79 Y182.43
G0 X274.72 Y178.49
G0 X273.26 Y174.68
G0 X271.43 Y171.04
G0 X269.25 Y167.63
G0 X266.73 Y164.45
G0 X263.92 Y161.56
G0 X260.84 Y158.97
G0 X257.52 Y156.71
G0 X254.00 Y154.81
G0 X250.32 Y153.27
G0 X246.51 Y152.12
G0 X242.62 Y151.36
G0 X238.67 Y151.00
G0 X234.73 Y151.03
G0 X230.82 Y151.47
G0 X226.98 Y152.29
G0 X223.26 Y153.50
G0 X219.68 Y155.07
G0 X216.30 Y156.99
G0 X213.13 Y159.23
G0 X210.22 Y161.78
G0 X207.58 Y164.60
G0 X205.25 Y167.66
G0 X203.25 Y170.93
G0 X201.59 Y174.38
G0 X200.29 Y177.97
G0 X199.37 Y181.66
G0 X198.82 Y185.41
G0 X198.66 Y189.19
G0 X198.88 Y192.95
G0 X199.47 Y196.66
G0 X200.44 Y200.28
G0 X201.76 Y203.78
G0 X203.42 Y207.11
G0 X205.41 Y210.25
G0 X207.69 Y213.17
G0 X210.25 Y215.83
G0 X213.06 Y218.21
G0 X216.09 Y220.29
G0 X219.30 Y222.05
G0 X222.66 Y223.47
G0 X226.13 Y224.54
G0 X229.69 Y225.25
G0 X233.29 Y225.60
G0 X236.89 Y225.58
G0 X240.47 Y225.20
G0 X243.97 Y224.46
G0 X247.38 Y223.38
G0 X250.64 Y221.96
G0 X253.74 Y220.22
G0 X256.64 Y218.19
G0 X259.30 Y215.88
G0 X261.72 Y213.32
G0 X263.85 Y210.54
G0 X265.69 Y207.57
G0 X267.21 Y204.44
G0 X268.41 Y201.18
G0 X269.26 Y197.82
G0 X269.78 Y194.41
G0 X269.94 Y190.98
G0 X269.76 Y187.55
G0 X269.23 Y184.18
G0 X268.37 Y180.88
G0 X267.18 Y177.70
G0 X265.68 Y174.66
G0 X263.89 Y171.81
G0 X261.83 Y169.15
G0 X259.52 Y166.73
G0 X256.98 Y164.56
G0 X254.24 Y162.66
G0 X251.34 Y161.05
G0 X248.30 Y159.75
G0 X245.15 Y158.77
G0 X241.93 Y158.11
G0 X238.68 Y157.78
G0 X235.41 Y157.79
G0 X232.18 Y158.12
G0 X229.00 Y158.77
G0 X225.92 Y159.74
G0 X222.97 Y161.01
G0 X220.16 Y162.57
G0 X217.54 Y164.40
G0 X215.12 Y166.47
G0 X212.93 Y168.77
G0 X211.00 Y171.28
G0 X209.33 Y173.95
G0 X207.94 Y176.77
G0 X206.86 Y179.71
G0 X206.07 Y182.73
G0 X205.60 Y185.80
G0 X205.44 Y188.89
G0 X205.59 Y191.97
G0 X206.06 Y195.01
G0 X206.82 Y197.98
G0 X207.88 Y200.85
G0 X209.21 Y203.58
G0 X210.81 Y206.15
G0 X212.66 Y208.55
G0 X214.73 Y210.73
G0 X217.00 Y212.69
G0 X219.45 Y214.40
G0 X222.05 Y215.85
G0 X224.77 Y217.02
G0 X227.59 Y217.91
G0 X230.47 Y218.51
G0 X233.39 Y218.81
G0 X236.31 Y218.82
G0 X239.20 Y218.53
G0 X242.04 Y217.96
G0 X244.80 Y217.10
G0 X247.45 Y215.97
G0 X249.96 Y214.59
G0 X252.31 Y212.97
G0 X254.47 Y211.12
G0 X256.43 Y209.07
G0 X258.16 Y206.85
G0 X259.66 Y204.47
G0 X260.90 Y201.96
G0 X261.88 Y199.34
G0 X262.58 Y196.66
G0 X263.01 Y193.92
G0 X263.16 Y191.17
G0 X263.03 Y188.43
G0 X262.63 Y185.73
G0 X261.95 Y183.09
G0 X261.02 Y180.54
G0 X259.84 Y178.11
G0 X258.43 Y175.83
G0 X256.80 Y173.70
G0 X254.97 Y171.76
G0 X252.96 Y170.02
G0 X250.80 Y168.50
G0 X248.50 Y167.21
G0 X246.09 Y166.17
G0 X243.60 Y165.37
G0 X241.06 Y164.84
G0 X238.48 Y164.56
G0 X235.90 Y164.55
G0 X233.35 Y164.80
G0 X230.84 Y165.30
G0 X228.41 Y166.05
G0 X226.07 Y167.04
G0 X223.86 Y168.26
G0 X221.79 Y169.68
G0 X219.88 Y171.30
G0 X218.16 Y173.10
G0 X216.63 Y175.05
G0 X215.31 Y177.14
G0 X214.22 Y179.34
G0 X213.36 Y181.63
G0 X212.74 Y183.99
G0 X212.36 Y186.38
G0 X212.22 Y188.79
G0 X212.33 Y191.19
G0 X212.68 Y193.56
G0 X213.26 Y195.87
G0 X214.08 Y198.09
G0 X215.10 Y200.22
G0 X216.33 Y202.22
G0 X217.75 Y204.07
G0 X219.35 Y205.76
G0 X221.10 Y207.28
G0 X222.98 Y208.61
G0 X224.98 Y209.73
G0 X227.07 Y210.64
G0 X229.23 Y211.33
G0 X231.44 Y211.80
G0 X233.68 Y212.04
G0 X235.92 Y212.05
G0 X238.13 Y211.84
G0 X240.30 Y211.40
G0 X242.41 Y210.76
G0 X244.43 Y209.90
G0 X246.34 Y208.85
G0 X248.13 Y207.62
G0 X249.78 Y206.22
G0 X251.27 Y204.67
G0 X252.59 Y202.99
G0 X253.72 Y201.19
G0 X254.66 Y199.30
G0 X255.40 Y197.33
G0 X255.94 Y195.30
G0 X256.27 Y193.24
G0 X256.38 Y191.17
G0 X256.29 Y189.12
G0 X255.99 Y187.09
G0 X255.48 Y185.11
G0 X254.79 Y183.21
G0 X253.91 Y181.39
G0 X252.86 Y179.68
G0 X251.64 Y178.10
G0 X250.28 Y176.66
G0 X248.79 Y175.36
G0 X247.19 Y174.24
G0 X245.48 Y173.28
G0 X243.70 Y172.51
G0 X241.87 Y171.92
G0 X239.99 Y171.53
G0 X238.09 Y171.33
G0 X236.20 Y171.32
G0 X234.32 Y171.51
G0 X232.48 Y171.88
G0 X230.71 Y172.43
G0 X229.00 Y173.15
G0 X227.39 Y174.04
G0 X225.88 Y175.08
G0 X224.50 Y176.26
G0 X223.25 Y177.57
G0 X222.15 Y178.99
G0 X221.20 Y180.50
G0 X220.41 Y182.09
G0 X219.80 Y183.74
G0 X219.35 Y185.44
G0 X219.09 Y187.16
G0 X219.00 Y188.89
G0 X219.08 Y190.61
G0 X219.34 Y192.30
G0 X219.76 Y193.94
G0 X220.34 Y195.52
G0 X221.08 Y197.03
G0 X221.96 Y198.44
G0 X222.97 Y199.75
G0 X224.10 Y200.94
G0 X225.34 Y202.00
G0 X226.67 Y202.93
G0 X228.08 Y203.71
G0 X229.55 Y204.34
G0 X231.06 Y204.81
G0 X232.61 Y205.13
G0 X234.16 Y205.28
G0 X235.72 Y205.28
G0 X237.25 Y205.12
G0 X238.75 Y204.81
G0 X240.20 Y204.35
G0 X241.59 Y203.75
G0 X242.90 Y203.02
G0 X244.12 Y202.16
G0 X245.24 Y201.20
G0 X246.24 Y200.13
G0 X247.13 Y198.98
G0 X247.89 Y197.75
G0 X248.51 Y196.46
G0 X249.00 Y195.12
G0 X249.34 Y193.75
G0 X249.55 Y192.37
G0 X249.61 Y190.98
G0 X249.53 Y189.60
G0 X249.31 Y188.25
G0 X248.96 Y186.94
G0 X248.49 Y185.69
G0 X247.89 Y184.49
G0 X247.18 Y183.38
G0 X246.36 Y182.35
G0 X245.46 Y181.41
G0 X244.47 Y180.58
G0 X243.41 Y179.86
G0 X242.30 Y179.26
G0 X241.14 Y178.78
G0 X239.94 Y178.42
G0 X238.73 Y178.19
G0 X237.51 Y178.08
G0 X236.30 Y178.10
G0 X235.10 Y178.24
G0 X233.94 Y178.49
G0 X232.82 Y178.86
G0 X231.75 Y179.34
G0 X230.75 Y179.92
G0 X229.82 Y180.60
G0 X228.97 Y181.35
G0 X228.21 Y182.18
G0 X227.55 Y183.08
G0 X226.98 Y184.03
G0 X226.52 Y185.02
G0 X226.17 Y186.04
G0 X225.93 Y187.08
G0 X225.79 Y188.13
G0 X225.76 Y189.18
G0 X225.84 Y190.22
G0 X226.02 Y191.23
G0 X226.31 Y192.20
G0 X226.68 Y193.13
G0 X227.15 Y194.01
G0 X227.69 Y194.83
G0 X228.31 Y195.58
G0 X228.99 Y196.25
G0 X229.73 Y196.85
G0 X230.52 Y197.36
G0 X231.35 Y197.78
G0 X232.21 Y198.11
G0 X233.08 Y198.35
G0 X233.96 Y198.49
G0 X234.85 Y198.54
G0 X235.72 Y198.51
G0 X236.57 Y198.38
G0 X237.40 Y198.17
G0 X238.19 Y197.89
G0 X238.93 Y197.52
G0 X239.63 Y197.09
G0 X240.27 Y196.60
G0 X240.84 Y196.05
G0 X241.35 Y195.45
G0 X241.79 Y194.81
G0 X242.16 Y194.14
G0 X242.45 Y193.45
G0 X242.66 Y192.73
G0 X242.80 Y192.02
G0 X242.86 Y191.30
G0 X242.85 Y190.59
G0 X242.76 Y189.90
G0 X242.61 Y189.23
G0 X242.39 Y188.59
G0 X242.11 Y187.98
G0 X241.78 Y187.42
G0 X241.40 Y186.90
G0 X240.97 Y186.44
G0 X240.50 Y186.02
G0 X240.00 Y185.67
G0 X239.48 Y185.38
G0 X238.94 Y185.14
G0 X238.39 Y184.97
G0 X237.83 Y184.85
G0 X237.28 Y184.80
G0 X236.73 Y184.81
G0 X236.20 Y184.87
G0 X235.69 Y184.98
G0 X235.20 Y185.15
G0 X234.74 Y185.36
G0 X234.32 Y185.61
G0 X233.94 Y185.90
G0 X233.59 Y186.22
G0 X233.29 Y186.57
G0 X233.03 Y186.94
G0 X232.82 Y187.32
G0 X232.66 Y187.72
G0 X232.54 Y188.12
G0 X232.47 Y188.52
G0 X232.44 Y188.91
G0 X232.46 Y189.30
G0 X232.52 Y189.67
G0 X232.61 Y190.02
G0 X232.74 Y190.35
G0 X232.90 Y190.65
G0 X233.08 Y190.93
G0 X233.29 Y191.17
G0 X233.52 Y191.39
G0 X233.76 Y191.57
G0 X234.02 Y191.71
G0 X234.27 Y191.82
G0 X234.53 Y191.90
G0 X234.79 Y191.95
G0 X235.04 Y191.96
G0 X235.28 Y191.94
G0 X235.51 Y191.90
G0 X235.72 Y191.83
G0 X235.91 Y191.74
G0 X236.08 Y191.63
G0 X236.23 Y191.51
G0 X236.35 Y191.37
G0 X236.45 Y191.22
G0 X236.53 Y191.07
G0 X236.57 Y190.92
G0 X236.60 Y190.77
G0 X236.60 Y190.63
G0 X236.58 Y190.49
G0 X236.53 Y190.37
G0 X236.47 Y190.26
G0 X236.40 Y190.17
G0 X236.31 Y190.09
G0 X236.21 Y190.04
G0 X236.10 Y190.01
G0 X236.00 Y190.00

; Custom G-code to execute after the end of the sketch

