;  Created by Sandify
;  https://sandify.org
;  Version: 0.2.4
;
;  Machine type: Rectangular
;    Min X (mm): 0
;    Max X (mm): 600
;    Min Y (mm): 0
;    Max Y (mm): 400
;  Content type: shape
;  Layer:
;    Shape: Fractal Spirograph
;    Name: reuleaux
;    Velocity: 8
;    Resolution: 4
;    Number of circles: 6
;    Relative size (parent to child circle): 3
;    Alternate rotation direction: true
;    Visible: true
;    Initial width: 20
;    Initial height: 20
;    X offset: -2
;    Y offset: -6
;    Rotate (degrees): 0
;    Reverse path: false
;    Fine tuning:
;      Connect to next layer: line
;      Draw portion of path (%): 100
;      Backtrack at end (%): 0
;      Rotate starting point (%): 0
;  Reverse export path: false
;
; File name: 'Fractal'
;

G01 X299.594 Y383.890
G01 X288.782 Y381.869
G01 X292.787 Y384.280
G01 X289.794 Y372.818
G01 X281.195 Y374.882
G01 X291.903 Y373.484
G01 X292.693 Y361.183
G01 X291.625 Y364.200
G01 X302.934 Y357.878
G01 X299.878 Y348.346
G01 X303.513 Y357.193
G01 X316.090 Y354.348
G01 X313.185 Y352.303
G01 X321.551 Y360.797
G01 X330.509 Y354.564
G01 X322.453 Y358.089
G01 X327.387 Y368.370
G01 X328.767 Y363.526
G01 X321.647 Y371.599
G01 X329.055 Y377.685
G01 X323.821 Y368.701
G01 X314.109 Y373.677
G01 X318.597 Y372.523
G01 X308.810 Y365.241
G01 X303.423 Y371.922
G01 X310.604 Y363.540
G01 X303.180 Y353.181
G01 X304.182 Y355.750
G01 X308.663 Y343.209
G01 X300.079 Y337.441
G01 X308.436 Y341.451
G01 X316.129 Y330.757
G01 X312.478 Y330.626
G01 X324.239 Y331.323
G01 X326.988 Y320.358
G01 X322.977 Y327.804
G01 X333.262 Y332.075
G01 X331.105 Y327.044
G01 X330.741 Y337.371
G01 X340.231 Y336.837
G01 X330.350 Y332.884
G01 X326.016 Y342.503
G01 X328.621 Y338.299
G01 X316.352 Y338.575
G01 X316.432 Y346.719
G01 X316.459 Y335.246
G01 X304.030 Y331.644
G01 X306.366 Y332.531
G01 X301.657 Y319.605
G01 X291.296 Y320.266
G01 X300.199 Y317.528
G01 X299.144 Y303.951
G01 X296.191 Y305.759
G01 X305.577 Y298.294
G01 X300.566 Y287.687
G01 X302.213 Y295.529
G01 X312.773 Y291.749
G01 X307.823 Y288.841
G01 X314.121 Y296.545
G01 X320.988 Y289.594
G01 X310.822 Y292.476
G01 X313.629 Y302.188
G01 X312.869 Y296.851
G01 X303.596 Y304.507
G01 X308.844 Y310.251
G01 X301.442 Y301.002
G01 X289.559 Y305.790
G01 X291.876 Y304.524
G01 X279.918 Y297.206
G01 X272.366 Y303.929
G01 X277.389 Y295.665
G01 X267.817 Y285.499
G01 X266.683 Y288.338
G01 X269.043 Y276.141
G01 X258.356 Y270.793
G01 X264.630 Y275.297
G01 X270.264 Y265.170
G01 X264.578 Y265.679
G01 X274.332 Y267.087
G01 X275.105 Y256.904
G01 X269.151 Y265.201
G01 X277.528 Y270.392
G01 X273.500 Y266.348
G01 X271.306 Y277.727
G01 X279.007 Y278.310
G01 X267.383 Y275.537
G01 X261.351 Y286.397
G01 X262.307 Y283.493
G01 X248.440 Y285.128
G01 X246.976 Y294.687
G01 X245.512 Y284.683
G01 X231.648 Y282.603
G01 X232.609 Y285.061
G01 X226.584 Y273.756
G01 X214.968 Y276.084
G01 X222.681 Y275.056
G01 X220.499 Y263.231
G01 X216.485 Y266.831
G01 X224.879 Y261.195
G01 X218.943 Y252.453
G01 X219.736 Y262.191
G01 X229.513 Y260.338
G01 X223.851 Y259.384
G01 X229.511 Y269.068
G01 X235.813 Y264.119
G01 X225.157 Y269.023
G01 X227.549 Y280.775
G01 X226.448 Y277.492
G01 X216.913 Y287.214
G01 X221.973 Y295.035
G01 X214.461 Y287.868
G01 X202.545 Y294.743
G01 X204.905 Y295.566
G01 X193.068 Y290.335
G01 X185.714 Y299.142
G01 X191.011 Y292.954
G01 X181.790 Y284.857
G01 X181.082 Y289.752
G01 X183.945 Y279.597
G01 X173.836 Y276.274
G01 X180.762 Y282.783
G01 X187.121 Y274.638
G01 X182.234 Y277.106
G01 X192.859 Y280.445
G01 X194.573 Y272.163
G01 X189.630 Y282.330
G01 X199.087 Y289.355
G01 X196.207 Y287.108
G01 X195.226 Y300.246
G01 X204.205 Y302.546
G01 X193.922 Y301.446
G01 X189.294 Y313.934
G01 X191.712 Y312.610
G01 X179.367 Y315.774
G01 X179.480 Y326.810
G01 X179.648 Y318.230
G01 X167.469 Y317.517
G01 X170.165 Y321.286
G01 X165.924 Y311.232
G01 X156.139 Y314.749
G01 X165.727 Y314.849
G01 X165.462 Y304.088
G01 X163.405 Y308.686
G01 X173.794 Y303.981
G01 X169.888 Y296.103
G01 X172.743 Y306.635
G01 X184.613 Y305.506
G01 X181.072 Y305.206
G01 X188.878 Y315.469
G01 X197.349 Y311.029
G01 X188.882 Y316.367
G01 X193.481 Y328.479
G01 X194.602 Y325.480
G01 X187.301 Y335.412
G01 X194.605 Y343.366
G01 X189.344 Y336.257
G01 X179.684 Y343.113
G01 X184.301 Y343.841
G01 X174.721 Y338.440
G01 X169.619 Y346.999
G01 X177.162 Y340.488
G01 X170.179 Y331.991
G01 X171.697 Y336.412
G01 X176.772 Y325.708
G01 X168.858 Y321.761
G01 X177.959 Y327.573
G01 X186.472 Y318.658
G01 X183.714 Y320.283
G01 X196.441 Y322.709
G01 X200.227 Y313.444
G01 X197.325 Y322.557
G01 X208.788 Y328.462
G01 X207.877 Y325.028
G01 X208.826 Y336.913
G01 X219.695 Y337.896
G01 X211.258 Y335.417
G01 X208.429 Y346.465
G01 X212.599 Y343.641
G01 X201.956 Y345.249
G01 X203.719 Y354.673
G01 X205.484 Y344.426
G01 X194.846 Y341.996
G01 X199.026 Y343.997
G01 X196.209 Y332.126
G01 X187.788 Y333.782
G01 X198.677 Y331.977
G01 X199.649 Y319.269
G01 X198.765 Y321.881
G01 X210.259 Y315.154
G01 X207.391 Y305.219
G01 X211.215 Y313.662
G01 X223.982 Y310.415
G01 X221.269 Y307.968
G01 X229.830 Y316.062
G01 X238.984 Y309.429
G01 X231.126 Y312.555
G01 X236.259 Y322.438
G01 X237.841 Y317.197
G01 X230.924 Y324.874
G01 X238.537 Y330.564
G01 X233.509 Y321.186
G01 X224.005 Y325.768
G01 X228.703 Y324.222
G01 X219.127 Y316.547
G01 X213.954 Y322.838
G01 X221.350 Y314.066
G01 X214.143 Y303.317
G01 X215.363 Y305.499
G01 X220.064 Y292.570
G01 X211.702 Y286.416
G01 X220.283 Y290.042
G01 X228.201 Y278.963
G01 X224.777 Y278.449
G01 X236.766 Y278.764
G01 X239.745 Y267.418
G01 X235.966 Y274.484
G01 X246.485 Y278.376
G01 X244.562 Y272.966
G01 X244.435 Y282.916
G01 X254.163 Y282.006
G01 X244.523 Y277.678
G01 X240.431 Y286.923
G01 X243.278 Y282.346
G01 X231.255 Y282.250
G01 X231.582 Y290.024
G01 X231.857 Y278.181
G01 X219.677 Y274.210
G01 X222.265 Y274.730
G01 X217.809 Y261.438
G01 X207.703 Y261.733
G01 X216.862 Y258.631
G01 X216.064 Y244.691
G01 X213.371 Y246.137
G01 X223.018 Y238.311
G01 X218.269 Y227.345
G01 X220.180 Y234.828
G01 X231.006 Y230.691
G01 X226.323 Y227.426
G01 X232.890 Y234.775
G01 X240.027 Y227.471
G01 X230.133 Y230.000
G01 X233.214 Y239.361
G01 X232.728 Y233.673
G01 X223.732 Y240.980
G01 X229.257 Y246.377
G01 X222.135 Y236.781
G01 X210.534 Y241.223
G01 X213.132 Y239.613
G01 X201.459 Y231.952
G01 X194.192 Y238.333
G01 X199.502 Y229.728
G01 X190.219 Y219.223
G01 X189.374 Y221.724
G01 X192.026 Y209.191
G01 X181.632 Y203.508
G01 X188.200 Y207.678
G01 X194.129 Y197.217
G01 X188.741 Y197.395
G01 X198.794 Y198.473
G01 X199.866 Y187.961
G01 X194.214 Y195.931
G01 X202.894 Y200.795
G01 X199.171 Y196.426
G01 X197.282 Y207.481
G01 X205.291 Y207.742
G01 X193.975 Y204.648
G01 X188.253 Y215.188
G01 X189.521 Y211.966
G01 X175.967 Y213.284
G01 X174.816 Y222.528
G01 X173.668 Y212.209
G01 X160.121 Y209.816
G01 X161.400 Y211.964
G01 X155.695 Y200.348
G01 X144.400 Y202.367
G01 X152.435 Y201.032
G01 X150.576 Y188.902
G01 X146.888 Y192.197
G01 X155.608 Y186.258
G01 X150.000 Y177.214
G01 X151.122 Y186.653
G01 X161.229 Y184.501
G01 X155.899 Y183.250
G01 X161.891 Y192.637
G01 X168.528 Y187.395
G01 X158.207 Y192.006
G01 X160.935 Y203.466
G01 X160.173 Y199.894
G01 X150.977 Y209.327
G01 X156.377 Y216.861
G01 X149.207 Y209.409
G01 X137.634 Y216.000
G01 X140.338 Y216.540
G01 X128.847 Y211.028
G01 X121.839 Y219.555
G01 X127.484 Y213.090
G01 X118.612 Y204.716
G01 X118.255 Y209.336
G01 X121.469 Y198.908
G01 X111.712 Y195.313
G01 X118.993 Y201.552
G01 X125.707 Y193.138
G01 X121.176 Y195.339
G01 X132.158 Y198.412
G01 X134.230 Y189.866
G01 X129.647 Y199.770
G01 X139.465 Y206.535
G01 X136.947 Y204.029
G01 X136.329 Y216.909
G01 X145.672 Y218.952
G01 X135.755 Y217.598
G01 X131.492 Y229.833
G01 X134.279 Y228.257
G01 X122.302 Y231.172
G01 X122.784 Y241.960
G01 X123.323 Y233.133
G01 X111.516 Y232.175
G01 X114.585 Y235.701
G01 X110.718 Y225.405
G01 X101.309 Y228.682
G01 X111.272 Y228.543
G01 X111.384 Y217.546
G01 X109.706 Y221.908
G01 X120.473 Y216.970
G01 X116.948 Y208.860
G01 X120.184 Y219.162
G01 X132.436 Y217.805
G01 X129.279 Y217.277
G01 X137.468 Y227.316
G01 X146.325 Y222.652
G01 X138.243 Y227.768
G01 X143.229 Y239.660
G01 X144.739 Y236.443
G01 X137.826 Y246.158
G01 X145.521 Y253.897
G01 X140.650 Y246.575
G01 X131.382 Y253.219
G01 X136.392 Y253.737
G01 X127.205 Y248.128
G01 X122.498 Y256.480
G01 X130.436 Y249.765
G01 X123.850 Y241.065
G01 X125.765 Y245.285
G01 X131.238 Y234.381
G01 X123.723 Y230.236
G01 X133.224 Y235.852
G01 X142.137 Y226.743
G01 X139.781 Y228.176
G01 X152.910 Y230.411
G01 X157.099 Y220.956
G01 X154.601 Y229.882
G01 X166.469 Y235.601
G01 X165.964 Y231.983
G01 X167.319 Y243.686
G01 X178.595 Y244.489
G01 X170.566 Y241.832
G01 X168.145 Y252.703
G01 X172.726 Y249.705
G01 X162.493 Y251.139
G01 X164.667 Y260.392
G01 X166.843 Y249.976
G01 X156.618 Y247.378
G01 X161.211 Y249.213
G01 X158.808 Y237.178
G01 X150.802 Y238.672
G01 X162.105 Y236.706
G01 X163.494 Y223.840
G01 X163.027 Y226.295
G01 X174.938 Y219.413
G01 X172.488 Y209.324
G01 X176.731 Y217.616
G01 X189.918 Y214.219
G01 X187.625 Y211.625
G01 X196.607 Y219.573
G01 X206.182 Y212.796
G01 X198.745 Y215.779
G01 X204.301 Y225.522
G01 X206.306 Y220.143
G01 X199.813 Y227.683
G01 X207.850 Y233.239
G01 X203.247 Y223.727
G01 X194.169 Y228.179
G01 X199.293 Y226.503
G01 X190.144 Y218.701
G01 X185.398 Y224.866
G01 X193.221 Y215.970
G01 X186.443 Y205.100
G01 X188.092 Y207.161
G01 X193.222 Y194.115
G01 X185.290 Y187.845
G01 X194.301 Y191.356
G01 X202.650 Y180.164
G01 X199.657 Y179.540
G01 X212.078 Y179.747
G01 X215.489 Y168.294
G01 X212.143 Y175.255
G01 X223.095 Y179.044
G01 X221.606 Y173.533
G01 X221.913 Y183.383
G01 X232.076 Y182.376
G01 X222.871 Y177.953
G01 X219.213 Y187.105
G01 X222.497 Y182.435
G01 X210.910 Y182.250
G01 X211.673 Y189.936
G01 X212.385 Y178.007
G01 X200.642 Y173.952
G01 X203.668 Y174.390
G01 X199.650 Y161.018
G01 X189.982 Y161.235
G01 X199.580 Y158.056
G01 X199.221 Y144.042
G01 X196.967 Y145.415
G01 X207.054 Y137.518
G01 X202.745 Y126.483
G01 X205.097 Y133.900
G01 X216.363 Y129.698
G01 X212.121 Y126.370
G01 X219.129 Y133.658
G01 X226.707 Y126.295
G01 X217.254 Y128.767
G01 X220.777 Y138.073
G01 X220.733 Y132.332
G01 X212.180 Y139.587
G01 X218.148 Y144.934
G01 X211.468 Y135.291
G01 X200.309 Y139.687
G01 X203.351 Y138.034
G01 X192.121 Y130.331
G01 X185.298 Y136.673
G01 X191.051 Y128.030
G01 X182.212 Y117.489
G01 X181.812 Y119.956
G01 X184.907 Y107.391
G01 X174.957 Y101.677
G01 X181.970 Y105.819
G01 X188.344 Y95.332
G01 X183.400 Y95.486
G01 X193.898 Y96.542
G01 X195.415 Y86.009
G01 X190.208 Y93.960
G01 X199.333 Y98.808
G01 X196.054 Y94.424
G01 X194.611 Y105.467
G01 X203.064 Y105.717
G01 X192.194 Y102.615
G01 X186.917 Y113.148
G01 X188.630 Y109.921
G01 X175.521 Y111.236
G01 X174.816 Y120.479
G01 X174.113 Y110.161
G01 X161.011 Y107.771
G01 X162.736 Y109.923
G01 X157.476 Y98.315
G01 X146.626 Y100.342
G01 X155.106 Y99.018
G01 X153.693 Y86.900
G01 X150.449 Y90.210
G01 X159.615 Y84.288
G01 X154.451 Y75.263
G01 X156.018 Y84.721
G01 X166.569 Y82.592
G01 X161.684 Y81.365
G01 X168.121 Y90.779
G01 X175.202 Y85.564
G01 X165.325 Y90.205
G01 X168.498 Y101.698
G01 X168.180 Y98.159
G01 X159.427 Y107.629
G01 X165.271 Y115.200
G01 X158.544 Y107.788
G01 X147.415 Y114.420
G01 X150.562 Y115.004
G01 X139.514 Y109.538
G01 X132.949 Y118.113
G01 X139.036 Y111.697
G01 X130.607 Y103.374
G01 X130.692 Y108.048
G01 X134.347 Y97.675
G01 X125.033 Y94.137
G01 X132.754 Y100.435
G01 X139.909 Y92.083
G01 X135.819 Y94.346
G01 X147.242 Y97.484
G01 X149.754 Y89.005
G01 X145.611 Y98.978
G01 X155.869 Y105.813
G01 X153.790 Y103.379
G01 X153.610 Y116.334
G01 X163.393 Y118.454
G01 X153.914 Y117.178
G01 X150.089 Y129.493
G01 X153.313 Y127.999
G01 X141.774 Y130.998
G01 X142.693 Y141.872
G01 X143.668 Y133.132
G01 X132.298 Y132.265
G01 X135.802 Y135.882
G01 X132.371 Y125.679
G01 X123.396 Y129.052
G01 X133.794 Y129.011
G01 X134.340 Y118.112
G01 X133.095 Y122.576
G01 X144.296 Y117.741
G01 X141.203 Y109.735
G01 X144.872 Y120.145
G01 X157.555 Y118.896
G01 X154.830 Y118.479
G01 X163.450 Y128.630
G01 X172.737 Y124.080
G01 X165.085 Y129.312
G01 X170.501 Y141.322
G01 X172.439 Y138.226
G01 X165.955 Y148.062
G01 X174.077 Y155.925
G01 X169.634 Y148.728
G01 X160.792 Y155.500
G01 X166.228 Y156.148
G01 X157.467 Y150.669
G01 X153.185 Y159.154
G01 X161.548 Y152.574
G01 X155.384 Y144.011
G01 X157.723 Y148.369
G01 X163.618 Y137.606
G01 X156.525 Y133.603
G01 X166.448 Y139.363
G01 X175.782 Y130.400
G01 X173.846 Y131.980
G01 X187.394 Y134.365
G01 X192.002 Y125.061
G01 X189.922 Y134.141
G01 X202.208 Y140.015
G01 X202.119 Y136.554
G01 X203.890 Y148.415
G01 X215.582 Y149.379
G01 X207.967 Y146.884
G01 X205.960 Y157.919
G01 X210.954 Y155.087
G01 X201.133 Y156.689
G01 X203.719 Y166.111
G01 X206.307 Y155.866
G01 X196.491 Y153.441
G01 X201.494 Y155.451
G01 X199.500 Y143.593
G01 X191.902 Y145.265
G01 X203.612 Y143.479
G01 X205.407 Y130.795
G01 X205.346 Y133.434
G01 X217.662 Y126.738
G01 X215.616 Y116.836
G01 X220.262 Y125.318
G01 X233.851 Y122.111
G01 X231.960 Y119.710
G01 X241.342 Y127.852
G01 X251.317 Y121.271
G01 X244.279 Y124.452
G01 X250.233 Y134.395
G01 X252.635 Y129.216
G01 X246.538 Y136.960
G01 X254.971 Y142.720
G01 X250.762 Y133.415
G01 X242.078 Y138.075
G01 X247.595 Y136.609
G01 X238.838 Y129.018
G01 X234.482 Y135.397
G01 X242.695 Y126.716
G01 X236.306 Y116.063
G01 X238.343 Y118.342
G01 X243.860 Y105.516
G01 X236.314 Y99.468
G01 X245.710 Y103.202
G01 X254.444 Y92.236
G01 X251.834 Y91.839
G01 X264.637 Y92.274
G01 X268.429 Y81.051
G01 X265.463 Y88.244
G01 X276.795 Y92.266
G01 X275.684 Y86.991
G01 X276.368 Y97.078
G01 X286.907 Y96.309
G01 X278.077 Y92.126
G01 X274.793 Y101.519
G01 X278.450 Y97.093
G01 X267.234 Y97.153
G01 X268.368 Y105.085
G01 X269.450 Y93.404
G01 X258.076 Y89.600
G01 X261.469 Y90.288
G01 X257.818 Y77.169
G01 X248.515 Y77.641
G01 X258.477 Y74.719
G01 X258.481 Y60.962
G01 X256.589 Y62.595
G01 X267.037 Y54.959
G01 X263.088 Y44.187
G01 X265.798 Y51.867
G01 X277.421 Y47.931
G01 X273.535 Y44.871
G01 X280.898 Y52.427
G01 X288.831 Y45.334
G01 X279.730 Y48.077
G01 X283.605 Y57.657
G01 X283.911 Y52.191
G01 X275.707 Y59.723
G01 X282.022 Y65.348
G01 X275.689 Y55.984
G01 X264.876 Y60.662
G01 X268.263 Y59.290
G01 X257.375 Y51.872
G01 X250.894 Y58.499
G01 X256.987 Y50.143
G01 X248.487 Y39.890
G01 X248.425 Y42.647
G01 X251.857 Y30.374
G01 X242.243 Y24.953
G01 X249.590 Y29.389
G01 X256.296 Y19.198
G01 X251.684 Y19.649
G01 X262.512 Y21.003
G01 X264.358 Y10.771
G01 X259.478 Y19.023
G01 X268.930 Y24.175
G01 X265.976 Y20.095
G01 X264.856 Y31.444
G01 X273.633 Y32.000
G01 X263.083 Y29.207
G01 X258.126 Y40.050
G01 X260.157 Y37.135
G01 X247.365 Y38.763
G01 X246.976 Y48.319
G01 X246.587 Y38.317
G01 X233.798 Y36.244
G01 X235.834 Y38.715
G01 X230.884 Y27.426
G01 X220.343 Y29.774
G01 X229.130 Y28.772
G01 X228.022 Y16.978
G01 X225.083 Y20.613
G01 X234.551 Y15.017
G01 X229.690 Y6.319
G01 X231.556 Y16.107
G01 X242.407 Y14.308
G01 X237.819 Y13.413
G01 X244.551 Y23.159
G01 X251.927 Y18.279
G01 X242.342 Y23.255
G01 X245.807 Y35.085
G01 X245.778 Y31.884
G01 X237.314 Y41.692
G01 X243.445 Y49.604
G01 X237.004 Y42.534
G01 X226.158 Y49.509
G01 X229.588 Y50.437
G01 X218.821 Y45.317
G01 X212.535 Y54.238
G01 X218.900 Y48.170
G01 X210.747 Y40.196
G01 X211.107 Y45.220
G01 X215.036 Y35.199
G01 X205.993 Y32.014
G01 X213.985 Y38.666
G01 X221.409 Y30.668
G01 X217.586 Y33.287
G01 X229.274 Y36.783
G01 X232.051 Y28.663
G01 X228.170 Y38.995
G01 X238.689 Y46.191
G01 X236.869 Y44.119
G01 X236.948 Y57.437
G01 X246.987 Y59.921
G01 X237.762 Y59.010
G01 X234.191 Y71.692
G01 X237.666 Y70.565
G01 X226.376 Y73.933
G01 X227.544 Y85.177
G01 X228.766 Y76.808
G01 X217.640 Y76.312
G01 X221.388 Y80.302
G01 X218.198 Y70.473
G01 X209.463 Y74.221
G01 X220.099 Y74.556
G01 X220.883 Y64.035
G01 X219.873 Y68.876
G01 X231.307 Y64.421
G01 X228.446 Y56.795
G01 X232.345 Y67.586
G01 X245.257 Y66.719
G01 X242.758 Y66.685
G01 X251.604 Y77.220
G01 X261.114 Y73.056
G01 X253.684 Y78.674
G01 X259.320 Y91.071
G01 X261.476 Y88.362
G01 X255.209 Y98.588
G01 X263.546 Y106.841
G01 X259.316 Y100.035
G01 X250.686 Y107.199
G01 X256.332 Y108.238
G01 X247.779 Y103.153
G01 X243.703 Y112.034
G01 X252.271 Y105.848
G01 X246.311 Y97.682
G01 X248.851 Y102.437
G01 X254.946 Y92.072
G01 X248.050 Y88.468
G01 X258.169 Y94.628
G01 X267.697 Y86.065
G01 X265.953 Y88.047
G01 X279.693 Y90.834
G01 X284.490 Y81.933
G01 X282.597 Y91.417
G01 X295.068 Y97.696
G01 X295.163 Y94.640
G01 X297.117 Y106.908
G01 X308.988 Y108.279
G01 X301.552 Y106.192
G01 X299.722 Y117.636
G01 X304.890 Y115.213
G01 X295.243 Y117.226
G01 X298.000 Y127.059
G01 X300.757 Y117.226
G01 X291.110 Y115.213
G01 X296.278 Y117.636
G01 X294.448 Y106.192
G01 X287.012 Y108.279
G01 X298.883 Y106.908
G01 X300.837 Y94.640
G01 X300.932 Y97.696
G01 X313.403 Y91.417
G01 X311.510 Y81.933
G01 X316.307 Y90.834
G01 X330.047 Y88.047
G01 X328.303 Y86.065
G01 X337.831 Y94.628
G01 X347.950 Y88.468
G01 X341.054 Y92.072
G01 X347.149 Y102.437
G01 X349.689 Y97.682
G01 X343.729 Y105.848
G01 X352.297 Y112.034
G01 X348.221 Y103.153
G01 X339.668 Y108.238
G01 X345.314 Y107.199
G01 X336.684 Y100.035
G01 X332.454 Y106.841
G01 X340.791 Y98.588
G01 X334.524 Y88.362
G01 X336.680 Y91.071
G01 X342.316 Y78.674
G01 X334.886 Y73.056
G01 X344.396 Y77.220
G01 X353.242 Y66.685
G01 X350.743 Y66.719
G01 X363.655 Y67.586
G01 X367.554 Y56.795
G01 X364.693 Y64.421
G01 X376.127 Y68.876
G01 X375.117 Y64.035
G01 X375.901 Y74.556
G01 X386.537 Y74.221
G01 X377.802 Y70.473
G01 X374.612 Y80.302
G01 X378.360 Y76.312
G01 X367.234 Y76.808
G01 X368.456 Y85.177
G01 X369.624 Y73.933
G01 X358.334 Y70.565
G01 X361.809 Y71.692
G01 X358.238 Y59.010
G01 X349.013 Y59.921
G01 X359.052 Y57.437
G01 X359.131 Y44.119
G01 X357.311 Y46.191
G01 X367.830 Y38.995
G01 X363.949 Y28.663
G01 X366.726 Y36.783
G01 X378.414 Y33.287
G01 X374.591 Y30.668
G01 X382.015 Y38.666
G01 X390.007 Y32.014
G01 X380.964 Y35.199
G01 X384.893 Y45.220
G01 X385.253 Y40.196
G01 X377.100 Y48.170
G01 X383.465 Y54.238
G01 X377.179 Y45.317
G01 X366.412 Y50.437
G01 X369.842 Y49.509
G01 X358.996 Y42.534
G01 X352.555 Y49.604
G01 X358.686 Y41.692
G01 X350.222 Y31.884
G01 X350.193 Y35.085
G01 X353.658 Y23.255
G01 X344.073 Y18.279
G01 X351.449 Y23.159
G01 X358.181 Y13.413
G01 X353.593 Y14.308
G01 X364.444 Y16.107
G01 X366.310 Y6.319
G01 X361.449 Y15.017
G01 X370.917 Y20.613
G01 X367.978 Y16.978
G01 X366.870 Y28.772
G01 X375.657 Y29.774
G01 X365.116 Y27.426
G01 X360.166 Y38.715
G01 X362.202 Y36.244
G01 X349.413 Y38.317
G01 X349.024 Y48.319
G01 X348.635 Y38.763
G01 X335.843 Y37.135
G01 X337.874 Y40.050
G01 X332.917 Y29.207
G01 X322.367 Y32.000
G01 X331.144 Y31.444
G01 X330.024 Y20.095
G01 X327.070 Y24.175
G01 X336.522 Y19.023
G01 X331.642 Y10.771
G01 X333.488 Y21.003
G01 X344.316 Y19.649
G01 X339.704 Y19.198
G01 X346.410 Y29.389
G01 X353.757 Y24.953
G01 X344.143 Y30.374
G01 X347.575 Y42.647
G01 X347.513 Y39.890
G01 X339.013 Y50.143
G01 X345.106 Y58.499
G01 X338.625 Y51.872
G01 X327.737 Y59.290
G01 X331.124 Y60.662
G01 X320.311 Y55.984
G01 X313.978 Y65.348
G01 X320.293 Y59.723
G01 X312.089 Y52.191
G01 X312.395 Y57.657
G01 X316.270 Y48.077
G01 X307.169 Y45.334
G01 X315.102 Y52.427
G01 X322.465 Y44.871
G01 X318.579 Y47.931
G01 X330.202 Y51.867
G01 X332.912 Y44.187
G01 X328.963 Y54.959
G01 X339.411 Y62.595
G01 X337.519 Y60.962
G01 X337.523 Y74.719
G01 X347.485 Y77.641
G01 X338.182 Y77.169
G01 X334.531 Y90.288
G01 X337.924 Y89.600
G01 X326.550 Y93.404
G01 X327.632 Y105.085
G01 X328.766 Y97.153
G01 X317.550 Y97.093
G01 X321.207 Y101.519
G01 X317.923 Y92.126
G01 X309.093 Y96.309
G01 X319.632 Y97.078
G01 X320.316 Y86.991
G01 X319.205 Y92.266
G01 X330.537 Y88.244
G01 X327.571 Y81.051
G01 X331.363 Y92.274
G01 X344.166 Y91.839
G01 X341.556 Y92.236
G01 X350.290 Y103.202
G01 X359.686 Y99.468
G01 X352.140 Y105.516
G01 X357.657 Y118.342
G01 X359.694 Y116.063
G01 X353.305 Y126.716
G01 X361.518 Y135.397
G01 X357.162 Y129.018
G01 X348.405 Y136.609
G01 X353.922 Y138.075
G01 X345.238 Y133.415
G01 X341.029 Y142.720
G01 X349.462 Y136.960
G01 X343.365 Y129.216
G01 X345.767 Y134.395
G01 X351.721 Y124.452
G01 X344.683 Y121.271
G01 X354.658 Y127.852
G01 X364.040 Y119.710
G01 X362.149 Y122.111
G01 X375.738 Y125.318
G01 X380.384 Y116.836
G01 X378.338 Y126.738
G01 X390.654 Y133.434
G01 X390.593 Y130.795
G01 X392.388 Y143.479
G01 X404.098 Y145.265
G01 X396.500 Y143.593
G01 X394.506 Y155.451
G01 X399.509 Y153.441
G01 X389.693 Y155.866
G01 X392.281 Y166.111
G01 X394.867 Y156.689
G01 X385.046 Y155.087
G01 X390.040 Y157.919
G01 X388.033 Y146.884
G01 X380.418 Y149.379
G01 X392.110 Y148.415
G01 X393.881 Y136.554
G01 X393.792 Y140.015
G01 X406.078 Y134.141
G01 X403.998 Y125.061
G01 X408.606 Y134.365
G01 X422.154 Y131.980
G01 X420.218 Y130.400
G01 X429.552 Y139.363
G01 X439.475 Y133.603
G01 X432.382 Y137.606
G01 X438.277 Y148.369
G01 X440.616 Y144.011
G01 X434.452 Y152.574
G01 X442.815 Y159.154
G01 X438.533 Y150.669
G01 X429.772 Y156.148
G01 X435.208 Y155.500
G01 X426.366 Y148.728
G01 X421.923 Y155.925
G01 X430.045 Y148.062
G01 X423.561 Y138.226
G01 X425.499 Y141.322
G01 X430.915 Y129.312
G01 X423.263 Y124.080
G01 X432.550 Y128.630
G01 X441.170 Y118.479
G01 X438.445 Y118.896
G01 X451.128 Y120.145
G01 X454.797 Y109.735
G01 X451.704 Y117.741
G01 X462.905 Y122.576
G01 X461.660 Y118.112
G01 X462.206 Y129.011
G01 X472.604 Y129.052
G01 X463.629 Y125.679
G01 X460.198 Y135.882
G01 X463.702 Y132.265
G01 X452.332 Y133.132
G01 X453.307 Y141.872
G01 X454.226 Y130.998
G01 X442.687 Y127.999
G01 X445.911 Y129.493
G01 X442.086 Y117.178
G01 X432.607 Y118.454
G01 X442.390 Y116.334
G01 X442.210 Y103.379
G01 X440.131 Y105.813
G01 X450.389 Y98.978
G01 X446.246 Y89.005
G01 X448.758 Y97.484
G01 X460.181 Y94.346
G01 X456.091 Y92.083
G01 X463.246 Y100.435
G01 X470.967 Y94.137
G01 X461.653 Y97.675
G01 X465.308 Y108.048
G01 X465.393 Y103.374
G01 X456.964 Y111.697
G01 X463.051 Y118.113
G01 X456.486 Y109.538
G01 X445.438 Y115.004
G01 X448.585 Y114.420
G01 X437.456 Y107.788
G01 X430.729 Y115.200
G01 X436.573 Y107.629
G01 X427.820 Y98.159
G01 X427.502 Y101.698
G01 X430.675 Y90.205
G01 X420.798 Y85.564
G01 X427.879 Y90.779
G01 X434.316 Y81.365
G01 X429.431 Y82.592
G01 X439.982 Y84.721
G01 X441.549 Y75.263
G01 X436.385 Y84.288
G01 X445.551 Y90.210
G01 X442.307 Y86.900
G01 X440.894 Y99.018
G01 X449.374 Y100.342
G01 X438.524 Y98.315
G01 X433.264 Y109.923
G01 X434.989 Y107.771
G01 X421.887 Y110.161
G01 X421.184 Y120.479
G01 X420.479 Y111.236
G01 X407.370 Y109.921
G01 X409.083 Y113.148
G01 X403.806 Y102.615
G01 X392.936 Y105.717
G01 X401.389 Y105.467
G01 X399.946 Y94.424
G01 X396.667 Y98.808
G01 X405.792 Y93.960
G01 X400.585 Y86.009
G01 X402.102 Y96.542
G01 X412.600 Y95.486
G01 X407.656 Y95.332
G01 X414.030 Y105.819
G01 X421.043 Y101.677
G01 X411.093 Y107.391
G01 X414.188 Y119.956
G01 X413.788 Y117.489
G01 X404.949 Y128.030
G01 X410.702 Y136.673
G01 X403.879 Y130.331
G01 X392.649 Y138.034
G01 X395.691 Y139.687
G01 X384.532 Y135.291
G01 X377.852 Y144.934
G01 X383.820 Y139.587
G01 X375.267 Y132.332
G01 X375.223 Y138.073
G01 X378.746 Y128.767
G01 X369.293 Y126.295
G01 X376.871 Y133.658
G01 X383.879 Y126.370
G01 X379.637 Y129.698
G01 X390.903 Y133.900
G01 X393.255 Y126.483
G01 X388.946 Y137.518
G01 X399.033 Y145.415
G01 X396.779 Y144.042
G01 X396.420 Y158.056
G01 X406.018 Y161.235
G01 X396.350 Y161.018
G01 X392.332 Y174.390
G01 X395.358 Y173.952
G01 X383.615 Y178.007
G01 X384.327 Y189.936
G01 X385.090 Y182.250
G01 X373.503 Y182.435
G01 X376.787 Y187.105
G01 X373.129 Y177.953
G01 X363.924 Y182.376
G01 X374.087 Y183.383
G01 X374.394 Y173.533
G01 X372.905 Y179.044
G01 X383.857 Y175.255
G01 X380.511 Y168.294
G01 X383.922 Y179.747
G01 X396.343 Y179.540
G01 X393.350 Y180.164
G01 X401.699 Y191.356
G01 X410.710 Y187.845
G01 X402.778 Y194.115
G01 X407.908 Y207.161
G01 X409.557 Y205.100
G01 X402.779 Y215.970
G01 X410.602 Y224.866
G01 X405.856 Y218.701
G01 X396.707 Y226.503
G01 X401.831 Y228.179
G01 X392.753 Y223.727
G01 X388.150 Y233.239
G01 X396.187 Y227.683
G01 X389.694 Y220.143
G01 X391.699 Y225.522
G01 X397.255 Y215.779
G01 X389.818 Y212.796
G01 X399.393 Y219.573
G01 X408.375 Y211.625
G01 X406.082 Y214.219
G01 X419.269 Y217.616
G01 X423.512 Y209.324
G01 X421.062 Y219.413
G01 X432.973 Y226.295
G01 X432.506 Y223.840
G01 X433.895 Y236.706
G01 X445.198 Y238.672
G01 X437.192 Y237.178
G01 X434.789 Y249.213
G01 X439.382 Y247.378
G01 X429.157 Y249.976
G01 X431.333 Y260.392
G01 X433.507 Y251.139
G01 X423.274 Y249.705
G01 X427.855 Y252.703
G01 X425.434 Y241.832
G01 X417.405 Y244.489
G01 X428.681 Y243.686
G01 X430.036 Y231.983
G01 X429.531 Y235.601
G01 X441.399 Y229.882
G01 X438.901 Y220.956
G01 X443.090 Y230.411
G01 X456.219 Y228.176
G01 X453.863 Y226.743
G01 X462.776 Y235.852
G01 X472.277 Y230.236
G01 X464.762 Y234.381
G01 X470.235 Y245.285
G01 X472.150 Y241.065
G01 X465.564 Y249.765
G01 X473.502 Y256.480
G01 X468.795 Y248.128
G01 X459.608 Y253.737
G01 X464.618 Y253.219
G01 X455.350 Y246.575
G01 X450.479 Y253.897
G01 X458.174 Y246.158
G01 X451.261 Y236.443
G01 X452.771 Y239.660
G01 X457.757 Y227.768
G01 X449.675 Y222.652
G01 X458.532 Y227.316
G01 X466.721 Y217.277
G01 X463.564 Y217.805
G01 X475.816 Y219.162
G01 X479.052 Y208.860
G01 X475.527 Y216.970
G01 X486.294 Y221.908
G01 X484.616 Y217.546
G01 X484.728 Y228.543
G01 X494.691 Y228.682
G01 X485.282 Y225.405
G01 X481.415 Y235.701
G01 X484.484 Y232.175
G01 X472.677 Y233.133
G01 X473.216 Y241.960
G01 X473.698 Y231.172
G01 X461.721 Y228.257
G01 X464.508 Y229.833
G01 X460.245 Y217.598
G01 X450.328 Y218.952
G01 X459.671 Y216.909
G01 X459.053 Y204.029
G01 X456.535 Y206.535
G01 X466.353 Y199.770
G01 X461.770 Y189.866
G01 X463.842 Y198.412
G01 X474.824 Y195.339
G01 X470.293 Y193.138
G01 X477.007 Y201.552
G01 X484.288 Y195.313
G01 X474.531 Y198.908
G01 X477.745 Y209.336
G01 X477.388 Y204.716
G01 X468.516 Y213.090
G01 X474.161 Y219.555
G01 X467.153 Y211.028
G01 X455.662 Y216.540
G01 X458.366 Y216.000
G01 X446.793 Y209.409
G01 X439.623 Y216.861
G01 X445.023 Y209.327
G01 X435.827 Y199.894
G01 X435.065 Y203.466
G01 X437.793 Y192.006
G01 X427.472 Y187.395
G01 X434.109 Y192.637
G01 X440.101 Y183.250
G01 X434.771 Y184.501
G01 X444.878 Y186.653
G01 X446.000 Y177.214
G01 X440.392 Y186.258
G01 X449.112 Y192.197
G01 X445.424 Y188.902
G01 X443.565 Y201.032
G01 X451.600 Y202.367
G01 X440.305 Y200.348
G01 X434.600 Y211.964
G01 X435.879 Y209.816
G01 X422.332 Y212.209
G01 X421.184 Y222.528
G01 X420.033 Y213.284
G01 X406.479 Y211.966
G01 X407.747 Y215.188
G01 X402.025 Y204.648
G01 X390.709 Y207.742
G01 X398.718 Y207.481
G01 X396.829 Y196.426
G01 X393.106 Y200.795
G01 X401.786 Y195.931
G01 X396.134 Y187.961
G01 X397.206 Y198.473
G01 X407.259 Y197.395
G01 X401.871 Y197.217
G01 X407.800 Y207.678
G01 X414.368 Y203.508
G01 X403.974 Y209.191
G01 X406.626 Y221.724
G01 X405.781 Y219.223
G01 X396.498 Y229.728
G01 X401.808 Y238.333
G01 X394.541 Y231.952
G01 X382.868 Y239.613
G01 X385.466 Y241.223
G01 X373.865 Y236.781
G01 X366.743 Y246.377
G01 X372.268 Y240.980
G01 X363.272 Y233.673
G01 X362.786 Y239.361
G01 X365.867 Y230.000
G01 X355.973 Y227.471
G01 X363.110 Y234.775
G01 X369.677 Y227.426
G01 X364.994 Y230.691
G01 X375.820 Y234.828
G01 X377.731 Y227.345
G01 X372.982 Y238.311
G01 X382.629 Y246.137
G01 X379.936 Y244.691
G01 X379.138 Y258.631
G01 X388.297 Y261.733
G01 X378.191 Y261.438
G01 X373.735 Y274.730
G01 X376.323 Y274.210
G01 X364.143 Y278.181
G01 X364.418 Y290.024
G01 X364.745 Y282.250
G01 X352.722 Y282.346
G01 X355.569 Y286.923
G01 X351.477 Y277.678
G01 X341.837 Y282.006
G01 X351.565 Y282.916
G01 X351.438 Y272.966
G01 X349.515 Y278.376
G01 X360.034 Y274.484
G01 X356.255 Y267.418
G01 X359.234 Y278.764
G01 X371.223 Y278.449
G01 X367.799 Y278.963
G01 X375.717 Y290.042
G01 X384.298 Y286.416
G01 X375.936 Y292.570
G01 X380.637 Y305.499
G01 X381.857 Y303.317
G01 X374.650 Y314.066
G01 X382.046 Y322.838
G01 X376.873 Y316.547
G01 X367.297 Y324.222
G01 X371.995 Y325.768
G01 X362.491 Y321.186
G01 X357.463 Y330.564
G01 X365.076 Y324.874
G01 X358.159 Y317.197
G01 X359.741 Y322.438
G01 X364.874 Y312.555
G01 X357.016 Y309.429
G01 X366.170 Y316.062
G01 X374.731 Y307.968
G01 X372.018 Y310.415
G01 X384.785 Y313.662
G01 X388.609 Y305.219
G01 X385.741 Y315.154
G01 X397.235 Y321.881
G01 X396.351 Y319.269
G01 X397.323 Y331.977
G01 X408.212 Y333.782
G01 X399.791 Y332.126
G01 X396.974 Y343.997
G01 X401.154 Y341.996
G01 X390.516 Y344.426
G01 X392.281 Y354.673
G01 X394.044 Y345.249
G01 X383.401 Y343.641
G01 X387.571 Y346.465
G01 X384.742 Y335.417
G01 X376.305 Y337.896
G01 X387.174 Y336.913
G01 X388.123 Y325.028
G01 X387.212 Y328.462
G01 X398.675 Y322.557
G01 X395.773 Y313.444
G01 X399.559 Y322.709
G01 X412.286 Y320.283
G01 X409.528 Y318.658
G01 X418.041 Y327.573
G01 X427.142 Y321.761
G01 X419.228 Y325.708
G01 X424.303 Y336.412
G01 X425.821 Y331.991
G01 X418.838 Y340.488
G01 X426.381 Y346.999
G01 X421.279 Y338.440
G01 X411.699 Y343.841
G01 X416.316 Y343.113
G01 X406.656 Y336.257
G01 X401.395 Y343.366
G01 X408.699 Y335.412
G01 X401.398 Y325.480
G01 X402.519 Y328.479
G01 X407.118 Y316.367
G01 X398.651 Y311.029
G01 X407.122 Y315.469
G01 X414.928 Y305.206
G01 X411.387 Y305.506
G01 X423.257 Y306.635
G01 X426.112 Y296.103
G01 X422.206 Y303.981
G01 X432.595 Y308.686
G01 X430.538 Y304.088
G01 X430.273 Y314.849
G01 X439.861 Y314.749
G01 X430.076 Y311.232
G01 X425.835 Y321.286
G01 X428.531 Y317.517
G01 X416.352 Y318.230
G01 X416.520 Y326.810
G01 X416.633 Y315.774
G01 X404.288 Y312.610
G01 X406.706 Y313.934
G01 X402.078 Y301.446
G01 X391.795 Y302.546
G01 X400.774 Y300.246
G01 X399.793 Y287.108
G01 X396.913 Y289.355
G01 X406.370 Y282.330
G01 X401.427 Y272.163
G01 X403.141 Y280.445
G01 X413.766 Y277.106
G01 X408.879 Y274.638
G01 X415.238 Y282.783
G01 X422.164 Y276.274
G01 X412.055 Y279.597
G01 X414.918 Y289.752
G01 X414.210 Y284.857
G01 X404.989 Y292.954
G01 X410.286 Y299.142
G01 X402.932 Y290.335
G01 X391.095 Y295.566
G01 X393.455 Y294.743
G01 X381.539 Y287.868
G01 X374.027 Y295.035
G01 X379.087 Y287.214
G01 X369.552 Y277.492
G01 X368.451 Y280.775
G01 X370.843 Y269.023
G01 X360.187 Y264.119
G01 X366.489 Y269.068
G01 X372.149 Y259.384
G01 X366.487 Y260.338
G01 X376.264 Y262.191
G01 X377.057 Y252.453
G01 X371.121 Y261.195
G01 X379.515 Y266.831
G01 X375.501 Y263.231
G01 X373.319 Y275.056
G01 X381.032 Y276.084
G01 X369.416 Y273.756
G01 X363.391 Y285.061
G01 X364.352 Y282.603
G01 X350.488 Y284.683
G01 X349.024 Y294.687
G01 X347.560 Y285.128
G01 X333.693 Y283.493
G01 X334.649 Y286.397
G01 X328.617 Y275.537
G01 X316.993 Y278.310
G01 X324.694 Y277.727
G01 X322.500 Y266.348
G01 X318.472 Y270.392
G01 X326.849 Y265.201
G01 X320.895 Y256.904
G01 X321.668 Y267.087
G01 X331.422 Y265.679
G01 X325.736 Y265.170
G01 X331.370 Y275.297
G01 X337.644 Y270.793
G01 X326.957 Y276.141
G01 X329.317 Y288.338
G01 X328.183 Y285.499
G01 X318.611 Y295.665
G01 X323.634 Y303.929
G01 X316.082 Y297.206
G01 X304.124 Y304.524
G01 X306.441 Y305.790
G01 X294.558 Y301.002
G01 X287.156 Y310.251
G01 X292.404 Y304.507
G01 X283.131 Y296.851
G01 X282.371 Y302.188
G01 X285.178 Y292.476
G01 X275.012 Y289.594
G01 X281.879 Y296.545
G01 X288.177 Y288.841
G01 X283.227 Y291.749
G01 X293.787 Y295.529
G01 X295.434 Y287.687
G01 X290.423 Y298.294
G01 X299.809 Y305.759
G01 X296.856 Y303.951
G01 X295.801 Y317.528
G01 X304.704 Y320.266
G01 X294.343 Y319.605
G01 X289.634 Y332.531
G01 X291.970 Y331.644
G01 X279.541 Y335.246
G01 X279.568 Y346.719
G01 X279.648 Y338.575
G01 X267.379 Y338.299
G01 X269.984 Y342.503
G01 X265.650 Y332.884
G01 X255.769 Y336.837
G01 X265.259 Y337.371
G01 X264.895 Y327.044
G01 X262.738 Y332.075
G01 X273.023 Y327.804
G01 X269.012 Y320.358
G01 X271.761 Y331.323
G01 X283.522 Y330.626
G01 X279.871 Y330.757
G01 X287.564 Y341.451
G01 X295.921 Y337.441
G01 X287.337 Y343.209
G01 X291.818 Y355.750
G01 X292.820 Y353.181
G01 X285.396 Y363.540
G01 X292.577 Y371.922
G01 X287.190 Y365.241
G01 X277.403 Y372.523
G01 X281.891 Y373.677
G01 X272.179 Y368.701
G01 X266.945 Y377.685
G01 X274.353 Y371.599
G01 X267.233 Y363.526
G01 X268.613 Y368.370
G01 X273.547 Y358.089
G01 X265.491 Y354.564
G01 X274.449 Y360.797
G01 X282.815 Y352.303
G01 X279.910 Y354.348
G01 X292.487 Y357.193
G01 X296.122 Y348.346
G01 X293.066 Y357.878
G01 X304.375 Y364.200
G01 X303.307 Y361.183
G01 X304.097 Y373.484
G01 X314.805 Y374.882
G01 X306.206 Y372.818
G01 X303.213 Y384.280
G01 X307.218 Y381.869
G01 X296.406 Y383.890
G01 X298.000 Y393.726
G01 X299.594 Y383.890
G01 X288.782 Y381.869
G01 X292.787 Y384.280
G01 X289.794 Y372.818

